P3
228 199
255
233 232 237 221 220 225 227 226 231 231 230 235 168 167 172 201 200 205 241 240 245 246 245 250 247 247 250 247 248 250 243 244 246 247 248 250 245 246 248 242 243 245 254 255 255 250 251 253 221 222 224 180 181 183 205 206 208 216 217 219 218 219 221 236 237 239 253 254 255 251 252 254 244 245 247 247 247 249 247 247 249 247 247 249 233 233 235 222 222 224 240 240 242 248 248 250 225 225 227 244 244 246 243 243 245 241 241 243 241 241 243 246 246 248 250 250 252 248 248 250 242 242 243 247 247 247 249 249 249 251 251 251 252 252 252 251 251 251 251 251 251 252 252 252 253 253 253 252 252 252 252 252 252 252 252 252 252 252 252 251 251 251 251 251 251 251 251 251 251 251 251 252 252 252 252 252 252 251 251 251 251 251 251 250 250 250 250 250 250 249 249 249 249 249 249 250 250 250 250 250 250 250 250 250 249 249 249 249 249 249 249 249 249 248 248 248 248 248 248 246 246 246 246 246 246 246 246 246 246 246 246 246 246 246 246 246 246 246 246 246 246 246 246 247 247 247 247 247 247 247 247 247 246 246 246 246 246 246 246 246 246 245 245 245 245 245 245 243 243 244 243 243 245 242 242 244 242 242 244 241 241 243 241 241 243 240 240 242 240 240 242 241 241 243 240 240 242 239 239 241 240 240 242 241 241 243 241 241 243 239 239 241 238 238 240 238 238 240 238 238 240 239 239 241 240 240 242 241 241 243 242 242 244 242 242 244 243 243 245 243 243 245 243 243 245 243 243 245 243 243 245 243 243 245 243 243 245 243 243 245 243 243 245 241 242 244 240 241 243 238 239 241 237 238 240 237 238 240 238 239 241 240 241 243 241 242 244 241 242 244 240 241 243 239 240 242 239 240 242 239 240 242 240 241 243 241 242 244 242 243 244 243 243 243 243 243 243 243 243 243 243 243 243 242 242 242 242 242 242 242 242 242 242 242 242 242 242 242 241 241 241 241 241 241 244 244 244 249 249 249 253 253 253 254 254 254 254 254 254 254 254 254 254 254 254 254 254 254 255 255 255 255 255 255 255 255 255 255 255 255 255 255 255 255 255 255 255 255 255 254 254 254 254 254 254 255 255 255 254 254 254 251 251 251 249 249 249 247 247 248 
226 226 228 202 202 204 215 215 217 235 235 237 227 227 229 219 219 221 244 244 246 215 215 217 235 235 237 234 234 236 244 244 246 232 232 234 184 184 186 120 120 122 229 229 230 180 180 180 224 224 224 237 237 237 229 229 229 239 239 239 242 242 242 239 239 239 251 251 251 246 246 246 246 246 246 246 246 246 246 246 246 246 246 246 243 243 243 237 237 237 232 232 232 238 238 239 231 231 233 220 220 222 206 206 208 208 208 210 192 192 194 207 207 209 184 184 186 194 194 196 196 196 198 201 201 203 185 185 187 191 191 193 188 188 190 199 199 201 194 194 195 189 189 189 161 161 161 205 205 205 200 200 200 195 195 195 189 189 189 208 208 208 226 226 226 233 233 233 242 242 242 213 213 213 
222 221 226 230 229 234 238 237 242 236 235 240 174 173 178 220 219 224 250 249 254 242 241 246 253 253 255 249 250 252 245 246 248 247 248 250 247 248 250 242 243 245 243 244 246 246 247 249 244 245 247 195 196 198 207 208 210 206 207 209 205 206 208 228 229 231 250 251 253 253 254 255 248 249 251 250 250 252 250 250 252 250 250 252 234 234 236 222 222 224 241 241 243 249 249 251 226 226 228 238 238 240 239 239 241 238 238 240 238 238 240 243 243 245 249 249 251 248 248 250 243 243 244 248 248 248 250 250 250 252 252 252 252 252 252 251 251 251 251 251 251 252 252 252 253 253 253 252 252 252 252 252 252 252 252 252 252 252 252 251 251 251 251 251 251 251 251 251 251 251 251 252 252 252 252 252 252 251 251 251 251 251 251 250 250 250 250 250 250 249 249 249 249 249 249 251 251 251 250 250 250 250 250 250 250 250 250 250 250 250 249 249 249 249 249 249 249 249 249 247 247 247 247 247 247 247 247 247 247 247 247 247 247 247 247 247 247 247 247 247 247 247 247 247 247 247 247 247 247 247 247 247 246 246 246 246 246 246 246 246 246 245 245 245 245 245 245 242 242 243 242 242 244 242 242 244 241 241 243 241 241 243 241 241 243 240 240 242 240 240 242 241 241 243 240 240 242 239 239 241 240 240 242 241 241 243 241 241 243 240 240 242 238 238 240 239 239 241 240 240 242 241 241 243 242 242 244 243 243 245 243 243 245 243 243 245 243 243 245 242 242 244 242 242 244 242 242 244 242 242 244 242 242 244 242 242 244 242 242 244 242 242 244 241 242 244 240 241 243 239 240 242 239 240 242 239 240 242 240 241 243 241 242 244 242 243 245 242 243 245 241 242 244 240 241 243 239 240 242 239 240 242 240 241 243 241 242 244 241 242 243 242 242 242 242 242 242 242 242 242 242 242 242 242 242 242 242 242 242 242 242 242 242 242 242 245 245 245 241 241 241 239 239 239 242 242 242 248 248 248 253 253 253 254 254 254 253 253 253 254 254 254 254 254 254 254 254 254 255 255 255 255 255 255 255 255 255 255 255 255 255 255 255 255 255 255 254 254 254 254 254 254 255 255 255 255 255 255 254 254 254 252 252 252 249 249 249 247 247 248 
232 232 234 205 205 207 216 216 218 228 228 230 229 229 231 221 221 223 243 243 245 227 227 229 238 238 240 229 229 231 232 232 234 216 216 218 178 178 180 132 132 134 244 244 245 210 210 210 232 232 232 229 229 229 217 217 217 231 231 231 245 245 245 246 246 246 247 247 247 251 251 251 249 249 249 248 248 248 247 247 247 246 246 246 241 241 241 233 233 233 226 226 226 230 230 231 201 201 203 215 215 217 204 204 206 199 199 201 188 188 190 210 210 212 190 190 192 211 211 213 207 207 209 214 214 216 204 204 206 202 202 204 183 183 185 191 191 193 196 196 197 178 178 178 160 160 160 183 183 183 165 165 165 195 195 195 192 192 192 146 146 146 92 92 92 173 173 173 176 176 176 148 148 148 
208 207 212 240 239 244 240 239 244 225 224 229 183 182 187 210 209 214 255 254 255 247 246 251 250 250 253 247 248 250 248 249 251 246 247 249 246 247 249 247 248 250 241 242 244 241 242 244 251 252 254 216 217 219 214 215 217 208 209 211 216 217 219 235 236 238 243 244 246 241 242 244 245 246 248 246 246 248 248 248 250 249 249 251 234 234 236 224 224 226 246 246 248 255 255 255 232 232 234 231 231 233 236 236 238 239 239 241 237 237 239 236 236 238 240 240 242 243 243 245 244 244 245 249 249 249 251 251 251 252 252 252 252 252 252 251 251 251 250 250 250 251 251 251 253 253 253 252 252 252 252 252 252 252 252 252 252 252 252 251 251 251 251 251 251 251 251 251 251 251 251 252 252 252 252 252 252 251 251 251 251 251 251 250 250 250 250 250 250 249 249 249 249 249 249 251 251 251 251 251 251 251 251 251 250 250 250 250 250 250 250 250 250 249 249 249 249 249 249 248 248 248 248 248 248 248 248 248 248 248 248 248 248 248 248 248 248 248 248 248 248 248 248 247 247 247 247 247 247 247 247 247 246 246 246 246 246 246 246 246 246 245 245 245 245 245 245 242 242 243 242 242 244 241 241 243 241 241 243 241 241 243 241 241 243 240 240 242 240 240 242 240 240 242 239 239 241 239 239 241 240 240 242 241 241 243 242 242 244 240 240 242 238 238 240 240 240 242 240 240 242 242 242 244 243 243 245 244 244 246 244 244 246 243 243 245 243 243 245 241 241 243 241 241 243 241 241 243 241 241 243 241 241 243 241 241 243 241 241 243 241 241 243 240 241 243 240 241 243 240 241 243 240 241 243 241 242 244 242 243 245 242 243 245 243 244 246 243 244 246 242 243 245 241 242 244 240 241 243 239 240 242 239 240 242 240 241 243 241 242 243 242 242 242 242 242 242 242 242 242 242 242 242 242 242 242 242 242 242 242 242 242 242 242 242 243 243 243 243 243 243 243 243 243 245 245 245 247 247 247 250 250 250 252 252 252 253 253 253 254 254 254 254 254 254 254 254 254 255 255 255 255 255 255 255 255 255 255 255 255 255 255 255 255 255 255 254 254 254 254 254 254 255 255 255 255 255 255 255 255 255 252 252 252 250 250 250 249 249 250 
242 242 244 218 218 220 223 223 225 221 221 223 230 230 232 222 222 224 233 233 235 229 229 231 233 233 235 229 229 231 225 225 227 211 211 213 179 179 181 199 199 201 254 254 255 218 218 218 236 236 236 238 238 238 224 224 224 224 224 224 241 241 241 249 249 249 244 244 244 252 252 252 250 250 250 248 248 248 247 247 247 246 246 246 240 240 240 231 231 231 223 223 223 216 216 217 147 147 149 218 218 220 221 221 223 212 212 214 199 199 201 192 192 194 185 185 187 199 199 201 212 212 214 220 220 222 193 193 195 188 188 190 180 180 182 183 183 185 169 169 170 168 168 168 154 154 154 162 162 162 167 167 167 187 187 187 173 173 173 141 141 141 166 166 166 222 222 222 234 234 234 229 229 229 
225 224 229 240 239 244 244 243 248 228 227 232 200 199 204 187 186 191 244 243 248 246 245 250 246 246 249 245 246 248 251 252 254 245 246 248 244 245 247 253 254 255 247 248 250 240 241 243 251 252 254 224 225 227 214 215 217 212 213 215 231 232 234 246 247 249 233 234 236 223 224 226 234 235 237 235 235 237 239 239 241 242 242 244 228 228 230 221 221 223 247 247 249 255 255 255 235 235 237 231 231 233 240 240 242 246 246 248 241 241 243 235 235 237 236 236 238 243 243 245 248 248 249 250 250 250 251 251 251 252 252 252 252 252 252 251 251 251 250 250 250 251 251 251 253 253 253 252 252 252 252 252 252 252 252 252 252 252 252 251 251 251 251 251 251 251 251 251 251 251 251 252 252 252 252 252 252 251 251 251 251 251 251 250 250 250 250 250 250 249 249 249 249 249 249 251 251 251 251 251 251 251 251 251 251 251 251 250 250 250 250 250 250 250 250 250 250 250 250 248 248 248 248 248 248 248 248 248 248 248 248 248 248 248 248 248 248 248 248 248 248 248 248 247 247 247 247 247 247 247 247 247 246 246 246 246 246 246 246 246 246 245 245 245 245 245 245 241 241 242 241 241 243 241 241 243 241 241 243 241 241 243 241 241 243 240 240 242 240 240 242 240 240 242 239 239 241 239 239 241 240 240 242 241 241 243 242 242 244 240 240 242 239 239 241 240 240 242 241 241 243 242 242 244 244 244 246 244 244 246 244 244 246 243 243 245 243 243 245 240 240 242 240 240 242 240 240 242 240 240 242 240 240 242 240 240 242 240 240 242 240 240 242 240 241 243 240 241 243 241 242 244 241 242 244 242 243 245 243 244 246 243 244 246 244 245 247 244 245 247 243 244 246 241 242 244 240 241 243 239 240 242 239 240 242 240 241 243 240 241 242 241 241 241 241 241 241 241 241 241 242 242 242 242 242 242 242 242 242 242 242 242 243 243 243 240 240 240 244 244 244 248 248 248 249 249 249 248 248 248 247 247 247 250 250 250 252 252 252 254 254 254 254 254 254 254 254 254 255 255 255 255 255 255 255 255 255 255 255 255 255 255 255 255 255 255 254 254 254 254 254 254 255 255 255 255 255 255 255 255 255 253 253 253 250 250 250 241 241 242 
239 239 241 221 221 223 223 223 225 213 213 215 229 229 231 223 223 225 226 226 228 228 228 230 219 219 221 220 220 222 227 227 229 230 230 232 194 194 196 248 248 250 215 215 216 207 207 207 236 236 236 255 255 255 240 240 240 222 222 222 231 231 231 246 246 246 244 244 244 249 249 249 247 247 247 245 245 245 246 246 246 245 245 245 240 240 240 231 231 231 224 224 224 217 217 218 115 115 117 237 237 239 250 250 252 234 234 236 213 213 215 164 164 166 167 167 169 156 156 158 199 199 201 209 209 211 155 155 157 151 151 153 170 170 172 167 167 169 119 119 120 122 122 122 156 156 156 175 175 175 199 199 199 226 226 226 240 240 240 203 203 203 245 245 245 236 236 236 237 237 237 222 222 222 
230 229 234 228 227 232 242 241 246 236 235 240 212 211 216 216 215 220 241 240 245 245 244 249 247 247 250 243 244 246 243 244 246 243 244 246 244 245 247 245 246 248 245 246 248 245 246 248 246 247 249 232 233 235 223 224 226 204 205 207 241 242 244 248 249 251 217 218 220 227 228 230 223 224 226 235 235 237 230 230 232 236 236 238 210 210 212 246 246 248 239 239 241 254 254 255 244 244 246 249 249 251 248 248 250 250 250 252 251 251 253 246 246 248 240 240 242 242 242 244 249 249 250 250 250 250 251 251 251 252 252 252 253 253 253 253 253 253 252 252 252 251 251 251 250 250 250 251 251 251 252 252 252 252 252 252 253 253 253 253 253 253 252 252 252 252 252 252 251 251 251 251 251 251 251 251 251 251 251 251 251 251 251 250 250 250 250 250 250 250 250 250 250 250 250 250 250 250 249 249 249 249 249 249 249 249 249 249 249 249 248 248 248 248 248 248 248 248 248 250 250 250 250 250 250 249 249 249 249 249 249 249 249 249 248 248 248 248 248 248 248 248 248 248 248 248 248 248 248 247 247 247 246 246 246 246 246 246 245 245 245 245 245 245 244 244 244 242 242 243 242 242 244 242 242 244 242 242 244 241 241 243 240 240 242 239 239 241 239 239 241 239 239 241 238 238 240 238 238 240 240 240 242 242 242 244 244 244 246 244 244 246 243 243 245 241 241 243 241 241 243 242 242 244 244 244 246 246 246 248 246 246 248 245 245 247 243 243 245 237 237 239 237 237 239 236 236 238 236 236 238 236 236 238 238 238 240 239 239 241 240 240 242 240 241 243 240 241 243 240 241 243 241 242 244 241 242 244 241 242 244 242 243 245 242 243 245 240 241 243 240 241 243 241 242 244 241 242 244 241 242 244 241 242 244 241 242 244 241 242 243 240 240 240 241 241 241 241 241 241 240 240 240 239 239 239 240 240 240 242 242 242 244 244 244 246 246 246 247 247 247 249 249 249 250 250 250 252 252 252 253 253 253 253 253 253 253 253 253 253 253 253 254 254 254 254 254 254 254 254 254 254 254 254 254 254 254 254 254 254 255 255 255 255 255 255 254 254 254 252 252 252 252 252 252 253 253 253 254 254 254 253 253 253 252 252 252 245 245 246 
219 219 221 223 223 225 204 204 206 225 225 227 181 181 183 198 198 200 227 227 229 219 219 221 230 230 232 210 210 212 214 214 216 228 228 230 189 189 191 227 227 229 160 160 161 227 227 227 240 240 240 250 250 250 246 246 246 233 233 233 227 227 227 235 235 235 246 246 246 255 255 255 245 245 245 240 240 240 243 243 243 241 241 241 234 234 234 232 232 232 238 238 238 202 202 203 219 219 221 235 235 237 241 241 243 241 241 243 237 237 239 227 227 229 215 215 217 153 153 155 120 120 122 115 115 117 150 150 152 173 173 175 153 153 155 118 118 120 100 100 101 156 156 156 184 184 184 214 214 214 192 192 192 209 209 209 226 226 226 203 203 203 245 245 245 238 238 238 226 226 226 224 224 224 
222 221 226 228 227 232 248 247 252 243 242 247 219 218 223 212 211 216 255 254 255 245 244 249 251 251 254 243 244 246 243 244 246 243 244 246 244 245 247 245 246 248 245 246 248 246 247 249 246 247 249 254 255 255 233 234 236 196 197 199 223 224 226 241 242 244 227 228 230 238 239 241 228 229 231 248 248 250 243 243 245 244 244 246 228 228 230 254 254 255 248 248 250 254 254 255 249 249 251 250 250 252 249 249 251 251 251 253 252 252 254 248 248 250 240 240 242 239 239 241 243 243 244 248 248 248 248 248 248 250 250 250 251 251 251 252 252 252 253 253 253 253 253 253 253 253 253 252 252 252 252 252 252 253 253 253 253 253 253 253 253 253 253 253 253 252 252 252 252 252 252 251 251 251 251 251 251 251 251 251 251 251 251 250 250 250 250 250 250 250 250 250 250 250 250 250 250 250 249 249 249 249 249 249 249 249 249 249 249 249 248 248 248 248 248 248 248 248 248 250 250 250 250 250 250 249 249 249 249 249 249 249 249 249 248 248 248 248 248 248 248 248 248 248 248 248 248 248 248 247 247 247 247 247 247 246 246 246 245 245 245 245 245 245 245 245 245 242 242 243 242 242 244 243 243 245 242 242 244 242 242 244 241 241 243 240 240 242 239 239 241 237 237 239 236 236 238 236 236 238 237 237 239 240 240 242 241 241 243 241 241 243 240 240 242 242 242 244 241 241 243 242 242 244 244 244 246 246 246 248 246 246 248 245 245 247 243 243 245 238 238 240 238 238 240 237 237 239 236 236 238 237 237 239 238 238 240 239 239 241 240 240 242 240 241 243 240 241 243 240 241 243 241 242 244 241 242 244 241 242 244 242 243 245 242 243 245 241 242 244 241 242 244 241 242 244 241 242 244 241 242 244 241 242 244 241 242 244 241 242 243 240 240 240 241 241 241 241 241 241 240 240 240 239 239 239 240 240 240 242 242 242 244 244 244 245 245 245 246 246 246 248 248 248 250 250 250 252 252 252 253 253 253 254 254 254 254 254 254 253 253 253 253 253 253 253 253 253 254 254 254 254 254 254 254 254 254 254 254 254 255 255 255 255 255 255 254 254 254 252 252 252 252 252 252 254 254 254 254 254 254 254 254 254 253 253 253 248 248 249 
218 218 220 195 195 197 204 204 206 198 198 200 183 183 185 210 210 212 224 224 226 217 217 219 226 226 228 224 224 226 214 214 216 215 215 217 190 190 192 210 210 212 175 175 176 236 236 236 244 244 244 249 249 249 246 246 246 237 237 237 233 233 233 238 238 238 245 245 245 245 245 245 242 242 242 242 242 242 243 243 243 237 237 237 229 229 229 231 231 231 241 241 241 231 231 232 237 237 239 242 242 244 242 242 244 239 239 241 237 237 239 235 235 237 233 233 235 225 225 227 200 200 202 183 183 185 190 190 192 203 203 205 202 202 204 190 190 192 181 181 182 201 201 201 184 184 184 195 195 195 188 188 188 218 218 218 220 220 220 196 196 196 229 229 229 226 226 226 222 222 222 217 217 217 
220 219 224 224 223 228 236 235 240 240 239 244 195 194 199 204 203 208 233 232 237 243 242 247 246 246 249 243 244 246 243 244 246 244 245 247 244 245 247 245 246 248 246 247 249 246 247 249 247 248 250 252 253 255 244 245 247 214 215 217 214 215 217 209 210 212 202 203 205 234 235 237 246 247 249 254 254 255 250 250 252 243 243 245 243 243 245 254 254 255 251 251 253 244 244 246 246 246 248 249 249 251 248 248 250 250 250 252 252 252 254 250 250 252 244 244 246 240 240 242 240 240 241 246 246 246 246 246 246 247 247 247 249 249 249 250 250 250 252 252 252 254 254 254 255 255 255 253 253 253 253 253 253 253 253 253 254 254 254 254 254 254 253 253 253 253 253 253 253 253 253 251 251 251 251 251 251 251 251 251 251 251 251 250 250 250 250 250 250 250 250 250 250 250 250 250 250 250 249 249 249 249 249 249 249 249 249 249 249 249 248 248 248 248 248 248 248 248 248 249 249 249 249 249 249 249 249 249 249 249 249 249 249 249 248 248 248 248 248 248 248 248 248 248 248 248 248 248 248 247 247 247 247 247 247 246 246 246 246 246 246 245 245 245 245 245 245 243 243 244 243 243 245 243 243 245 243 243 245 242 242 244 241 241 243 240 240 242 240 240 242 237 237 239 236 236 238 236 236 238 237 237 239 239 239 241 241 241 243 241 241 243 240 240 242 243 243 245 242 242 244 242 242 244 244 244 246 246 246 248 246 246 248 245 245 247 244 244 246 240 240 242 239 239 241 238 238 240 237 237 239 238 238 240 239 239 241 240 240 242 241 241 243 240 241 243 241 242 244 241 242 244 241 242 244 241 242 244 242 243 245 242 243 245 242 243 245 241 242 244 241 242 244 241 242 244 241 242 244 241 242 244 241 242 244 241 242 244 241 242 243 240 240 240 241 241 241 241 241 241 240 240 240 239 239 239 240 240 240 242 242 242 244 244 244 244 244 244 245 245 245 247 247 247 249 249 249 251 251 251 252 252 252 253 253 253 253 253 253 253 253 253 253 253 253 253 253 253 253 253 253 254 254 254 254 254 254 255 255 255 255 255 255 255 255 255 254 254 254 253 253 253 254 254 254 255 255 255 255 255 255 255 255 255 254 254 254 253 253 254 
224 224 226 163 163 165 204 204 206 181 181 183 188 188 190 216 216 218 216 216 218 217 217 219 217 217 219 224 224 226 215 215 217 218 218 220 216 216 218 212 212 214 204 204 205 248 248 248 249 249 249 248 248 248 245 245 245 242 242 242 240 240 240 242 242 242 244 244 244 244 244 244 246 246 246 250 250 250 248 248 248 237 237 237 227 227 227 233 233 233 246 246 246 225 225 226 230 230 232 238 238 240 244 244 246 242 242 244 237 237 239 235 235 237 236 236 238 233 233 235 229 229 231 218 218 220 209 209 211 209 209 211 215 215 217 211 211 213 202 202 203 209 209 209 201 201 201 209 209 209 180 180 180 203 203 203 215 215 215 212 212 212 219 219 219 214 214 214 220 220 220 209 209 209 
210 209 214 223 222 227 220 219 224 223 222 227 163 162 167 207 206 211 185 184 189 246 245 250 239 239 242 243 244 246 243 244 246 244 245 247 244 245 247 245 246 248 246 247 249 247 248 250 247 248 250 238 239 241 251 252 254 238 239 241 220 221 223 193 194 196 185 186 188 226 227 229 254 255 255 251 251 253 249 249 251 237 237 239 250 250 252 250 250 252 249 249 251 232 232 234 238 238 240 247 247 249 247 247 249 248 248 250 250 250 252 251 251 253 250 250 252 247 247 249 245 245 246 247 247 247 247 247 247 247 247 247 247 247 247 249 249 249 251 251 251 254 254 254 255 255 255 253 253 253 253 253 253 254 254 254 254 254 254 254 254 254 254 254 254 253 253 253 253 253 253 251 251 251 251 251 251 251 251 251 251 251 251 250 250 250 250 250 250 250 250 250 250 250 250 250 250 250 249 249 249 249 249 249 249 249 249 249 249 249 248 248 248 248 248 248 248 248 248 249 249 249 249 249 249 249 249 249 249 249 249 249 249 249 249 249 249 249 249 249 248 248 248 249 249 249 248 248 248 248 248 248 247 247 247 246 246 246 246 246 246 245 245 245 245 245 245 244 244 245 244 244 246 244 244 246 244 244 246 243 243 245 242 242 244 241 241 243 241 241 243 241 241 243 240 240 242 239 239 241 241 241 243 243 243 245 244 244 246 244 244 246 243 243 245 244 244 246 243 243 245 242 242 244 244 244 246 245 245 247 246 246 248 245 245 247 244 244 246 241 241 243 241 241 243 239 239 241 239 239 241 239 239 241 240 240 242 241 241 243 242 242 244 241 242 244 241 242 244 241 242 244 241 242 244 241 242 244 242 243 245 242 243 245 242 243 245 242 243 245 242 243 245 242 243 245 242 243 245 241 242 244 241 242 244 241 242 244 241 242 243 240 240 240 241 241 241 241 241 241 240 240 240 239 239 239 240 240 240 242 242 242 244 244 244 245 245 245 246 246 246 247 247 247 249 249 249 250 250 250 250 250 250 250 250 250 250 250 250 252 252 252 252 252 252 252 252 252 253 253 253 254 254 254 254 254 254 255 255 255 255 255 255 255 255 255 254 254 254 254 254 254 255 255 255 255 255 255 255 255 255 255 255 255 254 254 254 252 252 253 
227 227 229 139 139 141 194 194 196 193 193 195 198 198 200 214 214 216 220 220 222 225 225 227 213 213 215 210 210 212 217 217 219 234 234 236 244 244 246 227 227 229 219 219 220 254 254 254 253 253 253 250 250 250 246 246 246 243 243 243 241 241 241 243 243 243 245 245 245 249 249 249 250 250 250 251 251 251 247 247 247 235 235 235 228 228 228 234 234 234 245 245 245 217 217 218 223 223 225 234 234 236 244 244 246 243 243 245 234 234 236 231 231 233 234 234 236 220 220 222 227 227 229 227 227 229 217 217 219 211 211 213 211 211 213 206 206 208 197 197 198 199 199 199 203 203 203 212 212 212 181 181 181 198 198 198 213 213 213 228 228 228 220 220 220 213 213 213 221 221 221 205 205 205 
198 197 202 225 224 229 221 220 225 202 201 206 175 174 179 219 218 223 166 165 170 248 247 252 240 240 243 242 243 245 243 244 246 244 245 247 245 246 248 246 247 249 247 248 250 248 249 251 248 249 251 246 247 249 253 254 255 244 245 247 232 233 235 220 221 223 219 220 222 237 238 240 245 246 248 248 248 250 249 249 251 236 236 238 255 255 255 250 250 252 252 252 254 229 229 231 235 235 237 249 249 251 249 249 251 248 248 250 249 249 251 250 250 252 252 252 254 251 251 253 250 250 251 249 249 249 249 249 249 248 248 248 248 248 248 248 248 248 250 250 250 252 252 252 253 253 253 252 252 252 253 253 253 253 253 253 254 254 254 254 254 254 253 253 253 253 253 253 252 252 252 251 251 251 251 251 251 251 251 251 251 251 251 250 250 250 250 250 250 250 250 250 250 250 250 250 250 250 249 249 249 249 249 249 249 249 249 249 249 249 248 248 248 248 248 248 248 248 248 248 248 248 249 249 249 249 249 249 249 249 249 249 249 249 249 249 249 249 249 249 249 249 249 249 249 249 249 249 249 248 248 248 248 248 248 247 247 247 246 246 246 246 246 246 245 245 245 245 245 246 245 245 247 245 245 247 245 245 247 244 244 246 243 243 245 242 242 244 242 242 244 243 243 245 242 242 244 242 242 244 243 243 245 245 245 247 246 246 248 245 245 247 244 244 246 245 245 247 244 244 246 243 243 245 243 243 245 245 245 247 246 246 248 245 245 247 244 244 246 243 243 245 242 242 244 241 241 243 240 240 242 240 240 242 241 241 243 242 242 244 243 243 245 242 243 245 242 243 245 242 243 245 242 243 245 242 243 245 242 243 245 242 243 245 242 243 245 243 244 246 243 244 246 242 243 245 242 243 245 242 243 245 241 242 244 241 242 244 241 242 243 240 240 240 241 241 241 241 241 241 240 240 240 239 239 239 240 240 240 242 242 242 244 244 244 246 246 246 247 247 247 247 247 247 248 248 248 248 248 248 248 248 248 247 247 247 247 247 247 251 251 251 251 251 251 252 252 252 253 253 253 253 253 253 254 254 254 255 255 255 255 255 255 255 255 255 254 254 254 254 254 254 255 255 255 255 255 255 255 255 255 255 255 255 253 253 253 250 250 251 
230 230 232 136 136 138 169 169 171 208 208 210 202 202 204 196 196 198 227 227 229 229 229 231 214 214 216 205 205 207 228 228 230 244 244 246 247 247 249 239 239 241 222 222 223 254 254 254 255 255 255 254 254 254 248 248 248 241 241 241 238 238 238 242 242 242 247 247 247 249 249 249 246 246 246 242 242 242 237 237 237 232 232 232 229 229 229 232 232 232 237 237 237 232 232 233 235 235 237 241 241 243 243 243 245 238 238 240 233 233 235 235 235 237 240 240 242 233 233 235 231 231 233 226 226 228 221 221 223 216 216 218 212 212 214 210 210 212 210 210 211 206 206 206 189 189 189 185 185 185 196 196 196 221 221 221 213 213 213 224 224 224 223 223 223 208 208 208 213 213 213 204 204 204 
212 211 216 224 223 228 230 229 234 189 188 193 213 212 217 225 224 229 187 186 191 237 236 241 242 242 245 242 243 245 243 244 246 244 245 247 245 246 248 246 247 249 247 248 250 248 249 251 249 250 252 249 250 252 249 250 252 247 248 250 246 247 249 247 248 250 249 250 252 248 249 251 245 246 248 243 243 245 248 248 250 237 237 239 252 252 254 250 250 252 252 252 254 229 229 231 230 230 232 250 250 252 252 252 254 251 251 253 248 248 250 248 248 250 250 250 252 251 251 253 249 249 250 251 251 251 250 250 250 250 250 250 250 250 250 249 249 249 250 250 250 250 250 250 251 251 251 252 252 252 252 252 252 252 252 252 253 253 253 253 253 253 252 252 252 252 252 252 252 252 252 251 251 251 251 251 251 251 251 251 251 251 251 250 250 250 250 250 250 250 250 250 250 250 250 250 250 250 249 249 249 249 249 249 249 249 249 249 249 249 248 248 248 248 248 248 248 248 248 248 248 248 248 248 248 248 248 248 249 249 249 249 249 249 249 249 249 249 249 249 249 249 249 249 249 249 249 249 249 248 248 248 248 248 248 247 247 247 247 247 247 246 246 246 246 246 246 246 246 247 246 246 248 246 246 248 246 246 248 245 245 247 244 244 246 243 243 245 243 243 245 243 243 245 242 242 244 241 241 243 242 242 244 244 244 246 245 245 247 244 244 246 243 243 245 247 247 249 245 245 247 243 243 245 243 243 245 245 245 247 246 246 248 246 246 248 245 245 247 245 245 247 244 244 246 243 243 245 242 242 244 241 241 243 242 242 244 243 243 245 243 243 245 243 244 246 243 244 246 243 244 246 242 243 245 242 243 245 242 243 245 242 243 245 241 242 244 244 245 247 243 244 246 243 244 246 242 243 245 242 243 245 241 242 244 241 242 244 241 242 243 240 240 240 241 241 241 241 241 241 240 240 240 239 239 239 240 240 240 242 242 242 244 244 244 246 246 246 246 246 246 247 247 247 247 247 247 247 247 247 247 247 247 246 246 246 246 246 246 250 250 250 251 251 251 251 251 251 252 252 252 253 253 253 254 254 254 255 255 255 255 255 255 255 255 255 254 254 254 254 254 254 255 255 255 255 255 255 255 255 255 253 253 253 251 251 251 254 254 255 
241 241 243 165 165 167 151 151 153 197 197 199 193 193 195 159 159 161 209 209 211 220 220 222 204 204 206 221 221 223 246 246 248 252 252 254 245 245 247 254 254 255 242 242 243 253 253 253 255 255 255 255 255 255 250 250 250 240 240 240 236 236 236 241 241 241 247 247 247 249 249 249 242 242 242 235 235 235 233 233 233 236 236 236 236 236 236 233 233 233 229 229 229 216 216 217 229 229 231 241 241 243 243 243 245 240 240 242 237 237 239 235 235 237 233 233 235 233 233 235 224 224 226 220 220 222 222 222 224 219 219 221 209 209 211 204 204 206 205 205 206 198 198 198 202 202 202 184 184 184 209 209 209 228 228 228 219 219 219 224 224 224 223 223 223 197 197 197 193 193 193 204 204 204 
229 228 233 225 224 229 225 224 229 195 194 199 227 226 231 223 222 227 213 212 217 224 223 228 243 243 246 242 243 245 243 244 246 244 245 247 245 246 248 247 248 250 248 249 251 249 250 252 250 251 253 244 245 247 245 246 248 252 253 255 251 252 254 249 250 252 249 250 252 248 249 251 252 253 255 239 239 241 247 247 249 241 241 243 246 246 248 250 250 252 250 250 252 232 232 234 225 225 227 243 243 245 250 250 252 252 252 254 249 249 251 247 247 249 249 249 251 250 250 252 248 248 249 250 250 250 251 251 251 251 251 251 252 252 252 252 252 252 251 251 251 251 251 251 250 250 250 250 250 250 251 251 251 251 251 251 252 252 252 252 252 252 251 251 251 251 251 251 250 250 250 251 251 251 251 251 251 251 251 251 251 251 251 250 250 250 250 250 250 250 250 250 250 250 250 250 250 250 249 249 249 249 249 249 249 249 249 249 249 249 248 248 248 248 248 248 248 248 248 248 248 248 248 248 248 248 248 248 249 249 249 249 249 249 249 249 249 250 250 250 250 250 250 249 249 249 249 249 249 249 249 249 248 248 248 247 247 247 247 247 247 246 246 246 246 246 246 247 247 248 247 247 249 247 247 249 247 247 249 246 246 248 245 245 247 244 244 246 243 243 245 243 243 245 242 242 244 242 242 244 242 242 244 244 244 246 245 245 247 244 244 246 243 243 245 247 247 249 246 246 248 244 244 246 243 243 245 245 245 247 246 246 248 246 246 248 245 245 247 246 246 248 245 245 247 244 244 246 243 243 245 242 242 244 243 243 245 243 243 245 244 244 246 243 244 246 243 244 246 243 244 246 243 244 246 242 243 245 242 243 245 241 242 244 241 242 244 244 245 247 244 245 247 243 244 246 243 244 246 242 243 245 241 242 244 241 242 244 240 241 242 240 240 240 241 241 241 241 241 241 240 240 240 239 239 239 240 240 240 242 242 242 244 244 244 243 243 243 244 244 244 245 245 245 246 246 246 247 247 247 247 247 247 247 247 247 247 247 247 250 250 250 250 250 250 251 251 251 252 252 252 253 253 253 254 254 254 255 255 255 255 255 255 255 255 255 255 255 255 254 254 254 255 255 255 255 255 255 254 254 254 251 251 251 248 248 248 242 242 243 
242 242 244 209 209 211 157 157 159 170 170 172 192 192 194 130 130 132 180 180 182 216 216 218 181 181 183 243 243 245 255 255 255 255 255 255 253 253 255 255 255 255 255 255 255 254 254 254 255 255 255 255 255 255 250 250 250 242 242 242 238 238 238 241 241 241 246 246 246 250 250 250 243 243 243 236 236 236 236 236 236 240 240 240 239 239 239 228 228 228 216 216 216 194 194 195 218 218 220 238 238 240 241 241 243 239 239 241 239 239 241 234 234 236 224 224 226 228 228 230 223 223 225 222 222 224 225 225 227 223 223 225 211 211 213 199 199 201 193 193 194 183 183 183 210 210 210 171 171 171 204 204 204 222 222 222 226 226 226 223 223 223 219 219 219 201 201 201 182 182 182 206 206 206 
225 224 228 232 231 235 216 215 219 212 211 215 215 214 218 223 222 226 225 224 228 220 219 223 244 244 247 242 243 245 243 244 246 244 245 247 245 246 248 247 248 250 248 249 251 249 250 252 250 251 253 252 253 255 244 245 247 247 248 250 247 248 250 248 249 251 249 250 252 245 246 248 250 251 253 242 242 243 251 251 252 248 248 249 245 245 246 253 253 254 252 252 253 237 237 238 225 225 226 235 235 236 245 245 246 251 251 252 249 249 250 247 247 248 249 249 250 250 250 251 249 249 250 249 249 249 250 250 250 252 252 252 253 253 253 253 253 253 253 253 253 252 252 252 251 251 251 250 250 250 250 250 250 251 251 251 251 251 251 251 251 251 251 251 251 250 250 250 250 250 250 251 251 251 251 251 251 251 251 251 251 251 251 250 250 250 250 250 250 250 250 250 250 250 250 250 250 250 249 249 249 249 249 249 249 249 249 249 249 249 248 248 248 248 248 248 248 248 248 248 248 248 248 248 248 248 248 248 249 249 249 249 249 249 249 249 249 250 250 250 250 250 250 250 250 250 249 249 249 249 249 249 248 248 248 248 248 248 247 247 247 246 246 246 246 246 246 247 247 248 247 247 248 247 247 248 247 247 248 246 246 247 245 245 246 244 244 245 244 244 245 245 245 246 244 244 245 243 243 244 244 244 245 245 245 246 246 246 247 245 245 246 244 244 245 248 248 249 246 246 247 244 244 245 243 243 244 245 245 246 246 246 247 246 246 247 245 245 246 247 247 248 246 246 247 244 244 245 243 243 244 243 243 244 243 243 244 244 244 245 244 244 245 244 245 246 244 245 246 243 244 245 243 244 245 242 243 244 242 243 244 241 242 243 241 242 243 245 246 247 244 245 246 244 245 246 243 244 245 242 243 244 241 242 243 241 242 243 240 241 242 240 240 240 241 241 241 241 241 241 240 240 240 239 239 239 240 240 240 242 242 242 244 244 244 241 241 241 242 242 242 243 243 243 245 245 245 247 247 247 248 248 248 248 248 248 249 249 249 249 249 249 250 250 250 251 251 251 252 252 252 253 253 253 254 254 254 255 255 255 255 255 255 255 255 255 255 255 255 254 254 254 255 255 255 255 255 255 253 253 253 250 250 250 247 247 247 212 212 213 
227 227 228 236 236 237 172 172 173 153 153 154 206 206 207 127 127 128 168 168 169 224 224 225 163 163 164 254 254 255 254 254 255 255 255 255 255 255 255 251 251 252 250 250 251 255 255 255 255 255 255 255 255 255 250 250 250 244 244 244 241 241 241 242 242 242 244 244 244 249 249 249 243 243 243 237 237 237 237 237 237 239 239 239 233 233 233 216 216 216 200 200 200 208 208 209 230 230 231 242 242 243 234 234 235 230 230 231 238 238 239 238 238 239 229 229 230 228 228 229 225 225 226 220 220 221 214 214 215 210 210 211 206 206 207 197 197 198 189 189 190 189 189 189 184 184 184 117 117 117 191 191 191 231 231 231 227 227 227 205 205 205 212 212 212 221 221 221 185 185 185 210 210 210 
205 205 207 217 217 219 216 216 218 221 221 223 223 223 225 229 229 231 218 218 220 210 210 212 240 240 242 245 245 247 247 247 249 242 242 244 240 240 242 247 247 249 248 248 250 248 248 250 253 253 255 252 252 254 248 248 250 247 247 249 250 250 252 253 253 255 251 251 253 249 249 251 248 248 249 248 248 249 247 247 247 248 248 248 252 252 252 253 253 253 246 246 246 233 233 233 221 221 221 239 239 239 245 245 245 249 249 249 247 247 247 248 248 248 251 251 251 250 250 250 245 245 245 250 250 250 251 251 251 252 252 252 251 251 251 249 249 249 248 248 248 250 250 250 251 251 251 252 252 252 252 252 252 250 250 250 250 250 250 250 250 250 251 251 251 252 252 252 253 253 253 252 252 252 251 251 251 250 250 250 249 249 249 249 249 249 250 250 250 251 251 251 252 252 252 251 251 251 251 251 251 251 251 251 251 251 251 251 251 251 251 251 251 251 251 251 251 251 251 249 249 249 249 249 249 249 249 249 249 249 249 249 249 249 249 249 249 249 249 249 249 249 249 249 249 249 249 249 249 249 249 249 249 249 249 249 249 249 249 249 249 249 249 249 249 249 249 248 248 248 248 248 248 248 248 248 247 247 247 247 247 247 246 246 246 246 246 246 246 246 246 246 246 246 245 245 245 245 245 245 246 246 246 248 248 248 248 248 248 247 247 247 245 245 245 246 246 246 244 244 244 242 242 242 242 242 242 244 244 244 245 245 245 246 246 246 245 245 245 243 243 243 244 244 244 245 245 245 246 246 246 246 246 246 245 245 245 244 244 244 243 243 243 244 244 244 244 244 244 244 244 244 244 244 244 244 244 244 244 244 244 244 244 244 244 244 244 246 246 246 246 246 246 245 245 245 245 245 245 244 244 244 244 244 244 243 243 243 243 243 243 243 243 243 240 240 240 236 236 236 235 235 235 236 236 236 237 237 237 237 237 237 237 237 237 242 242 242 244 244 244 246 246 246 247 247 247 247 247 247 248 248 248 250 250 250 252 252 252 251 251 251 252 252 252 252 252 252 253 253 253 253 253 253 254 254 254 255 255 255 255 255 255 253 253 253 255 255 255 255 255 255 248 248 248 255 255 255 251 251 251 228 228 228 209 209 209 213 213 213 
221 221 221 214 214 214 220 220 220 147 147 147 185 185 185 217 217 217 183 183 183 174 174 174 192 192 192 250 250 250 255 255 255 248 248 248 255 255 255 253 253 253 255 255 255 253 253 253 255 255 255 255 255 255 253 253 253 244 244 244 239 239 239 241 241 241 244 244 244 251 251 251 244 244 244 237 237 237 238 238 238 242 242 242 228 228 228 191 191 191 155 155 155 218 218 218 228 228 228 235 235 235 234 234 234 230 230 230 229 229 229 229 229 229 229 229 229 224 224 224 219 219 219 218 218 218 212 212 212 201 201 201 198 198 198 194 194 194 182 182 182 187 187 187 190 190 190 102 102 102 168 168 168 231 231 231 219 219 219 155 155 155 229 229 229 224 224 224 216 216 216 190 190 190 
231 231 233 231 231 233 221 221 223 221 221 223 217 217 219 224 224 226 230 230 232 225 225 227 239 239 241 241 241 243 245 245 247 243 243 245 241 241 243 245 245 247 245 245 247 246 246 248 252 252 254 251 251 253 248 248 250 248 248 250 251 251 253 251 251 253 249 249 251 247 247 249 248 248 249 251 251 251 249 249 249 248 248 248 249 249 249 249 249 249 242 242 242 229 229 229 218 218 218 219 219 219 226 226 226 234 234 234 239 239 239 241 241 241 243 243 243 246 246 246 249 249 249 249 249 249 250 250 250 251 251 251 252 252 252 252 252 252 251 251 251 251 251 251 251 251 251 252 252 252 252 252 252 251 251 251 251 251 251 251 251 251 251 251 251 252 252 252 252 252 252 252 252 252 251 251 251 250 250 250 249 249 249 249 249 249 250 250 250 251 251 251 252 252 252 251 251 251 251 251 251 251 251 251 251 251 251 251 251 251 251 251 251 251 251 251 251 251 251 249 249 249 249 249 249 249 249 249 249 249 249 249 249 249 249 249 249 249 249 249 249 249 249 249 249 249 249 249 249 249 249 249 249 249 249 249 249 249 249 249 249 249 249 249 249 249 249 248 248 248 248 248 248 248 248 248 247 247 247 247 247 247 247 247 247 246 246 246 246 246 246 247 247 247 246 246 246 245 245 245 246 246 246 248 248 248 248 248 248 246 246 246 244 244 244 245 245 245 243 243 243 242 242 242 242 242 242 244 244 244 245 245 245 246 246 246 246 246 246 244 244 244 244 244 244 245 245 245 246 246 246 246 246 246 245 245 245 244 244 244 243 243 243 245 245 245 245 245 245 245 245 245 245 245 245 245 245 245 245 245 245 245 245 245 245 245 245 246 246 246 246 246 246 245 245 245 244 244 244 244 244 244 243 243 243 242 242 242 242 242 242 244 244 244 240 240 240 235 235 235 233 233 233 234 234 234 236 236 236 238 238 238 238 238 238 242 242 242 244 244 244 246 246 246 247 247 247 247 247 247 248 248 248 250 250 250 252 252 252 251 251 251 252 252 252 252 252 252 253 253 253 253 253 253 254 254 254 255 255 255 255 255 255 252 252 252 254 254 254 250 250 250 250 250 250 254 254 254 243 243 243 225 225 225 220 220 220 238 238 238 
237 237 237 220 220 220 220 220 220 172 172 172 198 198 198 227 227 227 208 208 208 159 159 159 193 193 193 246 246 246 255 255 255 255 255 255 255 255 255 254 254 254 253 253 253 253 253 253 255 255 255 255 255 255 253 253 253 246 246 246 242 242 242 242 242 242 244 244 244 237 237 237 234 234 234 239 239 239 244 244 244 225 225 225 192 192 192 174 174 174 175 175 175 227 227 227 234 234 234 238 238 238 235 235 235 232 232 232 231 231 231 230 230 230 228 228 228 223 223 223 219 219 219 219 219 219 214 214 214 204 204 204 202 202 202 198 198 198 186 186 186 201 201 201 183 183 183 71 71 71 146 146 146 228 228 228 198 198 198 148 148 148 213 213 213 230 230 230 224 224 224 213 213 213 
235 235 237 230 230 232 221 221 223 227 227 229 219 219 221 215 215 217 226 226 228 226 226 228 228 228 230 234 234 236 238 238 240 242 242 244 244 244 246 244 244 246 244 244 246 246 246 248 248 248 250 249 249 251 248 248 250 249 249 251 251 251 253 249 249 251 246 246 248 246 246 248 249 249 250 252 252 252 250 250 250 248 248 248 248 248 248 248 248 248 242 242 242 232 232 232 224 224 224 222 222 222 220 220 220 222 222 222 226 226 226 227 227 227 227 227 227 238 238 238 252 252 252 249 249 249 249 249 249 251 251 251 253 253 253 254 254 254 254 254 254 252 252 252 250 250 250 251 251 251 251 251 251 252 252 252 252 252 252 252 252 252 252 252 252 251 251 251 251 251 251 251 251 251 251 251 251 250 250 250 250 250 250 250 250 250 250 250 250 251 251 251 251 251 251 251 251 251 251 251 251 251 251 251 251 251 251 251 251 251 251 251 251 251 251 251 251 251 251 249 249 249 249 249 249 249 249 249 249 249 249 249 249 249 249 249 249 249 249 249 249 249 249 249 249 249 249 249 249 249 249 249 249 249 249 249 249 249 249 249 249 249 249 249 249 249 249 248 248 248 248 248 248 248 248 248 248 248 248 247 247 247 247 247 247 247 247 247 247 247 247 248 248 248 247 247 247 246 246 246 247 247 247 248 248 248 247 247 247 245 245 245 243 243 243 243 243 243 242 242 242 240 240 240 241 241 241 243 243 243 245 245 245 246 246 246 246 246 246 244 244 244 244 244 244 246 246 246 246 246 246 246 246 246 246 246 246 245 245 245 244 244 244 245 245 245 245 245 245 245 245 245 245 245 245 245 245 245 245 245 245 245 245 245 245 245 245 247 247 247 246 246 246 245 245 245 244 244 244 243 243 243 242 242 242 241 241 241 240 240 240 245 245 245 240 240 240 235 235 235 232 232 232 232 232 232 235 235 235 238 238 238 239 239 239 242 242 242 244 244 244 246 246 246 247 247 247 247 247 247 247 247 247 249 249 249 250 250 250 251 251 251 252 252 252 252 252 252 253 253 253 253 253 253 254 254 254 255 255 255 255 255 255 255 255 255 253 253 253 251 251 251 255 255 255 255 255 255 240 240 240 228 228 228 235 235 235 248 248 248 
244 244 244 226 226 226 222 222 222 208 208 208 202 202 202 211 211 211 207 207 207 178 178 178 222 222 222 245 245 245 252 252 252 253 253 253 253 253 253 255 255 255 254 254 254 254 254 254 255 255 255 255 255 255 253 253 253 249 249 249 245 245 245 244 244 244 244 244 244 246 246 246 240 240 240 233 233 233 221 221 221 198 198 198 185 185 185 204 204 204 235 235 235 232 232 232 235 235 235 235 235 235 231 231 231 228 228 228 228 228 228 225 225 225 221 221 221 221 221 221 218 218 218 219 219 219 216 216 216 207 207 207 205 205 205 202 202 202 190 190 190 183 183 183 174 174 174 47 47 47 113 113 113 205 205 205 165 165 165 164 164 164 227 227 227 233 233 233 227 227 227 228 228 228 
218 218 220 203 203 205 200 200 202 224 224 226 225 225 227 210 210 212 214 214 216 219 219 221 223 223 225 227 227 229 229 229 231 238 238 240 245 245 247 246 246 248 248 248 250 249 249 251 245 245 247 248 248 250 248 248 250 250 250 252 251 251 253 248 248 250 244 244 246 245 245 247 249 249 250 251 251 251 249 249 249 248 248 248 249 249 249 251 251 251 249 249 249 244 244 244 239 239 239 230 230 230 221 221 221 222 222 222 233 233 233 236 236 236 232 232 232 240 240 240 254 254 254 252 252 252 251 251 251 250 250 250 251 251 251 253 253 253 254 254 254 252 252 252 250 250 250 250 250 250 251 251 251 252 252 252 253 253 253 253 253 253 251 251 251 250 250 250 249 249 249 251 251 251 251 251 251 250 250 250 250 250 250 250 250 250 250 250 250 251 251 251 251 251 251 251 251 251 251 251 251 251 251 251 251 251 251 251 251 251 251 251 251 251 251 251 251 251 251 249 249 249 249 249 249 249 249 249 249 249 249 249 249 249 249 249 249 249 249 249 249 249 249 249 249 249 249 249 249 249 249 249 249 249 249 249 249 249 249 249 249 249 249 249 249 249 249 248 248 248 248 248 248 248 248 248 248 248 248 248 248 248 248 248 248 247 247 247 247 247 247 250 250 250 249 249 249 247 247 247 247 247 247 248 248 248 247 247 247 245 245 245 242 242 242 242 242 242 240 240 240 239 239 239 240 240 240 242 242 242 245 245 245 245 245 245 245 245 245 244 244 244 245 245 245 246 246 246 247 247 247 247 247 247 247 247 247 246 246 246 245 245 245 246 246 246 246 246 246 246 246 246 246 246 246 246 246 246 246 246 246 246 246 246 246 246 246 247 247 247 246 246 246 245 245 245 244 244 244 242 242 242 241 241 241 240 240 240 239 239 239 243 243 243 239 239 239 235 235 235 234 234 234 234 234 234 236 236 236 237 237 237 237 237 237 241 241 241 244 244 244 246 246 246 247 247 247 247 247 247 247 247 247 248 248 248 249 249 249 251 251 251 252 252 252 252 252 252 253 253 253 253 253 253 254 254 254 255 255 255 255 255 255 255 255 255 255 255 255 254 254 254 255 255 255 255 255 255 243 243 243 231 231 231 236 236 236 235 235 235 
236 236 236 233 233 233 229 229 229 239 239 239 200 200 200 184 184 184 188 188 188 198 198 198 245 245 245 245 245 245 245 245 245 251 251 251 250 250 250 255 255 255 254 254 254 255 255 255 254 254 254 253 253 253 252 252 252 249 249 249 246 246 246 244 244 244 243 243 243 239 239 239 244 244 244 239 239 239 223 223 223 217 217 217 226 226 226 237 237 237 241 241 241 235 235 235 234 234 234 231 231 231 226 226 226 226 226 226 226 226 226 223 223 223 217 217 217 220 220 220 216 216 216 217 217 217 214 214 214 205 205 205 204 204 204 200 200 200 188 188 188 185 185 185 205 205 205 94 94 94 136 136 136 202 202 202 140 140 140 171 171 171 227 227 227 236 236 236 230 230 230 231 231 231 
220 220 222 190 190 192 175 175 177 200 200 202 216 216 218 213 213 215 216 216 218 220 220 222 229 229 231 221 221 223 218 218 220 229 229 231 241 241 243 243 243 245 249 249 251 252 252 254 243 243 245 247 247 249 247 247 249 250 250 252 251 251 253 248 248 250 244 244 246 245 245 247 249 249 250 250 250 250 249 249 249 248 248 248 250 250 250 253 253 253 253 253 253 251 251 251 248 248 248 223 223 223 214 214 214 222 222 222 246 246 246 255 255 255 251 251 251 249 249 249 255 255 255 254 254 254 252 252 252 251 251 251 250 250 250 250 250 250 251 251 251 251 251 251 251 251 251 250 250 250 250 250 250 251 251 251 252 252 252 251 251 251 250 250 250 249 249 249 247 247 247 250 250 250 250 250 250 251 251 251 251 251 251 251 251 251 251 251 251 250 250 250 250 250 250 251 251 251 251 251 251 251 251 251 251 251 251 251 251 251 251 251 251 251 251 251 251 251 251 250 250 250 250 250 250 250 250 250 250 250 250 250 250 250 250 250 250 250 250 250 250 250 250 249 249 249 249 249 249 249 249 249 249 249 249 249 249 249 249 249 249 249 249 249 249 249 249 248 248 248 248 248 248 248 248 248 248 248 248 248 248 248 248 248 248 248 248 248 248 248 248 251 251 251 249 249 249 248 248 248 248 248 248 248 248 248 247 247 247 245 245 245 242 242 242 241 241 241 239 239 239 238 238 238 239 239 239 241 241 241 244 244 244 244 244 244 244 244 244 244 244 244 245 245 245 246 246 246 248 248 248 248 248 248 248 248 248 247 247 247 246 246 246 246 246 246 246 246 246 246 246 246 246 246 246 246 246 246 246 246 246 246 246 246 246 246 246 247 247 247 247 247 247 246 246 246 244 244 244 243 243 243 241 241 241 240 240 240 240 240 240 240 240 240 239 239 239 238 238 238 238 238 238 238 238 238 238 238 238 236 236 236 234 234 234 240 240 240 243 243 243 246 246 246 248 248 248 248 248 248 247 247 247 248 248 248 249 249 249 251 251 251 252 252 252 252 252 252 253 253 253 253 253 253 254 254 254 255 255 255 255 255 255 250 250 250 255 255 255 254 254 254 252 252 252 254 254 254 245 245 245 229 229 229 224 224 224 226 226 226 
228 228 228 237 237 237 231 231 231 252 252 252 208 208 208 188 188 188 202 202 202 198 198 198 244 244 244 244 244 244 246 246 246 255 255 255 253 253 253 255 255 255 248 248 248 254 254 254 253 253 253 252 252 252 249 249 249 247 247 247 245 245 245 243 243 243 243 243 243 244 244 244 245 245 245 236 236 236 225 225 225 227 227 227 237 237 237 237 237 237 227 227 227 236 236 236 235 235 235 230 230 230 226 226 226 227 227 227 229 229 229 225 225 225 219 219 219 217 217 217 212 212 212 212 212 212 208 208 208 199 199 199 197 197 197 195 195 195 183 183 183 186 186 186 196 196 196 117 117 117 170 170 170 222 222 222 140 140 140 161 161 161 203 203 203 238 238 238 237 237 237 236 236 236 
237 237 239 217 217 219 178 178 180 173 173 175 190 190 192 210 210 212 222 222 224 218 218 220 223 223 225 216 216 218 207 207 209 218 218 220 229 229 231 228 228 230 240 240 242 251 251 253 243 243 245 248 248 250 247 247 249 248 248 250 251 251 253 250 250 252 247 247 249 247 247 249 250 250 251 250 250 250 249 249 249 249 249 249 249 249 249 251 251 251 252 252 252 250 250 250 249 249 249 232 232 232 217 217 217 214 214 214 230 230 230 243 243 243 243 243 243 244 244 244 251 251 251 250 250 250 251 251 251 252 252 252 251 251 251 249 249 249 248 248 248 250 250 250 252 252 252 250 250 250 250 250 250 250 250 250 249 249 249 249 249 249 248 248 248 247 247 247 246 246 246 250 250 250 250 250 250 251 251 251 251 251 251 251 251 251 251 251 251 250 250 250 250 250 250 251 251 251 251 251 251 251 251 251 251 251 251 251 251 251 251 251 251 251 251 251 251 251 251 250 250 250 250 250 250 250 250 250 250 250 250 250 250 250 250 250 250 250 250 250 250 250 250 249 249 249 249 249 249 249 249 249 249 249 249 249 249 249 249 249 249 249 249 249 249 249 249 248 248 248 248 248 248 248 248 248 248 248 248 249 249 249 249 249 249 249 249 249 249 249 249 251 251 251 249 249 249 248 248 248 248 248 248 248 248 248 247 247 247 245 245 245 243 243 243 240 240 240 239 239 239 237 237 237 238 238 238 240 240 240 242 242 242 243 243 243 243 243 243 244 244 244 245 245 245 247 247 247 248 248 248 249 249 249 249 249 249 248 248 248 247 247 247 247 247 247 247 247 247 247 247 247 247 247 247 247 247 247 247 247 247 247 247 247 247 247 247 248 248 248 247 247 247 246 246 246 245 245 245 244 244 244 243 243 243 242 242 242 241 241 241 239 239 239 239 239 239 240 240 240 241 241 241 241 241 241 240 240 240 237 237 237 234 234 234 238 238 238 241 241 241 245 245 245 247 247 247 248 248 248 248 248 248 248 248 248 249 249 249 251 251 251 252 252 252 252 252 252 253 253 253 253 253 253 254 254 254 255 255 255 255 255 255 250 250 250 255 255 255 255 255 255 252 252 252 253 253 253 244 244 244 228 228 228 221 221 221 227 227 227 
219 219 219 230 230 230 221 221 221 239 239 239 222 222 222 220 220 220 241 241 241 228 228 228 250 250 250 249 249 249 244 244 244 248 248 248 253 253 253 255 255 255 251 251 251 253 253 253 253 253 253 250 250 250 246 246 246 241 241 241 240 240 240 241 241 241 243 243 243 248 248 248 237 237 237 227 227 227 223 223 223 219 219 219 217 217 217 224 224 224 235 235 235 231 231 231 230 230 230 227 227 227 224 224 224 224 224 224 226 226 226 223 223 223 217 217 217 214 214 214 208 208 208 206 206 206 200 200 200 190 190 190 190 190 190 188 188 188 178 178 178 197 197 197 158 158 158 103 103 103 174 174 174 224 224 224 156 156 156 156 156 156 197 197 197 234 234 234 240 240 240 242 242 242 
239 239 241 238 238 240 193 193 195 161 161 163 161 161 163 195 195 197 219 219 221 210 210 212 214 214 216 212 212 214 200 200 202 209 209 211 214 214 216 204 204 206 221 221 223 246 246 248 246 246 248 249 249 251 246 246 248 246 246 248 250 250 252 252 252 254 250 250 252 249 249 251 250 250 251 250 250 250 249 249 249 249 249 249 249 249 249 250 250 250 250 250 250 250 250 250 248 248 248 249 249 249 231 231 231 218 218 218 219 219 219 224 224 224 226 226 226 231 231 231 238 238 238 241 241 241 247 247 247 253 253 253 254 254 254 250 250 250 248 248 248 249 249 249 252 252 252 250 250 250 249 249 249 248 248 248 247 247 247 246 246 246 246 246 246 246 246 246 246 246 246 249 249 249 250 250 250 251 251 251 252 252 252 252 252 252 251 251 251 250 250 250 249 249 249 251 251 251 251 251 251 251 251 251 251 251 251 251 251 251 251 251 251 251 251 251 251 251 251 250 250 250 250 250 250 250 250 250 250 250 250 250 250 250 250 250 250 250 250 250 250 250 250 249 249 249 249 249 249 249 249 249 249 249 249 249 249 249 249 249 249 249 249 249 249 249 249 248 248 248 248 248 248 248 248 248 248 248 248 249 249 249 249 249 249 250 250 250 250 250 250 250 250 250 249 249 249 248 248 248 248 248 248 249 249 249 248 248 248 246 246 246 244 244 244 241 241 241 239 239 239 237 237 237 237 237 237 239 239 239 241 241 241 241 241 241 241 241 241 244 244 244 245 245 245 247 247 247 249 249 249 249 249 249 249 249 249 249 249 249 248 248 248 248 248 248 248 248 248 248 248 248 248 248 248 248 248 248 248 248 248 248 248 248 248 248 248 248 248 248 247 247 247 247 247 247 246 246 246 245 245 245 244 244 244 244 244 244 243 243 243 241 241 241 241 241 241 240 240 240 241 241 241 242 242 242 241 241 241 238 238 238 236 236 236 236 236 236 240 240 240 244 244 244 247 247 247 248 248 248 248 248 248 249 249 249 250 250 250 251 251 251 252 252 252 252 252 252 253 253 253 253 253 253 254 254 254 255 255 255 255 255 255 253 253 253 255 255 255 255 255 255 255 255 255 253 253 253 236 236 236 225 225 225 229 229 229 226 226 226 
209 209 209 222 222 222 214 214 214 220 220 220 234 234 234 244 244 244 255 255 255 255 255 255 254 254 254 255 255 255 243 243 243 237 237 237 252 252 252 255 255 255 255 255 255 252 252 252 252 252 252 249 249 249 242 242 242 236 236 236 234 234 234 238 238 238 243 243 243 225 225 225 228 228 228 233 233 233 232 232 232 222 222 222 212 212 212 216 216 216 226 226 226 225 225 225 226 226 226 225 225 225 221 221 221 220 220 220 220 220 220 218 218 218 213 213 213 210 210 210 203 203 203 199 199 199 193 193 193 183 183 183 184 184 184 185 185 185 175 175 175 205 205 205 154 154 154 134 134 134 184 184 184 203 203 203 170 170 170 157 157 157 196 196 196 232 232 232 238 238 238 242 242 242 
228 228 230 228 228 230 194 194 196 156 156 158 143 143 145 181 181 183 213 213 215 208 208 210 215 215 217 210 210 212 197 197 199 204 204 206 203 203 205 186 186 188 205 205 207 240 240 242 248 248 250 250 250 252 246 246 248 245 245 247 250 250 252 253 253 255 252 252 254 251 251 253 251 251 252 248 248 248 248 248 248 249 249 249 250 250 250 252 252 252 252 252 252 252 252 252 251 251 251 247 247 247 240 240 240 235 235 235 236 236 236 236 236 236 231 231 231 226 226 226 226 226 226 234 234 234 243 243 243 254 254 254 255 255 255 252 252 252 248 248 248 249 249 249 252 252 252 250 250 250 248 248 248 247 247 247 245 245 245 244 244 244 244 244 244 245 245 245 245 245 245 249 249 249 250 250 250 251 251 251 252 252 252 252 252 252 251 251 251 250 250 250 249 249 249 251 251 251 251 251 251 251 251 251 251 251 251 251 251 251 251 251 251 251 251 251 251 251 251 251 251 251 251 251 251 251 251 251 251 251 251 251 251 251 251 251 251 251 251 251 251 251 251 249 249 249 249 249 249 249 249 249 249 249 249 249 249 249 249 249 249 249 249 249 249 249 249 248 248 248 248 248 248 248 248 248 249 249 249 249 249 249 249 249 249 250 250 250 250 250 250 250 250 250 249 249 249 248 248 248 248 248 248 249 249 249 248 248 248 246 246 246 244 244 244 241 241 241 239 239 239 237 237 237 237 237 237 239 239 239 240 240 240 240 240 240 240 240 240 244 244 244 246 246 246 247 247 247 249 249 249 250 250 250 250 250 250 249 249 249 249 249 249 248 248 248 248 248 248 248 248 248 248 248 248 248 248 248 248 248 248 248 248 248 248 248 248 248 248 248 247 247 247 247 247 247 247 247 247 246 246 246 245 245 245 245 245 245 245 245 245 244 244 244 242 242 242 241 241 241 240 240 240 241 241 241 241 241 241 240 240 240 239 239 239 235 235 235 239 239 239 244 244 244 247 247 247 249 249 249 249 249 249 250 250 250 250 250 250 251 251 251 252 252 252 252 252 252 253 253 253 253 253 253 254 254 254 255 255 255 255 255 255 252 252 252 250 250 250 250 250 250 255 255 255 248 248 248 224 224 224 217 217 217 235 235 235 224 224 224 
204 204 204 222 222 222 219 219 219 214 214 214 242 242 242 251 251 251 248 248 248 255 255 255 239 239 239 255 255 255 249 249 249 240 240 240 255 255 255 253 253 253 252 252 252 251 251 251 252 252 252 249 249 249 240 240 240 232 232 232 230 230 230 236 236 236 243 243 243 234 234 234 242 242 242 233 233 233 207 207 207 195 195 195 208 208 208 223 223 223 227 227 227 225 225 225 228 228 228 228 228 228 224 224 224 221 221 221 221 221 221 218 218 218 214 214 214 207 207 207 200 200 200 196 196 196 189 189 189 180 180 180 182 182 182 184 184 184 175 175 175 137 137 137 128 128 128 163 163 163 189 189 189 175 175 175 176 176 176 160 160 160 195 195 195 237 237 237 238 238 238 242 242 242 
234 234 236 232 232 234 206 206 208 141 141 143 168 168 170 197 197 199 205 205 207 203 203 205 213 213 215 205 205 207 197 197 199 208 208 210 219 219 221 209 209 211 204 204 206 225 225 227 249 249 251 251 251 253 251 251 253 251 251 253 251 251 253 252 252 254 252 252 254 252 252 254 252 252 253 250 250 250 250 250 250 250 250 250 250 250 250 251 251 251 251 251 251 251 251 251 251 251 251 253 253 253 250 250 250 249 249 249 249 249 249 240 240 240 229 229 229 231 231 231 242 242 242 228 228 228 228 228 228 236 236 236 248 248 248 251 251 251 246 246 246 248 248 248 255 255 255 251 251 251 246 246 246 239 239 239 234 234 234 233 233 233 236 236 236 242 242 242 245 245 245 252 252 252 252 252 252 252 252 252 252 252 252 251 251 251 251 251 251 251 251 251 251 251 251 251 251 251 251 251 251 251 251 251 251 251 251 251 251 251 251 251 251 251 251 251 251 251 251 250 250 250 250 250 250 250 250 250 250 250 250 249 249 249 249 249 249 249 249 249 249 249 249 249 249 249 249 249 249 250 250 250 250 250 250 250 250 250 250 250 250 249 249 249 249 249 249 249 249 249 249 249 249 249 249 249 249 249 249 249 249 249 249 249 249 249 249 249 249 249 249 248 248 248 248 248 248 248 248 248 248 248 248 248 248 248 248 248 248 248 248 248 248 248 248 240 240 240 240 240 240 239 239 239 239 239 239 240 240 240 243 243 243 245 245 245 247 247 247 248 248 248 248 248 248 248 248 248 249 249 249 249 249 249 249 249 249 250 250 250 250 250 250 247 247 247 247 247 247 248 248 248 248 248 248 248 248 248 248 248 248 248 248 248 248 248 248 248 248 248 248 248 248 247 247 247 247 247 247 247 247 247 247 247 247 246 246 246 246 246 246 243 243 243 243 243 243 243 243 243 243 243 243 243 243 243 243 243 243 243 243 243 243 243 243 234 234 234 237 237 237 244 244 244 249 249 249 248 248 248 245 245 245 247 247 247 252 252 252 252 252 252 252 252 252 253 253 253 253 253 253 253 253 253 254 254 254 254 254 254 254 254 254 245 245 245 255 255 255 251 251 251 249 249 249 251 251 251 209 209 209 221 221 221 230 230 230 210 210 210 
179 179 179 218 218 218 210 210 210 198 198 198 249 249 249 252 252 252 246 246 246 249 249 249 252 252 252 249 249 249 242 242 242 241 241 241 248 248 248 252 252 252 250 250 250 251 251 251 255 255 255 240 240 240 250 250 250 220 220 220 225 225 225 241 241 241 239 239 239 230 230 230 225 225 225 231 231 231 222 222 222 213 213 213 213 213 213 214 214 214 232 232 232 219 219 219 233 233 233 226 226 226 221 221 221 210 210 210 225 225 225 206 206 206 209 209 209 200 200 200 195 195 195 187 187 187 176 176 176 185 185 185 186 186 186 187 187 187 114 114 114 13 13 13 94 94 94 214 214 214 213 213 213 202 202 202 170 170 170 194 194 194 220 220 220 230 230 230 237 237 237 243 243 243 
235 235 237 227 227 229 244 244 246 159 159 161 139 139 141 193 193 195 221 221 223 194 194 196 215 215 217 209 209 211 202 202 204 209 209 211 216 216 218 208 208 210 208 208 210 229 229 231 248 248 250 250 250 252 251 251 253 251 251 253 251 251 253 251 251 253 252 252 254 252 252 254 252 252 253 250 250 250 250 250 250 250 250 250 250 250 250 251 251 251 251 251 251 251 251 251 251 251 251 252 252 252 247 247 247 249 249 249 253 253 253 247 247 247 234 234 234 226 226 226 227 227 227 231 231 231 219 219 219 210 210 210 218 218 218 235 235 235 244 244 244 232 232 232 215 215 215 230 230 230 230 230 230 230 230 230 233 233 233 237 237 237 244 244 244 251 251 251 255 255 255 252 252 252 252 252 252 252 252 252 252 252 252 251 251 251 251 251 251 251 251 251 251 251 251 251 251 251 251 251 251 251 251 251 251 251 251 251 251 251 251 251 251 251 251 251 251 251 251 250 250 250 250 250 250 250 250 250 250 250 250 249 249 249 249 249 249 249 249 249 249 249 249 249 249 249 249 249 249 250 250 250 250 250 250 250 250 250 250 250 250 249 249 249 249 249 249 249 249 249 249 249 249 249 249 249 249 249 249 249 249 249 249 249 249 249 249 249 249 249 249 248 248 248 248 248 248 248 248 248 248 248 248 248 248 248 248 248 248 248 248 248 248 248 248 244 244 244 243 243 243 242 242 242 242 242 242 243 243 243 245 245 245 247 247 247 248 248 248 248 248 248 248 248 248 248 248 248 249 249 249 249 249 249 249 249 249 249 249 249 249 249 249 247 247 247 247 247 247 247 247 247 248 248 248 248 248 248 249 249 249 249 249 249 249 249 249 248 248 248 248 248 248 248 248 248 247 247 247 247 247 247 246 246 246 246 246 246 246 246 246 242 242 242 242 242 242 242 242 242 242 242 242 242 242 242 242 242 242 242 242 242 242 242 242 235 235 235 236 236 236 241 241 241 246 246 246 247 247 247 245 245 245 246 246 246 250 250 250 252 252 252 252 252 252 252 252 252 253 253 253 253 253 253 253 253 253 254 254 254 254 254 254 255 255 255 241 241 241 255 255 255 242 242 242 236 236 236 244 244 244 188 188 188 245 245 245 207 207 207 
185 185 185 222 222 222 181 181 181 189 189 189 241 241 241 251 251 251 255 255 255 255 255 255 255 255 255 252 252 252 240 240 240 236 236 236 243 243 243 250 250 250 252 252 252 249 249 249 255 255 255 244 244 244 228 228 228 245 245 245 247 247 247 249 249 249 226 226 226 234 234 234 225 225 225 227 227 227 221 221 221 224 224 224 229 229 229 219 219 219 220 220 220 225 225 225 226 226 226 212 212 212 208 208 208 201 201 201 213 213 213 198 198 198 200 200 200 187 187 187 207 207 207 191 191 191 171 171 171 181 181 181 155 155 155 119 119 119 88 88 88 130 130 130 133 133 133 216 216 216 206 206 206 186 186 186 155 155 155 233 233 233 217 217 217 230 230 230 237 237 237 243 243 243 
234 234 236 224 224 226 237 237 239 201 201 203 137 137 139 138 138 140 202 202 204 221 221 223 216 216 218 217 217 219 215 215 217 223 223 225 227 227 229 222 222 224 227 227 229 242 242 244 249 249 251 250 250 252 250 250 252 251 251 253 251 251 253 251 251 253 251 251 253 252 252 254 252 252 253 250 250 250 250 250 250 250 250 250 251 251 251 251 251 251 251 251 251 252 252 252 252 252 252 251 251 251 247 247 247 248 248 248 255 255 255 252 252 252 236 236 236 218 218 218 209 209 209 208 208 208 224 224 224 231 231 231 223 223 223 218 218 218 225 225 225 232 232 232 232 232 232 236 236 236 237 237 237 240 240 240 243 243 243 247 247 247 250 250 250 253 253 253 255 255 255 252 252 252 252 252 252 252 252 252 252 252 252 251 251 251 251 251 251 251 251 251 251 251 251 251 251 251 251 251 251 251 251 251 251 251 251 251 251 251 251 251 251 251 251 251 251 251 251 250 250 250 250 250 250 250 250 250 250 250 250 249 249 249 249 249 249 249 249 249 249 249 249 249 249 249 249 249 249 250 250 250 250 250 250 250 250 250 250 250 250 249 249 249 249 249 249 249 249 249 249 249 249 249 249 249 249 249 249 249 249 249 249 249 249 249 249 249 249 249 249 248 248 248 248 248 248 248 248 248 248 248 248 248 248 248 248 248 248 248 248 248 248 248 248 247 247 247 247 247 247 246 246 246 245 245 245 246 246 246 247 247 247 249 249 249 250 250 250 249 249 249 249 249 249 249 249 249 249 249 249 249 249 249 248 248 248 248 248 248 248 248 248 246 246 246 246 246 246 247 247 247 248 248 248 249 249 249 250 250 250 250 250 250 250 250 250 250 250 250 249 249 249 249 249 249 248 248 248 247 247 247 246 246 246 246 246 246 245 245 245 242 242 242 242 242 242 242 242 242 242 242 242 242 242 242 242 242 242 242 242 242 242 242 242 237 237 237 235 235 235 237 237 237 243 243 243 247 247 247 246 246 246 245 245 245 247 247 247 251 251 251 252 252 252 252 252 252 252 252 252 253 253 253 253 253 253 253 253 253 253 253 253 255 255 255 247 247 247 249 249 249 252 252 252 241 241 241 244 244 244 180 180 180 241 241 241 194 194 194 
193 193 193 235 235 235 163 163 163 205 205 205 246 246 246 249 249 249 255 255 255 253 253 253 255 255 255 251 251 251 240 240 240 237 237 237 243 243 243 249 249 249 249 249 249 233 233 233 252 252 252 242 242 242 230 230 230 233 233 233 227 227 227 228 228 228 241 241 241 229 229 229 225 225 225 225 225 225 208 208 208 204 204 204 218 218 218 219 219 219 227 227 227 222 222 222 223 223 223 213 213 213 214 214 214 206 206 206 210 210 210 198 198 198 193 193 193 191 191 191 183 183 183 184 184 184 183 183 183 129 129 129 64 64 64 86 86 86 202 202 202 198 198 198 191 191 191 206 206 206 193 193 193 183 183 183 158 158 158 227 227 227 224 224 224 231 231 231 237 237 237 242 242 242 
233 233 235 229 229 231 237 237 239 179 179 181 86 86 88 163 163 165 221 221 223 213 213 215 212 212 214 219 219 221 223 223 225 234 234 236 239 239 241 238 238 240 245 245 247 252 252 254 248 248 250 250 250 252 250 250 252 250 250 252 251 251 253 251 251 253 251 251 253 251 251 253 252 252 253 250 250 250 250 250 250 251 251 251 251 251 251 251 251 251 252 252 252 252 252 252 252 252 252 253 253 253 249 249 249 249 249 249 254 254 254 250 250 250 234 234 234 216 216 216 206 206 206 226 226 226 235 235 235 241 241 241 238 238 238 238 238 238 243 243 243 248 248 248 248 248 248 253 253 253 253 253 253 253 253 253 253 253 253 253 253 253 251 251 251 250 250 250 249 249 249 252 252 252 252 252 252 252 252 252 252 252 252 251 251 251 251 251 251 251 251 251 251 251 251 251 251 251 251 251 251 251 251 251 251 251 251 251 251 251 251 251 251 251 251 251 251 251 251 250 250 250 250 250 250 250 250 250 250 250 250 249 249 249 249 249 249 249 249 249 249 249 249 249 249 249 249 249 249 250 250 250 250 250 250 250 250 250 250 250 250 249 249 249 249 249 249 249 249 249 249 249 249 249 249 249 249 249 249 249 249 249 249 249 249 249 249 249 249 249 249 248 248 248 248 248 248 248 248 248 248 248 248 248 248 248 248 248 248 248 248 248 248 248 248 249 249 249 249 249 249 248 248 248 247 247 247 247 247 247 248 248 248 249 249 249 249 249 249 250 250 250 250 250 250 249 249 249 249 249 249 249 249 249 248 248 248 248 248 248 248 248 248 246 246 246 246 246 246 247 247 247 248 248 248 249 249 249 250 250 250 251 251 251 251 251 251 251 251 251 250 250 250 249 249 249 248 248 248 247 247 247 246 246 246 245 245 245 245 245 245 241 241 241 241 241 241 241 241 241 241 241 241 241 241 241 241 241 241 241 241 241 241 241 241 240 240 240 236 236 236 235 235 235 241 241 241 247 247 247 247 247 247 246 246 246 246 246 246 251 251 251 251 251 251 251 251 251 252 252 252 252 252 252 252 252 252 252 252 252 253 253 253 249 249 249 253 253 253 242 242 242 255 255 255 252 252 252 223 223 223 181 181 181 229 229 229 191 191 191 
199 199 199 233 233 233 150 150 150 222 222 222 255 255 255 248 248 248 254 254 254 246 246 246 251 251 251 250 250 250 245 245 245 244 244 244 245 245 245 239 239 239 230 230 230 251 251 251 253 253 253 219 219 219 233 233 233 207 207 207 238 238 238 234 234 234 240 240 240 220 220 220 224 224 224 232 232 232 218 218 218 215 215 215 227 227 227 222 222 222 221 221 221 215 215 215 223 223 223 217 217 217 212 212 212 202 202 202 203 203 203 199 199 199 177 177 177 173 173 173 179 179 179 162 162 162 97 97 97 64 64 64 154 154 154 190 190 190 185 185 185 199 199 199 206 206 206 193 193 193 186 186 186 152 152 152 172 172 172 208 208 208 235 235 235 232 232 232 237 237 237 241 241 241 
235 235 237 231 231 233 221 221 223 173 173 175 92 92 94 197 197 199 224 224 226 213 213 215 216 216 218 215 215 217 219 219 221 229 229 231 233 233 235 234 234 236 244 244 246 251 251 253 245 245 247 249 249 251 250 250 252 250 250 252 250 250 252 250 250 252 251 251 253 251 251 253 251 251 252 251 251 251 251 251 251 251 251 251 251 251 251 252 252 252 252 252 252 252 252 252 252 252 252 253 253 253 252 252 252 252 252 252 252 252 252 248 248 248 238 238 238 229 229 229 225 225 225 247 247 247 244 244 244 246 246 246 251 251 251 252 252 252 248 248 248 248 248 248 252 252 252 253 253 253 253 253 253 252 252 252 251 251 251 251 251 251 251 251 251 251 251 251 251 251 251 252 252 252 252 252 252 252 252 252 252 252 252 251 251 251 251 251 251 251 251 251 251 251 251 251 251 251 251 251 251 251 251 251 251 251 251 251 251 251 251 251 251 251 251 251 251 251 251 250 250 250 250 250 250 250 250 250 250 250 250 249 249 249 249 249 249 249 249 249 249 249 249 249 249 249 249 249 249 250 250 250 250 250 250 250 250 250 250 250 250 249 249 249 249 249 249 249 249 249 249 249 249 249 249 249 249 249 249 249 249 249 249 249 249 249 249 249 249 249 249 248 248 248 248 248 248 248 248 248 248 248 248 248 248 248 248 248 248 248 248 248 248 248 248 249 249 249 248 248 248 248 248 248 248 248 248 247 247 247 247 247 247 248 248 248 248 248 248 250 250 250 250 250 250 249 249 249 249 249 249 249 249 249 248 248 248 248 248 248 248 248 248 246 246 246 247 247 247 247 247 247 248 248 248 250 250 250 251 251 251 251 251 251 252 252 252 251 251 251 250 250 250 250 250 250 249 249 249 247 247 247 246 246 246 246 246 246 245 245 245 242 242 242 242 242 242 242 242 242 242 242 242 242 242 242 242 242 242 242 242 242 242 242 242 243 243 243 237 237 237 235 235 235 241 241 241 247 247 247 248 248 248 247 247 247 246 246 246 250 250 250 250 250 250 251 251 251 251 251 251 251 251 251 252 252 252 252 252 252 252 252 252 254 254 254 241 241 241 255 255 255 244 244 244 249 249 249 204 204 204 177 177 177 228 228 228 204 204 204 
204 204 204 210 210 210 142 142 142 225 225 225 255 255 255 250 250 250 254 254 254 252 252 252 253 253 253 250 250 250 246 246 246 247 247 247 246 246 246 233 233 233 216 216 216 224 224 224 228 228 228 216 216 216 223 223 223 154 154 154 185 185 185 236 236 236 234 234 234 242 242 242 212 212 212 182 182 182 155 155 155 170 170 170 208 208 208 217 217 217 219 219 219 214 214 214 220 220 220 208 208 208 197 197 197 192 192 192 192 192 192 184 184 184 133 133 133 165 165 165 184 184 184 204 204 204 177 177 177 143 143 143 202 202 202 223 223 223 226 226 226 212 212 212 184 184 184 199 199 199 177 177 177 118 118 118 187 187 187 222 222 222 233 233 233 231 231 231 235 235 235 238 238 238 
238 238 240 228 228 230 207 207 209 184 184 186 142 142 144 200 200 202 211 211 213 222 222 224 225 225 227 219 219 221 217 217 219 222 222 224 226 226 228 226 226 228 238 238 240 249 249 251 247 247 249 249 249 251 249 249 251 250 250 252 250 250 252 250 250 252 250 250 252 251 251 253 251 251 252 251 251 251 251 251 251 251 251 251 252 252 252 252 252 252 252 252 252 253 253 253 253 253 253 252 252 252 253 253 253 254 254 254 253 253 253 249 249 249 247 247 247 248 248 248 249 249 249 247 247 247 241 241 241 243 243 243 251 251 251 251 251 251 245 245 245 248 248 248 255 255 255 252 252 252 252 252 252 251 251 251 250 250 250 250 250 250 251 251 251 252 252 252 253 253 253 252 252 252 252 252 252 252 252 252 252 252 252 251 251 251 251 251 251 251 251 251 251 251 251 251 251 251 251 251 251 251 251 251 251 251 251 251 251 251 251 251 251 251 251 251 251 251 251 250 250 250 250 250 250 250 250 250 250 250 250 249 249 249 249 249 249 249 249 249 249 249 249 249 249 249 249 249 249 250 250 250 250 250 250 250 250 250 250 250 250 249 249 249 249 249 249 249 249 249 249 249 249 249 249 249 249 249 249 249 249 249 249 249 249 249 249 249 249 249 249 248 248 248 248 248 248 248 248 248 248 248 248 248 248 248 248 248 248 248 248 248 248 248 248 247 247 247 247 247 247 247 247 247 247 247 247 247 247 247 247 247 247 247 247 247 246 246 246 249 249 249 249 249 249 249 249 249 249 249 249 249 249 249 248 248 248 248 248 248 248 248 248 247 247 247 247 247 247 248 248 248 249 249 249 250 250 250 251 251 251 251 251 251 251 251 251 251 251 251 250 250 250 250 250 250 249 249 249 248 248 248 247 247 247 247 247 247 246 246 246 243 243 243 243 243 243 243 243 243 243 243 243 243 243 243 243 243 243 243 243 243 243 243 243 244 244 244 238 238 238 235 235 235 240 240 240 246 246 246 247 247 247 247 247 247 248 248 248 250 250 250 250 250 250 250 250 250 250 250 250 251 251 251 251 251 251 251 251 251 251 251 251 255 255 255 252 252 252 250 250 250 237 237 237 246 246 246 165 165 165 204 204 204 222 222 222 209 209 209 
206 206 206 194 194 194 177 177 177 240 240 240 255 255 255 250 250 250 249 249 249 254 254 254 251 251 251 244 244 244 239 239 239 243 243 243 249 249 249 243 243 243 231 231 231 191 191 191 176 176 176 202 202 202 214 214 214 127 127 127 78 78 78 209 209 209 245 245 245 230 230 230 217 217 217 211 211 211 200 200 200 208 208 208 224 224 224 214 214 214 208 208 208 212 212 212 216 216 216 207 207 207 201 201 201 198 198 198 184 184 184 168 168 168 95 95 95 160 160 160 194 194 194 203 203 203 199 199 199 208 208 208 219 219 219 203 203 203 214 214 214 221 221 221 192 192 192 217 217 217 161 161 161 160 160 160 212 212 212 220 220 220 221 221 221 227 227 227 230 230 230 233 233 233 
237 237 239 226 226 228 237 237 239 135 135 137 119 119 121 215 215 217 237 237 239 196 196 198 224 224 226 226 226 228 222 222 224 229 229 231 235 235 237 234 234 236 239 239 241 249 249 251 251 251 253 249 249 251 249 249 251 249 249 251 250 250 252 250 250 252 250 250 252 250 250 252 251 251 252 251 251 251 251 251 251 252 252 252 252 252 252 252 252 252 253 253 253 253 253 253 253 253 253 251 251 251 253 253 253 254 254 254 252 252 252 251 251 251 252 252 252 255 255 255 255 255 255 255 255 255 239 239 239 225 225 225 233 233 233 253 253 253 255 255 255 255 255 255 245 245 245 255 255 255 255 255 255 254 254 254 253 253 253 252 252 252 251 251 251 250 250 250 250 250 250 252 252 252 252 252 252 252 252 252 252 252 252 251 251 251 251 251 251 251 251 251 251 251 251 251 251 251 251 251 251 251 251 251 251 251 251 251 251 251 251 251 251 251 251 251 251 251 251 250 250 250 250 250 250 250 250 250 250 250 250 249 249 249 249 249 249 249 249 249 249 249 249 249 249 249 249 249 249 250 250 250 250 250 250 250 250 250 250 250 250 249 249 249 249 249 249 249 249 249 249 249 249 249 249 249 249 249 249 249 249 249 249 249 249 249 249 249 249 249 249 248 248 248 248 248 248 248 248 248 248 248 248 248 248 248 248 248 248 248 248 248 248 248 248 246 246 246 246 246 246 247 247 247 247 247 247 247 247 247 247 247 247 247 247 247 246 246 246 248 248 248 248 248 248 248 248 248 249 249 249 249 249 249 249 249 249 249 249 249 249 249 249 248 248 248 248 248 248 249 249 249 249 249 249 250 250 250 250 250 250 251 251 251 251 251 251 250 250 250 250 250 250 249 249 249 249 249 249 248 248 248 248 248 248 248 248 248 247 247 247 244 244 244 244 244 244 244 244 244 244 244 244 244 244 244 244 244 244 244 244 244 244 244 244 243 243 243 238 238 238 236 236 236 239 239 239 243 243 243 244 244 244 246 246 246 248 248 248 249 249 249 249 249 249 249 249 249 250 250 250 250 250 250 250 250 250 251 251 251 251 251 251 250 250 250 255 255 255 240 240 240 242 242 242 245 245 245 145 145 145 228 228 228 212 212 212 208 208 208 
207 207 207 186 186 186 229 229 229 252 252 252 255 255 255 249 249 249 247 247 247 249 249 249 248 248 248 242 242 242 235 235 235 238 238 238 247 247 247 250 250 250 246 246 246 222 222 222 173 173 173 159 159 159 188 188 188 142 142 142 63 63 63 206 206 206 234 234 234 223 223 223 220 220 220 224 224 224 210 210 210 201 201 201 203 203 203 201 201 201 212 212 212 208 208 208 209 209 209 204 204 204 196 196 196 178 178 178 151 151 151 167 167 167 123 123 123 193 193 193 210 210 210 205 205 205 206 206 206 228 228 228 216 216 216 218 218 218 228 228 228 211 211 211 212 212 212 215 215 215 165 165 165 213 213 213 231 231 231 207 207 207 212 212 212 220 220 220 224 224 224 227 227 227 
234 234 236 226 226 228 229 229 231 113 113 115 123 123 125 165 165 167 228 228 230 206 206 208 219 219 221 228 228 230 225 225 227 237 237 239 249 249 251 246 246 248 244 244 246 247 247 249 248 248 250 249 249 251 249 249 251 249 249 251 249 249 251 250 250 252 250 250 252 250 250 252 250 250 251 251 251 251 252 252 252 252 252 252 252 252 252 252 252 252 253 253 253 253 253 253 253 253 253 252 252 252 253 253 253 253 253 253 251 251 251 251 251 251 252 252 252 251 251 251 249 249 249 247 247 247 255 255 255 253 253 253 239 239 239 230 230 230 238 238 238 249 249 249 254 254 254 249 249 249 250 250 250 252 252 252 253 253 253 253 253 253 252 252 252 250 250 250 249 249 249 252 252 252 252 252 252 252 252 252 252 252 252 251 251 251 251 251 251 251 251 251 251 251 251 251 251 251 251 251 251 251 251 251 251 251 251 251 251 251 251 251 251 251 251 251 251 251 251 250 250 250 250 250 250 250 250 250 250 250 250 249 249 249 249 249 249 249 249 249 249 249 249 249 249 249 249 249 249 250 250 250 250 250 250 250 250 250 250 250 250 249 249 249 249 249 249 249 249 249 249 249 249 249 249 249 249 249 249 249 249 249 249 249 249 249 249 249 249 249 249 248 248 248 248 248 248 248 248 248 248 248 248 248 248 248 248 248 248 248 248 248 248 248 248 245 245 245 246 246 246 247 247 247 247 247 247 248 248 248 248 248 248 247 247 247 247 247 247 248 248 248 248 248 248 248 248 248 249 249 249 249 249 249 249 249 249 250 250 250 250 250 250 249 249 249 249 249 249 249 249 249 250 250 250 250 250 250 250 250 250 250 250 250 250 250 250 249 249 249 249 249 249 249 249 249 249 249 249 249 249 249 248 248 248 248 248 248 248 248 248 244 244 244 244 244 244 244 244 244 244 244 244 244 244 244 244 244 244 244 244 244 244 244 244 242 242 242 237 237 237 235 235 235 238 238 238 241 241 241 242 242 242 244 244 244 248 248 248 249 249 249 249 249 249 249 249 249 249 249 249 250 250 250 250 250 250 250 250 250 251 251 251 252 252 252 236 236 236 255 255 255 242 242 242 236 236 236 171 171 171 213 213 213 212 212 212 213 213 213 
208 208 208 175 175 175 249 249 249 241 241 241 240 240 240 248 248 248 255 255 255 250 250 250 253 253 253 248 248 248 237 237 237 233 233 233 238 238 238 241 241 241 240 240 240 217 217 217 213 213 213 152 152 152 156 156 156 112 112 112 75 75 75 214 214 214 217 217 217 230 230 230 218 218 218 217 217 217 208 208 208 202 202 202 200 200 200 192 192 192 200 200 200 207 207 207 200 200 200 187 187 187 163 163 163 124 124 124 101 101 101 175 175 175 187 187 187 208 208 208 205 205 205 214 214 214 219 219 219 219 219 219 209 209 209 242 242 242 218 218 218 210 210 210 203 203 203 198 198 198 193 193 193 204 204 204 229 229 229 221 221 221 209 209 209 216 216 216 219 219 219 223 223 223 
231 231 233 231 231 233 197 197 199 123 123 125 130 130 132 144 144 146 197 197 199 202 202 204 208 208 210 220 220 222 216 216 218 239 239 241 242 242 244 252 252 254 240 240 242 251 251 253 247 247 249 250 250 252 250 250 252 251 251 253 252 252 254 252 252 254 252 252 254 252 252 254 252 252 253 251 251 251 252 252 252 252 252 252 252 252 252 252 252 252 253 253 253 253 253 253 253 253 253 253 253 253 253 253 253 253 253 253 253 253 253 253 253 253 253 253 253 253 253 253 253 253 253 253 253 253 252 252 252 251 251 251 249 249 249 248 248 248 246 246 246 245 245 245 244 244 244 251 251 251 251 251 251 252 252 252 252 252 252 252 252 252 253 253 253 253 253 253 253 253 253 253 253 253 253 253 253 252 252 252 252 252 252 252 252 252 252 252 252 253 253 253 253 253 253 251 251 251 251 251 251 251 251 251 251 251 251 250 250 250 250 250 250 250 250 250 250 250 250 249 249 249 249 249 249 250 250 250 250 250 250 250 250 250 250 250 250 249 249 249 249 249 249 247 247 247 248 248 248 249 249 249 250 250 250 250 250 250 250 250 250 249 249 249 248 248 248 249 249 249 249 249 249 249 249 249 249 249 249 249 249 249 249 249 249 249 249 249 249 249 249 250 250 250 250 250 250 250 250 250 249 249 249 248 248 248 248 248 248 247 247 247 247 247 247 250 250 250 250 250 250 249 249 249 248 248 248 247 247 247 246 246 246 246 246 246 247 247 247 248 248 248 248 248 248 249 249 249 249 249 249 249 249 249 249 249 249 248 248 248 248 248 248 251 251 251 251 251 251 251 251 251 251 251 251 252 252 252 252 252 252 252 252 252 252 252 252 251 251 251 251 251 251 251 251 251 251 251 251 250 250 250 250 250 250 250 250 250 250 250 250 249 249 249 248 248 248 246 246 246 244 244 244 243 243 243 242 242 242 242 242 242 242 242 242 240 240 240 240 240 240 240 240 240 240 240 240 241 241 241 243 243 243 244 244 244 246 246 246 249 249 249 249 249 249 250 250 250 250 250 250 249 249 249 246 246 246 246 246 246 248 248 248 249 249 249 248 248 248 248 248 248 240 240 240 241 241 241 224 224 224 194 194 194 218 218 218 227 227 227 
196 196 196 198 198 198 235 235 235 244 244 244 244 244 244 255 255 255 253 253 253 255 255 255 248 248 248 251 251 251 248 248 248 235 235 235 238 238 238 241 241 241 224 224 224 221 219 221 195 193 195 164 162 164 176 174 176 110 108 110 93 91 93 215 213 215 221 219 221 215 213 215 219 217 219 221 219 221 206 204 206 187 185 187 177 175 177 155 153 155 129 127 129 144 144 144 157 157 157 140 140 140 129 129 129 159 159 159 184 184 184 192 192 192 207 207 207 205 205 205 213 213 213 215 215 215 223 223 223 221 221 221 222 222 222 231 231 231 216 216 216 205 205 205 211 211 211 204 204 204 200 200 200 212 212 212 220 220 220 219 219 219 213 213 213 211 211 211 227 227 227 233 233 233 
230 230 232 215 215 217 176 176 178 120 120 122 123 123 125 135 135 137 193 193 195 208 208 210 198 198 200 211 211 213 205 205 207 225 225 227 234 234 236 247 247 249 242 242 244 254 254 255 250 250 252 247 247 249 248 248 250 249 249 251 250 250 252 251 251 253 252 252 254 252 252 254 252 252 253 251 251 251 252 252 252 252 252 252 252 252 252 252 252 252 253 253 253 253 253 253 253 253 253 253 253 253 253 253 253 253 253 253 253 253 253 253 253 253 253 253 253 253 253 253 253 253 253 255 255 255 254 254 254 254 254 254 253 253 253 252 252 252 251 251 251 251 251 251 250 250 250 251 251 251 251 251 251 252 252 252 252 252 252 253 253 253 253 253 253 253 253 253 253 253 253 253 253 253 253 253 253 252 252 252 252 252 252 252 252 252 252 252 252 253 253 253 253 253 253 251 251 251 251 251 251 251 251 251 251 251 251 250 250 250 250 250 250 250 250 250 250 250 250 249 249 249 249 249 249 250 250 250 250 250 250 250 250 250 250 250 250 249 249 249 249 249 249 245 245 245 246 246 246 248 248 248 250 250 250 250 250 250 250 250 250 249 249 249 248 248 248 248 248 248 248 248 248 248 248 248 248 248 248 248 248 248 248 248 248 248 248 248 248 248 248 250 250 250 249 249 249 249 249 249 249 249 249 248 248 248 248 248 248 247 247 247 247 247 247 247 247 247 247 247 247 246 246 246 247 247 247 247 247 247 248 248 248 249 249 249 250 250 250 249 249 249 249 249 249 249 249 249 250 250 250 250 250 250 249 249 249 249 249 249 249 249 249 250 250 250 250 250 250 250 250 250 251 251 251 251 251 251 251 251 251 252 252 252 252 252 252 251 251 251 251 251 251 251 251 251 251 251 251 250 250 250 250 250 250 250 250 250 250 250 250 248 248 248 247 247 247 246 246 246 245 245 245 244 244 244 243 243 243 243 243 243 243 243 243 241 241 241 240 240 240 240 240 240 240 240 240 241 241 241 243 243 243 245 245 245 246 246 246 249 249 249 248 248 248 248 248 248 251 251 251 252 252 252 251 251 251 250 250 250 249 249 249 252 252 252 249 249 249 248 248 248 238 238 238 229 229 229 203 203 203 204 204 204 222 222 222 215 215 215 
209 209 209 224 224 224 227 227 227 251 251 251 239 239 239 244 244 244 250 250 250 254 254 254 249 249 249 253 253 253 250 250 250 239 239 239 239 239 239 237 237 237 221 221 221 199 197 199 216 214 217 204 202 205 158 156 159 145 143 146 115 113 116 199 197 200 219 217 220 212 210 213 211 209 212 204 202 205 100 98 101 64 62 65 127 125 128 102 100 103 122 120 122 168 168 168 190 190 190 191 191 191 187 187 187 202 202 202 210 210 210 207 207 207 208 208 208 204 204 204 211 211 211 212 212 212 219 219 219 218 218 218 221 221 221 232 232 232 218 218 218 201 201 201 187 187 187 212 212 212 198 198 198 216 216 216 219 219 219 217 217 217 220 220 220 223 223 223 232 232 232 234 234 234 
223 223 225 196 196 198 171 171 173 146 146 148 135 135 137 139 139 141 186 186 188 203 203 205 184 184 186 224 224 226 214 214 216 227 227 229 237 237 239 246 246 248 242 242 244 249 249 251 245 245 247 248 248 250 249 249 251 250 250 252 251 251 253 252 252 254 252 252 254 252 252 254 252 252 253 251 251 251 252 252 252 252 252 252 252 252 252 252 252 252 253 253 253 253 253 253 253 253 253 253 253 253 253 253 253 253 253 253 253 253 253 253 253 253 253 253 253 253 253 253 253 253 253 254 254 254 254 254 254 254 254 254 254 254 254 255 255 255 255 255 255 255 255 255 255 255 255 252 252 252 252 252 252 252 252 252 252 252 252 253 253 253 253 253 253 253 253 253 253 253 253 253 253 253 253 253 253 252 252 252 252 252 252 252 252 252 252 252 252 253 253 253 253 253 253 252 252 252 252 252 252 251 251 251 251 251 251 251 251 251 250 250 250 250 250 250 250 250 250 249 249 249 250 250 250 250 250 250 251 251 251 251 251 251 250 250 250 250 250 250 249 249 249 243 243 243 244 244 244 247 247 247 250 250 250 251 251 251 250 250 250 248 248 248 247 247 247 247 247 247 247 247 247 247 247 247 247 247 247 247 247 247 247 247 247 247 247 247 247 247 247 248 248 248 248 248 248 248 248 248 248 248 248 247 247 247 247 247 247 247 247 247 247 247 247 246 246 246 246 246 246 245 245 245 246 246 246 246 246 246 247 247 247 248 248 248 249 249 249 250 250 250 250 250 250 250 250 250 250 250 250 250 250 250 250 250 250 250 250 250 250 250 250 249 249 249 249 249 249 250 250 250 250 250 250 250 250 250 251 251 251 251 251 251 251 251 251 251 251 251 251 251 251 251 251 251 251 251 251 250 250 250 250 250 250 250 250 250 250 250 250 248 248 248 247 247 247 246 246 246 245 245 245 244 244 244 244 244 244 243 243 243 243 243 243 241 241 241 240 240 240 240 240 240 240 240 240 241 241 241 243 243 243 245 245 245 246 246 246 249 249 249 248 248 248 247 247 247 249 249 249 251 251 251 252 252 252 249 249 249 246 246 246 247 247 247 242 242 242 245 245 245 237 237 237 216 216 216 177 177 177 217 217 217 223 223 223 220 220 220 
226 226 226 245 245 245 212 212 212 250 250 250 245 245 245 240 240 240 253 253 253 253 253 253 250 250 250 254 254 254 253 253 253 243 243 243 239 239 239 234 234 234 220 220 220 202 200 202 211 209 212 234 232 235 177 175 178 142 140 143 69 67 70 138 136 139 202 200 203 188 186 189 155 153 156 65 63 66 116 114 117 158 156 159 157 155 158 184 182 185 172 170 172 186 186 186 201 201 201 208 208 208 201 201 201 199 199 199 204 204 204 207 207 207 206 206 206 211 211 211 217 217 217 216 216 216 221 221 221 220 220 220 224 224 224 234 234 234 218 218 218 194 194 194 160 160 160 211 211 211 202 202 202 221 221 221 218 218 218 217 217 217 227 227 227 233 233 233 235 235 235 232 232 232 
202 202 204 195 195 197 190 190 192 166 166 168 125 125 127 132 132 134 177 177 179 204 204 206 209 209 211 225 225 227 215 215 217 225 225 227 240 240 242 245 245 247 241 241 243 246 246 248 245 245 247 250 250 252 251 251 253 252 252 254 252 252 254 252 252 254 252 252 254 252 252 254 251 251 252 251 251 251 252 252 252 252 252 252 252 252 252 252 252 252 253 253 253 253 253 253 253 253 253 253 253 253 253 253 253 253 253 253 253 253 253 253 253 253 253 253 253 253 253 253 253 253 253 252 252 252 252 252 252 253 253 253 253 253 253 254 254 254 254 254 254 254 254 254 254 254 254 253 253 253 253 253 253 253 253 253 253 253 253 253 253 253 253 253 253 253 253 253 253 253 253 253 253 253 253 253 253 252 252 252 252 252 252 252 252 252 252 252 252 253 253 253 253 253 253 252 252 252 252 252 252 252 252 252 251 251 251 251 251 251 251 251 251 250 250 250 250 250 250 250 250 250 250 250 250 251 251 251 251 251 251 251 251 251 251 251 251 250 250 250 250 250 250 241 241 241 243 243 243 247 247 247 249 249 249 251 251 251 250 250 250 248 248 248 247 247 247 247 247 247 247 247 247 247 247 247 247 247 247 247 247 247 247 247 247 247 247 247 247 247 247 247 247 247 247 247 247 247 247 247 247 247 247 247 247 247 246 246 246 246 246 246 246 246 246 247 247 247 247 247 247 246 246 246 245 245 245 245 245 245 245 245 245 245 245 245 245 245 245 250 250 250 250 250 250 250 250 250 250 250 250 250 250 250 250 250 250 250 250 250 250 250 250 249 249 249 249 249 249 249 249 249 249 249 249 250 250 250 250 250 250 250 250 250 250 250 250 251 251 251 251 251 251 251 251 251 251 251 251 250 250 250 250 250 250 250 250 250 250 250 250 248 248 248 247 247 247 247 247 247 245 245 245 243 243 243 242 242 242 240 240 240 239 239 239 240 240 240 240 240 240 239 239 239 240 240 240 241 241 241 242 242 242 244 244 244 245 245 245 248 248 248 249 249 249 248 248 248 246 246 246 245 245 245 246 246 246 246 246 246 244 244 244 242 242 242 238 238 238 242 242 242 238 238 238 213 213 213 163 163 163 230 230 230 227 227 227 236 236 236 
234 234 234 243 243 243 197 197 197 221 221 221 252 252 252 247 247 247 255 255 255 252 252 252 251 251 251 252 252 252 251 251 251 246 246 246 239 239 239 231 231 231 222 222 222 210 208 210 228 226 229 200 198 201 217 215 218 153 151 154 150 148 151 107 105 108 84 82 85 122 120 123 93 91 94 175 173 176 167 165 168 161 159 162 182 180 183 154 152 155 199 197 199 201 201 201 205 205 205 208 208 208 199 199 199 191 191 191 201 201 201 215 215 215 215 215 215 217 217 217 223 223 223 220 220 220 223 223 223 221 221 221 224 224 224 229 229 229 208 208 208 176 176 176 145 145 145 187 187 187 210 210 210 220 220 220 217 217 217 224 224 224 230 230 230 232 232 232 231 231 231 229 229 229 
181 181 183 170 170 172 189 189 191 170 170 172 124 124 126 151 151 153 192 192 194 197 197 199 215 215 217 208 208 210 201 201 203 213 213 215 237 237 239 240 240 242 243 243 245 247 247 249 251 251 253 246 246 248 247 247 249 248 248 250 250 250 252 251 251 253 252 252 254 252 252 254 252 252 253 251 251 251 252 252 252 252 252 252 252 252 252 252 252 252 253 253 253 253 253 253 253 253 253 253 253 253 253 253 253 253 253 253 253 253 253 253 253 253 253 253 253 253 253 253 253 253 253 253 253 253 253 253 253 253 253 253 253 253 253 253 253 253 253 253 253 253 253 253 252 252 252 254 254 254 254 254 254 253 253 253 253 253 253 253 253 253 253 253 253 253 253 253 253 253 253 253 253 253 253 253 253 252 252 252 252 252 252 252 252 252 252 252 252 253 253 253 253 253 253 252 252 252 252 252 252 252 252 252 252 252 252 251 251 251 251 251 251 251 251 251 251 251 251 250 250 250 250 250 250 251 251 251 251 251 251 251 251 251 251 251 251 250 250 250 250 250 250 242 242 242 243 243 243 246 246 246 249 249 249 250 250 250 250 250 250 248 248 248 247 247 247 247 247 247 247 247 247 247 247 247 247 247 247 247 247 247 247 247 247 247 247 247 247 247 247 246 246 246 246 246 246 246 246 246 246 246 246 245 245 245 245 245 245 245 245 245 245 245 245 246 246 246 245 245 245 245 245 245 244 244 244 244 244 244 244 244 244 245 245 245 245 245 245 251 251 251 250 250 250 249 249 249 249 249 249 249 249 249 249 249 249 250 250 250 251 251 251 249 249 249 249 249 249 249 249 249 249 249 249 250 250 250 250 250 250 250 250 250 250 250 250 251 251 251 251 251 251 251 251 251 251 251 251 250 250 250 250 250 250 250 250 250 250 250 250 249 249 249 248 248 248 247 247 247 245 245 245 242 242 242 239 239 239 237 237 237 235 235 235 239 239 239 239 239 239 238 238 238 239 239 239 240 240 240 241 241 241 243 243 243 244 244 244 245 245 245 250 250 250 250 250 250 244 244 244 241 241 241 243 243 243 246 246 246 246 246 246 243 243 243 243 243 243 238 238 238 234 234 234 213 213 213 159 159 159 233 233 233 236 236 236 239 239 239 
232 232 232 235 235 235 200 200 200 181 181 181 243 243 243 247 247 247 253 253 253 251 251 251 251 251 251 249 249 249 248 248 248 247 247 247 238 238 238 229 229 229 225 225 225 181 179 181 184 182 185 211 209 212 212 210 213 173 171 174 49 47 50 92 90 93 130 128 131 86 84 87 80 78 81 182 180 183 175 173 176 163 161 164 181 179 182 199 197 200 185 183 185 200 200 200 202 202 202 208 208 208 206 206 206 202 202 202 210 210 210 218 218 218 213 213 213 213 213 213 220 220 220 218 218 218 221 221 221 219 219 219 221 221 221 221 221 221 194 194 194 147 147 147 139 139 139 151 151 151 214 214 214 213 213 213 216 216 216 232 232 232 229 229 229 230 230 230 230 230 230 231 231 231 
179 179 181 171 171 173 190 190 192 173 173 175 135 135 137 159 159 161 203 203 205 188 188 190 203 203 205 217 217 219 206 206 208 211 211 213 238 238 240 237 237 239 242 242 244 241 241 243 246 246 248 238 238 240 239 239 241 242 242 244 246 246 248 249 249 251 251 251 253 253 253 255 254 254 255 251 251 251 252 252 252 252 252 252 252 252 252 252 252 252 253 253 253 253 253 253 253 253 253 253 253 253 253 253 253 253 253 253 253 253 253 253 253 253 253 253 253 253 253 253 253 253 253 255 255 255 255 255 255 255 255 255 255 255 255 254 254 254 254 254 254 253 253 253 253 253 253 254 254 254 254 254 254 254 254 254 254 254 254 253 253 253 253 253 253 253 253 253 253 253 253 253 253 253 253 253 253 252 252 252 252 252 252 252 252 252 252 252 252 253 253 253 253 253 253 253 253 253 253 253 253 252 252 252 252 252 252 252 252 252 251 251 251 251 251 251 251 251 251 250 250 250 251 251 251 251 251 251 252 252 252 252 252 252 251 251 251 251 251 251 250 250 250 244 244 244 245 245 245 247 247 247 248 248 248 249 249 249 249 249 249 249 249 249 249 249 249 247 247 247 247 247 247 247 247 247 247 247 247 247 247 247 247 247 247 247 247 247 247 247 247 247 247 247 246 246 246 246 246 246 245 245 245 244 244 244 244 244 244 243 243 243 243 243 243 241 241 241 241 241 241 242 242 242 243 243 243 244 244 244 245 245 245 247 247 247 248 248 248 250 250 250 249 249 249 248 248 248 247 247 247 247 247 247 248 248 248 249 249 249 250 250 250 249 249 249 249 249 249 250 250 250 250 250 250 250 250 250 251 251 251 251 251 251 251 251 251 251 251 251 251 251 251 251 251 251 251 251 251 250 250 250 250 250 250 250 250 250 250 250 250 249 249 249 248 248 248 248 248 248 246 246 246 243 243 243 239 239 239 236 236 236 234 234 234 238 238 238 237 237 237 237 237 237 237 237 237 238 238 238 240 240 240 242 242 242 243 243 243 242 242 242 248 248 248 249 249 249 244 244 244 242 242 242 246 246 246 247 247 247 243 243 243 231 231 231 244 244 244 228 228 228 223 223 223 207 207 207 155 155 155 214 214 214 238 238 238 234 234 234 
236 236 236 237 237 237 217 217 217 171 171 171 231 231 231 244 244 244 252 252 252 250 250 250 252 252 252 248 248 248 246 246 246 248 248 248 237 237 237 224 224 224 225 225 225 174 172 174 127 125 128 157 155 158 198 196 199 25 23 26 31 29 32 152 150 153 139 137 140 116 114 117 59 57 60 162 160 163 190 188 191 183 181 184 177 175 178 185 183 186 194 192 194 199 199 199 202 202 202 202 202 202 200 200 200 205 205 205 210 210 210 211 211 211 210 210 210 212 212 212 220 220 220 218 218 218 221 221 221 221 221 221 223 223 223 220 220 220 189 189 189 123 123 123 141 141 141 135 135 135 208 208 208 204 204 204 215 215 215 235 235 235 228 228 228 232 232 232 233 233 233 235 235 235 
186 186 188 205 205 207 202 202 204 185 185 187 142 142 144 119 119 121 179 179 181 186 186 188 209 209 211 213 213 215 195 195 197 190 190 192 222 222 224 227 227 229 239 239 241 236 236 238 241 241 243 239 239 241 240 240 242 243 243 245 246 246 248 249 249 251 251 251 253 253 253 255 254 254 255 251 251 251 252 252 252 252 252 252 252 252 252 252 252 252 253 253 253 253 253 253 253 253 253 253 253 253 253 253 253 253 253 253 253 253 253 253 253 253 253 253 253 253 253 253 253 253 253 255 255 255 255 255 255 255 255 255 255 255 255 255 255 255 255 255 255 254 254 254 254 254 254 255 255 255 255 255 255 254 254 254 254 254 254 254 254 254 253 253 253 253 253 253 253 253 253 253 253 253 253 253 253 252 252 252 252 252 252 252 252 252 252 252 252 253 253 253 253 253 253 253 253 253 253 253 253 253 253 253 252 252 252 252 252 252 252 252 252 251 251 251 251 251 251 251 251 251 251 251 251 252 252 252 252 252 252 252 252 252 252 252 252 251 251 251 251 251 251 247 247 247 247 247 247 247 247 247 248 248 248 248 248 248 249 249 249 250 250 250 250 250 250 248 248 248 248 248 248 248 248 248 248 248 248 248 248 248 248 248 248 248 248 248 248 248 248 247 247 247 247 247 247 246 246 246 245 245 245 243 243 243 242 242 242 241 241 241 241 241 241 240 240 240 240 240 240 241 241 241 242 242 242 243 243 243 245 245 245 246 246 246 247 247 247 249 249 249 248 248 248 247 247 247 246 246 246 246 246 246 247 247 247 248 248 248 249 249 249 250 250 250 250 250 250 250 250 250 251 251 251 251 251 251 251 251 251 252 252 252 252 252 252 251 251 251 251 251 251 251 251 251 251 251 251 250 250 250 250 250 250 250 250 250 250 250 250 248 248 248 248 248 248 248 248 248 247 247 247 245 245 245 242 242 242 239 239 239 238 238 238 236 236 236 236 236 236 235 235 235 236 236 236 237 237 237 238 238 238 240 240 240 241 241 241 241 241 241 245 245 245 246 246 246 243 243 243 244 244 244 247 247 247 239 239 239 226 226 226 196 196 196 236 236 236 222 222 222 222 222 222 213 213 213 159 159 159 187 187 187 236 236 236 234 234 234 
244 244 244 230 230 230 217 217 217 197 197 197 232 232 232 246 246 246 254 254 254 249 249 249 254 254 254 248 248 248 247 247 247 250 250 250 234 234 234 217 217 217 220 220 220 159 157 159 102 100 103 118 116 119 138 136 139 69 67 70 38 36 39 119 117 120 162 160 163 103 101 104 45 43 46 92 90 93 150 148 151 180 178 181 204 202 205 182 180 183 184 182 184 210 210 210 217 217 217 208 208 208 202 202 202 213 213 213 216 216 216 214 214 214 223 223 223 217 217 217 224 224 224 220 220 220 221 221 221 221 221 221 224 224 224 220 220 220 187 187 187 122 122 122 151 151 151 155 155 155 198 198 198 201 201 201 214 214 214 227 227 227 227 227 227 234 234 234 235 235 235 237 237 237 
188 188 190 183 183 185 189 189 191 212 212 214 186 186 188 113 113 115 162 162 164 172 172 174 186 186 188 172 172 174 150 150 152 145 145 147 190 190 192 210 210 212 239 239 241 241 241 243 248 248 250 246 246 248 247 247 249 248 248 250 250 250 252 251 251 253 252 252 254 252 252 254 252 252 253 251 251 251 252 252 252 252 252 252 252 252 252 252 252 252 253 253 253 253 253 253 253 253 253 253 253 253 253 253 253 253 253 253 253 253 253 253 253 253 253 253 253 253 253 253 253 253 253 253 253 253 253 253 253 253 253 253 254 254 254 254 254 254 254 254 254 254 254 254 254 254 254 255 255 255 255 255 255 255 255 255 254 254 254 254 254 254 253 253 253 253 253 253 253 253 253 253 253 253 253 253 253 252 252 252 252 252 252 252 252 252 252 252 252 253 253 253 253 253 253 253 253 253 253 253 253 253 253 253 252 252 252 252 252 252 252 252 252 252 252 252 251 251 251 251 251 251 251 251 251 252 252 252 252 252 252 252 252 252 252 252 252 251 251 251 251 251 251 250 250 250 249 249 249 248 248 248 247 247 247 247 247 247 249 249 249 250 250 250 251 251 251 249 249 249 249 249 249 249 249 249 249 249 249 249 249 249 249 249 249 249 249 249 249 249 249 248 248 248 247 247 247 246 246 246 244 244 244 243 243 243 241 241 241 240 240 240 239 239 239 243 243 243 242 242 242 242 242 242 242 242 242 242 242 242 243 243 243 243 243 243 244 244 244 249 249 249 248 248 248 246 246 246 245 245 245 245 245 245 246 246 246 248 248 248 249 249 249 251 251 251 251 251 251 251 251 251 251 251 251 252 252 252 252 252 252 252 252 252 252 252 252 251 251 251 251 251 251 251 251 251 251 251 251 250 250 250 250 250 250 250 250 250 250 250 250 247 247 247 248 248 248 249 249 249 249 249 249 248 248 248 245 245 245 243 243 243 241 241 241 235 235 235 235 235 235 234 234 234 235 235 235 236 236 236 237 237 237 239 239 239 240 240 240 242 242 242 244 244 244 242 242 242 240 240 240 245 245 245 245 245 245 227 227 227 206 206 206 167 167 167 229 229 229 226 226 226 234 234 234 230 230 230 173 173 173 174 174 174 236 236 236 239 239 239 
245 245 245 211 211 211 199 199 199 223 223 223 239 239 239 248 248 248 253 253 253 248 248 248 255 255 255 249 249 249 249 249 249 252 252 252 233 233 233 212 212 212 215 215 215 161 159 161 49 47 50 127 125 128 106 104 107 47 45 48 42 40 43 156 154 157 139 137 140 136 134 137 95 93 96 46 44 47 141 139 142 178 176 179 189 187 190 189 187 190 206 204 206 202 202 202 220 220 220 214 214 214 210 210 210 224 224 224 219 219 219 209 209 209 222 222 222 221 221 221 227 227 227 219 219 219 217 217 217 216 216 216 219 219 219 215 215 215 181 181 181 133 133 133 162 162 162 185 185 185 192 192 192 202 202 202 213 213 213 218 218 218 227 227 227 233 233 233 233 233 233 237 237 237 
190 190 192 194 194 196 189 189 191 211 211 213 199 199 201 146 146 148 143 143 145 176 176 178 177 177 179 156 156 158 153 153 155 147 147 149 197 197 199 230 230 232 250 250 252 248 248 250 244 244 246 245 245 247 249 249 251 249 249 251 248 248 250 249 249 251 252 252 254 253 253 255 250 250 251 252 252 252 251 251 251 251 251 251 251 251 251 251 251 251 251 251 251 252 252 252 253 253 253 254 254 254 254 254 254 254 254 254 254 254 254 254 254 254 254 254 254 254 254 254 254 254 254 254 254 254 254 254 254 254 254 254 254 254 254 254 254 254 254 254 254 254 254 254 254 254 254 253 253 253 253 253 253 253 253 253 252 252 252 252 252 252 252 252 252 252 252 252 251 251 251 251 251 251 251 251 251 251 251 251 251 251 251 251 251 251 251 251 251 251 251 251 251 251 251 251 251 251 251 251 251 251 251 251 251 251 251 251 251 251 251 251 251 251 251 251 251 251 251 251 251 251 251 251 251 251 251 251 251 251 251 251 251 251 250 250 250 249 249 249 249 249 249 248 248 248 248 248 248 248 248 248 249 249 249 250 250 250 251 251 251 251 251 251 252 252 252 251 251 251 251 251 251 252 252 252 252 252 252 252 252 252 250 250 250 249 249 249 248 248 248 246 246 246 245 245 245 244 244 244 242 242 242 240 240 240 239 239 239 239 239 239 239 239 239 237 237 237 237 237 237 238 238 238 240 240 240 242 242 242 243 243 243 245 245 245 245 245 245 246 246 246 246 246 246 246 246 246 246 246 246 247 247 247 248 248 248 249 249 249 250 250 250 248 248 248 248 248 248 249 249 249 249 249 249 250 250 250 251 251 251 251 251 251 251 251 251 250 250 250 250 250 250 250 250 250 250 250 250 249 249 249 249 249 249 249 249 249 249 249 249 248 248 248 248 248 248 248 248 248 247 247 247 246 246 246 245 245 245 243 243 243 243 243 243 241 241 241 238 238 238 235 235 235 232 232 232 232 232 232 235 235 235 238 238 238 240 240 240 244 244 244 241 241 241 242 242 242 239 239 239 229 229 229 237 237 237 228 228 228 196 196 196 182 182 182 231 231 231 235 235 235 219 219 219 227 227 227 199 199 199 169 169 169 238 238 238 242 242 242 
227 227 227 218 218 218 226 226 226 242 242 242 251 251 251 251 251 251 248 248 248 253 253 253 249 249 249 252 252 252 252 252 252 245 245 245 240 240 240 230 230 230 212 212 212 196 194 196 46 44 47 107 105 108 151 149 152 42 40 43 125 123 126 129 127 130 138 136 139 170 168 171 110 108 111 82 80 83 76 74 77 176 174 177 185 183 186 195 193 196 195 193 195 206 206 206 210 210 210 214 214 214 216 216 216 216 216 216 217 217 217 219 219 219 221 221 221 227 227 227 230 230 230 226 226 226 225 225 225 222 222 222 231 231 231 223 223 223 174 174 174 161 161 161 188 188 188 195 195 195 208 208 208 198 198 198 104 104 104 211 211 211 225 225 225 228 228 228 235 235 235 238 238 238 
209 209 211 197 197 199 198 198 200 213 213 215 216 216 218 177 177 179 132 132 134 136 136 138 169 169 171 162 162 164 196 196 198 211 211 213 202 202 204 232 232 234 222 222 224 244 244 246 249 249 251 249 249 251 251 251 253 250 250 252 247 247 249 247 247 249 250 250 252 252 252 254 250 250 251 251 251 251 251 251 251 251 251 251 250 250 250 251 251 251 251 251 251 252 252 252 253 253 253 254 254 254 254 254 254 254 254 254 254 254 254 254 254 254 254 254 254 254 254 254 254 254 254 254 254 254 254 254 254 254 254 254 254 254 254 254 254 254 254 254 254 254 254 254 254 254 254 253 253 253 253 253 253 253 253 253 252 252 252 252 252 252 252 252 252 251 251 251 251 251 251 251 251 251 251 251 251 251 251 251 251 251 251 251 251 251 251 251 251 251 251 251 251 251 251 251 251 251 251 251 251 251 251 251 251 251 251 251 251 251 251 251 251 251 251 251 251 251 251 251 251 251 251 251 251 251 251 251 251 251 251 251 251 251 250 250 250 249 249 249 249 249 249 248 248 248 248 248 248 249 249 249 249 249 249 250 250 250 251 251 251 251 251 251 252 252 252 251 251 251 251 251 251 252 252 252 252 252 252 251 251 251 250 250 250 249 249 249 248 248 248 245 245 245 244 244 244 243 243 243 241 241 241 239 239 239 238 238 238 237 237 237 237 237 237 237 237 237 238 238 238 239 239 239 241 241 241 242 242 242 244 244 244 245 245 245 246 246 246 246 246 246 246 246 246 246 246 246 246 246 246 247 247 247 248 248 248 249 249 249 250 250 250 248 248 248 248 248 248 249 249 249 249 249 249 250 250 250 251 251 251 251 251 251 251 251 251 251 251 251 250 250 250 250 250 250 250 250 250 250 250 250 249 249 249 249 249 249 249 249 249 249 249 249 248 248 248 248 248 248 248 248 248 247 247 247 245 245 245 244 244 244 243 243 243 242 242 242 239 239 239 236 236 236 234 234 234 234 234 234 236 236 236 238 238 238 240 240 240 234 234 234 240 240 240 237 237 237 237 237 237 237 237 237 205 205 205 200 200 200 139 139 139 186 186 186 223 223 223 238 238 238 239 239 239 236 236 236 176 176 176 177 177 177 240 240 240 246 246 246 
229 229 229 225 225 225 240 240 240 252 252 252 250 250 250 249 249 249 253 253 253 252 252 252 248 248 248 252 252 252 252 252 252 246 246 246 243 243 243 233 233 233 216 216 216 204 202 204 147 145 148 101 99 102 92 90 93 81 79 82 144 142 145 121 119 122 131 129 132 148 146 149 128 126 129 97 95 98 38 36 39 164 162 165 185 183 186 188 186 189 201 199 201 205 205 205 209 209 209 214 214 214 215 215 215 213 213 213 213 213 213 217 217 217 220 220 220 225 225 225 226 226 226 221 221 221 220 220 220 216 216 216 227 227 227 232 232 232 196 196 196 203 203 203 205 205 205 198 198 198 207 207 207 203 203 203 178 178 178 235 235 235 235 235 235 232 232 232 238 238 238 240 240 240 
217 217 219 201 201 203 203 203 205 197 197 199 210 210 212 209 209 211 151 151 153 113 113 115 140 140 142 138 138 140 169 169 171 136 136 138 157 157 159 195 195 197 250 250 252 246 246 248 246 246 248 251 251 253 252 252 254 250 250 252 246 246 248 245 245 247 249 249 251 251 251 253 249 249 250 251 251 251 250 250 250 250 250 250 250 250 250 251 251 251 251 251 251 252 252 252 253 253 253 254 254 254 254 254 254 254 254 254 254 254 254 254 254 254 254 254 254 254 254 254 254 254 254 254 254 254 254 254 254 254 254 254 254 254 254 254 254 254 254 254 254 254 254 254 254 254 254 253 253 253 253 253 253 252 252 252 252 252 252 252 252 252 251 251 251 251 251 251 251 251 251 251 251 251 251 251 251 251 251 251 251 251 251 251 251 251 251 251 251 251 251 251 251 251 251 251 251 251 251 251 251 251 251 251 251 251 251 251 251 251 251 251 251 251 251 251 251 251 251 251 251 251 251 251 251 251 251 251 251 251 251 251 251 251 250 250 250 249 249 249 249 249 249 248 248 248 249 249 249 249 249 249 250 250 250 250 250 250 251 251 251 251 251 251 252 252 252 251 251 251 251 251 251 252 252 252 252 252 252 251 251 251 250 250 250 248 248 248 247 247 247 245 245 245 244 244 244 242 242 242 240 240 240 238 238 238 237 237 237 236 236 236 236 236 236 238 238 238 239 239 239 240 240 240 242 242 242 243 243 243 245 245 245 246 246 246 247 247 247 247 247 247 247 247 247 247 247 247 247 247 247 247 247 247 248 248 248 249 249 249 250 250 250 248 248 248 249 249 249 249 249 249 250 250 250 250 250 250 251 251 251 251 251 251 252 252 252 251 251 251 251 251 251 250 250 250 250 250 250 250 250 250 250 250 250 249 249 249 249 249 249 249 249 249 249 249 249 249 249 249 248 248 248 247 247 247 246 246 246 245 245 245 244 244 244 243 243 243 241 241 241 238 238 238 236 236 236 236 236 236 237 237 237 239 239 239 241 241 241 239 239 239 245 245 245 233 233 233 228 228 228 224 224 224 162 162 162 193 193 193 154 154 154 220 220 220 246 246 246 254 254 254 246 246 246 232 232 232 163 163 163 190 190 190 240 240 240 236 236 236 
223 223 223 227 227 227 249 249 249 255 255 255 245 245 245 243 243 243 254 254 254 252 252 252 248 248 248 251 251 251 251 251 251 245 245 245 242 242 242 233 233 233 215 215 215 176 174 176 202 200 203 163 161 164 137 135 138 146 144 147 185 183 186 166 164 167 138 136 139 133 131 134 118 116 119 120 118 121 79 77 80 143 141 144 168 166 169 199 197 200 213 211 213 207 207 207 212 212 212 216 216 216 215 215 215 212 212 212 212 212 212 217 217 217 222 222 222 226 226 226 226 226 226 224 224 224 226 226 226 221 221 221 229 229 229 239 239 239 214 214 214 201 201 201 211 211 211 209 209 209 201 201 201 169 169 169 200 200 200 224 224 224 231 231 231 232 232 232 237 237 237 237 237 237 
213 213 215 195 195 197 207 207 209 196 196 198 197 197 199 213 213 215 185 185 187 142 142 144 137 137 139 123 123 125 147 147 149 113 113 115 163 163 165 166 166 168 233 233 235 231 231 233 244 244 246 246 246 248 249 249 251 249 249 251 246 246 248 246 246 248 249 249 251 250 250 252 248 248 249 250 250 250 250 250 250 250 250 250 250 250 250 250 250 250 251 251 251 252 252 252 253 253 253 253 253 253 253 253 253 253 253 253 253 253 253 253 253 253 253 253 253 253 253 253 253 253 253 253 253 253 253 253 253 253 253 253 253 253 253 253 253 253 253 253 253 253 253 253 253 253 253 252 252 252 252 252 252 252 252 252 252 252 252 251 251 251 251 251 251 251 251 251 251 251 251 251 251 251 251 251 251 251 251 251 251 251 251 251 251 251 251 251 251 251 251 251 251 251 251 251 251 251 251 251 251 251 251 251 251 251 251 251 251 251 251 251 251 251 251 251 251 251 251 251 251 251 251 251 251 251 251 251 251 251 251 251 251 251 250 250 250 249 249 249 249 249 249 249 249 249 249 249 249 250 250 250 250 250 250 251 251 251 251 251 251 251 251 251 251 251 251 251 251 251 251 251 251 252 252 252 252 252 252 251 251 251 249 249 249 247 247 247 246 246 246 245 245 245 244 244 244 242 242 242 240 240 240 239 239 239 238 238 238 237 237 237 237 237 237 239 239 239 240 240 240 241 241 241 243 243 243 245 245 245 246 246 246 247 247 247 248 248 248 248 248 248 248 248 248 247 247 247 248 248 248 248 248 248 249 249 249 250 250 250 250 250 250 249 249 249 249 249 249 249 249 249 250 250 250 251 251 251 251 251 251 252 252 252 252 252 252 251 251 251 251 251 251 251 251 251 250 250 250 250 250 250 250 250 250 250 250 250 249 249 249 249 249 249 249 249 249 249 249 249 249 249 249 248 248 248 247 247 247 246 246 246 245 245 245 244 244 244 243 243 243 241 241 241 239 239 239 238 238 238 239 239 239 239 239 239 240 240 240 243 243 243 231 231 231 235 235 235 245 245 245 184 184 184 66 66 66 135 135 135 217 217 217 247 247 247 230 230 230 227 227 227 247 247 247 239 239 239 144 144 144 151 151 151 232 232 232 221 221 221 
219 219 219 230 230 230 249 249 249 255 255 255 246 246 246 244 244 244 253 253 253 252 252 252 248 248 248 250 250 250 250 250 250 243 243 243 240 240 240 231 231 231 213 213 213 168 166 168 185 183 186 226 224 227 198 196 199 169 167 170 188 186 189 155 153 156 102 100 103 120 118 121 130 128 131 119 117 120 95 93 96 113 111 114 146 144 147 200 198 201 201 199 201 211 211 211 216 216 216 220 220 220 218 218 218 214 214 214 214 214 214 220 220 220 227 227 227 227 227 227 226 226 226 228 228 228 236 236 236 230 230 230 230 230 230 235 235 235 207 207 207 199 199 199 215 215 215 208 208 208 205 205 205 181 181 181 224 224 224 230 230 230 221 221 221 233 233 233 236 236 236 235 235 235 
216 216 218 193 193 195 207 207 209 213 213 215 206 206 208 202 202 204 200 200 202 192 192 194 180 180 182 121 121 123 115 115 117 137 137 139 191 191 193 203 203 205 217 217 219 243 243 245 246 246 248 238 238 240 243 243 245 246 246 248 247 247 249 249 249 251 251 251 253 250 250 252 246 246 247 249 249 249 249 249 249 249 249 249 249 249 249 250 250 250 251 251 251 252 252 252 253 253 253 253 253 253 253 253 253 253 253 253 253 253 253 253 253 253 253 253 253 253 253 253 253 253 253 253 253 253 253 253 253 253 253 253 253 253 253 253 253 253 253 253 253 253 253 253 253 253 253 252 252 252 252 252 252 252 252 252 251 251 251 251 251 251 251 251 251 250 250 250 250 250 250 250 250 250 250 250 250 250 250 250 250 250 250 250 250 250 250 250 250 250 250 250 250 250 250 250 250 250 250 250 250 250 250 250 250 250 250 250 250 250 250 250 250 250 250 250 250 250 250 251 251 251 251 251 251 251 251 251 251 251 251 251 251 251 250 250 250 249 249 249 249 249 249 250 250 250 250 250 250 250 250 250 251 251 251 251 251 251 251 251 251 251 251 251 251 251 251 251 251 251 251 251 251 252 252 252 251 251 251 250 250 250 248 248 248 246 246 246 245 245 245 245 245 245 244 244 244 243 243 243 241 241 241 240 240 240 239 239 239 239 239 239 239 239 239 241 241 241 241 241 241 243 243 243 244 244 244 246 246 246 248 248 248 249 249 249 249 249 249 249 249 249 249 249 249 248 248 248 248 248 248 249 249 249 249 249 249 250 250 250 250 250 250 249 249 249 249 249 249 250 250 250 250 250 250 251 251 251 252 252 252 252 252 252 252 252 252 252 252 252 251 251 251 251 251 251 251 251 251 251 251 251 250 250 250 250 250 250 250 250 250 249 249 249 249 249 249 249 249 249 249 249 249 249 249 249 248 248 248 247 247 247 246 246 246 245 245 245 244 244 244 243 243 243 241 241 241 240 240 240 239 239 239 239 239 239 239 239 239 225 225 225 248 248 248 242 242 242 219 219 219 212 212 212 221 221 221 240 240 240 240 240 240 249 249 249 253 253 253 242 242 242 237 237 237 236 236 236 161 161 161 126 126 126 180 180 180 220 220 220 
228 228 228 240 240 240 250 250 250 254 254 254 254 254 254 253 253 253 251 251 251 252 252 252 248 248 248 250 250 250 250 250 250 245 245 245 242 242 242 234 234 234 218 218 218 138 136 138 88 86 89 194 192 195 185 183 186 166 164 167 200 198 201 129 127 130 92 90 93 113 111 114 185 183 186 126 124 127 53 51 54 114 112 115 134 132 135 205 203 206 198 196 198 213 213 213 217 217 217 220 220 220 219 219 219 216 216 216 216 216 216 222 222 222 228 228 228 227 227 227 223 223 223 223 223 223 234 234 234 231 231 231 229 229 229 226 226 226 192 192 192 121 121 121 202 202 202 227 227 227 222 222 222 174 174 174 168 168 168 219 219 219 243 243 243 236 236 236 240 240 240 238 238 238 
222 222 224 212 212 214 200 200 202 206 206 208 212 212 214 204 204 206 211 211 213 220 220 222 210 210 212 202 202 204 161 161 163 150 150 152 208 208 210 214 214 216 214 214 216 210 210 212 197 197 199 231 231 233 238 238 240 244 244 246 246 246 248 249 249 251 251 251 253 249 249 251 245 245 246 248 248 248 248 248 248 248 248 248 249 249 249 250 250 250 251 251 251 252 252 252 253 253 253 253 253 253 253 253 253 253 253 253 253 253 253 253 253 253 253 253 253 253 253 253 253 253 253 253 253 253 253 253 253 253 253 253 253 253 253 253 253 253 253 253 253 253 253 253 253 253 253 252 252 252 252 252 252 251 251 251 251 251 251 251 251 251 250 250 250 250 250 250 250 250 250 250 250 250 250 250 250 250 250 250 250 250 250 250 250 250 250 250 250 250 250 250 250 250 250 250 250 250 250 250 250 250 250 250 250 250 250 250 250 250 250 250 250 250 250 250 250 250 250 251 251 251 251 251 251 251 251 251 251 251 251 251 251 251 250 250 250 249 249 249 249 249 249 251 251 251 251 251 251 251 251 251 251 251 251 251 251 251 251 251 251 251 251 251 251 251 251 251 251 251 251 251 251 252 252 252 251 251 251 250 250 250 248 248 248 246 246 246 245 245 245 244 244 244 244 244 244 243 243 243 242 242 242 241 241 241 241 241 241 241 241 241 241 241 241 242 242 242 243 243 243 244 244 244 245 245 245 247 247 247 249 249 249 250 250 250 251 251 251 250 250 250 250 250 250 249 249 249 249 249 249 249 249 249 250 250 250 250 250 250 251 251 251 249 249 249 250 250 250 250 250 250 251 251 251 251 251 251 252 252 252 252 252 252 253 253 253 252 252 252 252 252 252 251 251 251 251 251 251 251 251 251 251 251 251 250 250 250 250 250 250 249 249 249 249 249 249 250 250 250 250 250 250 249 249 249 249 249 249 248 248 248 247 247 247 246 246 246 245 245 245 244 244 244 243 243 243 241 241 241 240 240 240 238 238 238 238 238 238 236 236 236 242 242 242 233 233 233 225 225 225 226 226 226 235 235 235 232 232 232 241 241 241 210 210 210 232 232 232 230 230 230 218 218 218 231 231 231 177 177 177 183 183 183 223 223 223 229 229 229 
237 237 237 243 243 243 246 246 246 251 251 251 255 255 255 254 254 254 247 247 247 252 252 252 248 248 248 251 251 251 252 252 252 248 248 248 247 247 247 240 240 240 225 225 225 127 125 127 34 32 35 188 186 189 203 201 204 152 150 153 178 176 179 75 73 76 15 13 16 102 100 103 170 168 171 150 148 151 68 66 69 130 128 131 92 90 93 199 197 200 213 211 213 210 210 210 213 213 213 217 217 217 218 218 218 218 218 218 219 219 219 224 224 224 227 227 227 232 232 232 226 226 226 221 221 221 229 229 229 229 229 229 233 233 233 229 229 229 190 190 190 119 119 119 209 209 209 216 216 216 222 222 222 204 204 204 171 171 171 220 220 220 235 235 235 235 235 235 240 240 240 238 238 238 
222 222 224 224 224 226 202 202 204 199 199 201 210 210 212 216 216 218 223 223 225 225 225 227 216 216 218 213 213 215 207 207 209 168 168 170 206 206 208 203 203 205 219 219 221 210 210 212 229 229 231 229 229 231 235 235 237 241 241 243 243 243 245 246 246 248 249 249 251 248 248 250 244 244 245 248 248 248 248 248 248 248 248 248 249 249 249 250 250 250 251 251 251 252 252 252 253 253 253 252 252 252 252 252 252 252 252 252 252 252 252 252 252 252 252 252 252 252 252 252 252 252 252 252 252 252 252 252 252 252 252 252 252 252 252 252 252 252 252 252 252 252 252 252 252 252 252 251 251 251 251 251 251 251 251 251 251 251 251 250 250 250 250 250 250 250 250 250 250 250 250 250 250 250 250 250 250 250 250 250 250 250 250 250 250 250 250 250 250 250 250 250 250 250 250 250 250 250 250 250 250 250 250 250 250 250 250 250 250 250 250 250 250 250 250 250 250 250 250 251 251 251 251 251 251 251 251 251 251 251 251 251 251 251 250 250 250 249 249 249 249 249 249 251 251 251 251 251 251 251 251 251 251 251 251 251 251 251 251 251 251 251 251 251 251 251 251 251 251 251 251 251 251 251 251 251 251 251 251 249 249 249 247 247 247 245 245 245 244 244 244 242 242 242 241 241 241 241 241 241 240 240 240 240 240 240 241 241 241 241 241 241 242 242 242 243 243 243 244 244 244 245 245 245 246 246 246 248 248 248 250 250 250 251 251 251 252 252 252 251 251 251 251 251 251 250 250 250 250 250 250 250 250 250 250 250 250 250 250 250 251 251 251 250 250 250 250 250 250 250 250 250 251 251 251 252 252 252 252 252 252 253 253 253 253 253 253 252 252 252 252 252 252 252 252 252 251 251 251 251 251 251 251 251 251 251 251 251 250 250 250 249 249 249 250 250 250 250 250 250 250 250 250 250 250 250 249 249 249 248 248 248 248 248 248 245 245 245 245 245 245 245 245 245 244 244 244 242 242 242 240 240 240 237 237 237 236 236 236 229 229 229 227 227 227 193 193 193 184 184 184 223 223 223 235 235 235 246 246 246 226 226 226 245 245 245 215 215 215 216 216 216 231 231 231 214 214 214 75 75 75 174 174 174 238 238 238 239 239 239 
236 236 236 236 236 236 241 241 241 249 249 249 253 253 253 251 251 251 248 248 248 253 253 253 249 249 249 251 251 251 251 251 251 246 246 246 245 245 245 238 238 238 223 223 223 92 90 92 59 57 60 192 190 193 217 215 218 171 169 172 178 176 179 72 70 73 1 0 2 107 105 108 134 132 135 152 150 153 109 107 110 131 129 132 61 59 62 142 140 143 203 201 203 210 210 210 211 211 211 214 214 214 218 218 218 222 222 222 225 225 225 227 227 227 228 228 228 234 234 234 233 233 233 228 228 228 231 231 231 230 230 230 239 239 239 235 235 235 190 190 190 113 113 113 213 213 213 207 207 207 205 205 205 192 192 192 158 158 158 196 196 196 230 230 230 232 232 232 239 239 239 237 237 237 
221 221 223 212 212 214 219 219 221 218 218 220 214 214 216 219 219 221 224 224 226 224 224 226 225 225 227 213 213 214 226 226 227 193 193 194 170 170 171 217 217 218 201 201 202 199 199 200 210 210 211 231 231 232 235 235 236 239 239 240 241 241 242 243 243 244 247 247 248 247 247 248 244 244 245 247 247 247 247 247 247 248 248 248 248 248 248 250 250 250 251 251 251 252 252 252 253 253 253 252 252 252 252 252 252 252 252 252 252 252 252 252 252 252 252 252 252 252 252 252 252 252 252 252 252 252 252 252 252 252 252 252 252 252 252 252 252 252 252 252 252 252 252 252 252 252 252 251 251 251 251 251 251 251 251 251 251 251 251 250 250 250 250 250 250 250 250 250 250 250 250 250 250 250 250 250 250 250 250 250 250 250 250 250 250 250 250 250 250 250 250 250 250 250 250 250 250 250 250 250 250 250 250 250 250 250 250 250 250 250 250 250 250 250 250 250 250 250 250 251 251 251 251 251 251 251 251 251 251 251 251 251 251 251 250 250 250 249 249 249 249 249 249 252 252 252 252 252 252 252 252 252 251 251 251 251 251 251 251 251 251 251 251 251 251 251 251 251 251 251 251 251 251 251 251 251 251 251 251 249 249 249 247 247 247 245 245 245 244 244 244 240 240 240 239 239 239 239 239 239 239 239 239 240 240 240 240 240 240 241 241 241 242 242 242 244 244 244 244 244 244 245 245 245 247 247 247 249 249 249 250 250 250 252 252 252 252 252 252 251 251 251 251 251 251 250 250 250 250 250 250 250 250 250 250 250 250 250 250 250 251 251 251 250 250 250 250 250 250 250 250 250 251 251 251 252 252 252 252 252 252 253 253 253 253 253 253 252 252 252 252 252 252 252 252 252 252 252 252 251 251 251 251 251 251 251 251 251 251 251 251 249 249 249 250 250 250 250 250 250 250 250 250 250 250 250 250 250 250 249 249 249 248 248 248 245 245 245 245 245 245 245 245 245 244 244 244 242 242 242 239 239 239 237 237 237 235 235 235 233 233 233 228 228 228 188 188 188 187 187 187 227 227 227 193 193 193 235 235 235 227 227 227 205 205 205 216 216 216 240 240 240 224 224 224 188 188 188 49 49 49 231 231 231 237 237 237 247 247 247 
233 233 233 229 229 229 241 241 241 252 252 252 252 252 252 252 252 252 255 255 255 255 255 255 251 251 251 251 251 251 249 249 249 242 242 242 239 239 239 231 231 231 215 215 215 134 132 134 194 192 195 213 211 214 199 197 200 220 218 221 203 201 204 78 76 79 46 44 47 151 149 152 183 181 184 150 148 151 110 108 111 140 138 141 99 97 100 86 84 87 189 187 189 211 211 211 212 212 212 214 214 214 220 220 220 226 226 226 230 230 230 231 231 231 229 229 229 227 227 227 234 234 234 233 233 233 234 234 234 231 231 231 239 239 239 232 232 232 183 183 183 147 147 147 225 225 225 191 191 191 192 192 192 208 208 208 204 204 204 208 208 208 234 234 234 234 234 234 242 242 242 240 240 240 
217 217 219 216 216 218 216 216 218 216 216 218 220 220 222 224 224 226 227 227 229 227 227 229 226 226 227 225 225 226 225 225 225 222 222 222 213 213 213 201 201 201 193 193 193 191 191 191 191 191 191 223 223 223 236 236 236 221 221 221 217 217 217 245 245 245 248 248 248 238 238 238 251 251 251 243 243 243 248 248 248 250 250 250 250 250 250 250 250 250 253 253 253 253 253 253 250 250 250 249 249 249 250 250 250 250 250 250 251 251 251 252 252 252 252 252 252 253 253 253 253 253 253 252 252 252 252 252 252 252 252 252 252 252 252 251 251 251 251 251 251 251 251 251 250 250 250 252 252 252 252 252 252 252 252 252 251 251 251 251 251 251 251 251 251 251 251 251 250 250 250 252 252 252 250 250 250 249 249 249 249 249 249 250 250 250 250 250 250 248 248 248 247 247 247 251 251 251 250 250 250 250 250 250 251 251 251 248 248 248 245 245 245 247 247 247 252 252 252 251 251 251 251 251 251 251 251 251 250 250 250 250 250 250 248 248 248 247 247 247 247 247 247 250 250 250 250 250 250 250 250 250 250 250 250 249 249 249 249 249 249 249 249 249 249 249 249 251 251 251 250 250 250 249 249 249 248 248 248 246 246 246 243 243 243 241 241 241 240 240 240 236 236 236 238 238 238 239 239 239 238 238 238 237 237 237 238 238 238 243 243 243 247 247 247 248 248 248 248 248 248 248 248 248 249 249 249 249 249 249 249 249 249 250 250 250 250 250 250 251 251 251 251 251 251 251 251 251 251 251 251 251 251 251 251 251 251 251 251 251 251 251 251 251 251 251 252 252 252 252 252 252 252 252 252 252 252 252 253 253 253 253 253 253 253 253 253 252 252 252 252 252 252 252 252 252 252 252 252 251 251 251 251 251 251 251 251 251 251 251 251 251 251 251 251 251 251 251 251 251 251 251 251 250 250 250 250 250 250 250 250 250 250 250 250 249 249 249 251 251 251 243 243 243 239 239 239 243 243 243 242 242 242 236 236 236 234 234 234 237 237 237 205 205 205 185 185 185 203 203 203 220 220 220 224 224 224 227 227 227 218 218 218 202 202 202 228 228 228 228 228 228 213 213 213 155 155 155 139 139 139 235 235 235 242 242 242 244 244 244 
246 246 246 242 242 242 238 238 238 243 243 243 254 254 254 255 255 255 247 247 247 250 250 250 251 251 251 250 250 250 249 249 249 249 249 249 241 241 241 215 215 215 189 189 189 196 196 197 230 229 232 208 207 210 224 223 226 220 219 222 202 201 204 164 163 166 119 118 121 179 178 181 195 194 197 152 151 154 128 127 130 130 129 132 154 153 156 63 62 65 149 149 150 213 213 213 213 213 213 216 216 216 216 216 216 225 225 225 229 229 229 222 222 222 231 231 231 240 240 240 225 225 225 238 238 238 235 235 235 243 243 243 234 234 234 223 223 223 204 204 204 186 186 186 211 211 211 211 211 211 201 201 201 198 198 198 210 210 210 228 228 228 217 217 217 237 237 237 236 236 236 241 241 241 
220 220 222 219 219 221 219 219 221 221 221 223 224 224 226 228 228 230 230 230 232 229 229 231 227 227 228 226 226 226 224 224 224 225 225 225 231 231 231 234 234 234 224 224 224 202 202 202 184 184 184 213 213 213 217 217 217 222 222 222 229 229 229 237 237 237 239 239 239 240 240 240 244 244 244 246 246 246 249 249 249 250 250 250 248 248 248 248 248 248 251 251 251 252 252 252 251 251 251 250 250 250 250 250 250 250 250 250 251 251 251 251 251 251 252 252 252 252 252 252 252 252 252 252 252 252 252 252 252 252 252 252 251 251 251 251 251 251 251 251 251 250 250 250 250 250 250 251 251 251 251 251 251 251 251 251 251 251 251 251 251 251 251 251 251 251 251 251 251 251 251 251 251 251 250 250 250 249 249 249 248 248 248 249 249 249 249 249 249 248 248 248 246 246 246 250 250 250 248 248 248 248 248 248 250 250 250 250 250 250 246 246 246 246 246 246 248 248 248 249 249 249 250 250 250 250 250 250 250 250 250 250 250 250 249 249 249 249 249 249 248 248 248 250 250 250 250 250 250 250 250 250 250 250 250 250 250 250 249 249 249 249 249 249 249 249 249 250 250 250 249 249 249 246 246 246 243 243 243 240 240 240 240 240 240 243 243 243 247 247 247 231 231 231 230 230 230 230 230 230 232 232 232 236 236 236 241 241 241 246 246 246 248 248 248 248 248 248 248 248 248 249 249 249 249 249 249 249 249 249 250 250 250 250 250 250 250 250 250 252 252 252 252 252 252 252 252 252 252 252 252 252 252 252 252 252 252 252 252 252 252 252 252 252 252 252 252 252 252 252 252 252 252 252 252 253 253 253 253 253 253 253 253 253 253 253 253 252 252 252 252 252 252 252 252 252 252 252 252 251 251 251 251 251 251 251 251 251 251 251 251 251 251 251 251 251 251 251 251 251 251 251 251 250 250 250 250 250 250 250 250 250 250 250 250 252 252 252 251 251 251 247 247 247 243 243 243 243 243 243 245 245 245 235 235 235 219 219 219 234 234 234 208 208 208 193 193 193 202 202 202 219 219 219 206 206 206 206 206 206 205 205 205 195 195 195 218 218 218 202 202 202 222 222 222 152 152 152 120 120 120 244 244 244 251 251 251 245 245 245 
247 247 247 244 244 244 238 238 238 242 242 242 252 252 252 254 254 254 248 248 248 250 250 250 251 251 251 250 250 250 247 247 247 245 245 245 234 234 234 206 206 206 179 179 179 148 148 149 206 206 208 222 222 224 246 246 248 191 191 193 206 206 208 185 185 187 92 92 94 159 159 161 192 192 194 187 187 189 130 130 132 152 152 154 143 143 145 90 90 92 122 122 123 213 213 213 214 214 214 220 220 220 223 223 223 226 226 226 231 231 231 231 231 231 236 236 236 231 231 231 226 226 226 237 237 237 234 234 234 232 232 232 228 228 228 224 224 224 212 212 212 166 166 166 176 176 176 174 174 174 184 184 184 207 207 207 233 233 233 236 236 236 196 196 196 224 224 224 242 242 242 240 240 240 
224 224 226 224 224 226 225 225 227 227 227 229 229 229 231 232 232 234 232 232 234 231 231 233 229 229 230 237 237 237 230 230 230 227 227 227 233 233 233 241 241 241 240 240 240 225 225 225 211 211 211 183 183 183 165 165 165 183 183 183 219 219 219 233 233 233 237 237 237 237 237 237 227 227 227 246 246 246 250 250 250 251 251 251 248 248 248 247 247 247 250 250 250 252 252 252 252 252 252 250 250 250 250 250 250 250 250 250 251 251 251 251 251 251 251 251 251 251 251 251 251 251 251 251 251 251 251 251 251 251 251 251 251 251 251 250 250 250 250 250 250 250 250 250 250 250 250 250 250 250 250 250 250 251 251 251 251 251 251 251 251 251 251 251 251 251 251 251 251 251 251 251 251 251 250 250 250 248 248 248 248 248 248 249 249 249 249 249 249 247 247 247 246 246 246 247 247 247 244 244 244 244 244 244 247 247 247 248 248 248 246 246 246 245 245 245 246 246 246 248 248 248 248 248 248 249 249 249 250 250 250 250 250 250 250 250 250 250 250 250 249 249 249 248 248 248 249 249 249 249 249 249 249 249 249 250 250 250 249 249 249 249 249 249 249 249 249 246 246 246 248 248 248 250 250 250 247 247 247 242 242 242 237 237 237 234 234 234 234 234 234 229 229 229 227 227 227 226 226 226 230 230 230 238 238 238 245 245 245 248 248 248 248 248 248 249 249 249 249 249 249 249 249 249 249 249 249 250 250 250 250 250 250 250 250 250 250 250 250 252 252 252 252 252 252 252 252 252 252 252 252 252 252 252 252 252 252 252 252 252 252 252 252 252 252 252 252 252 252 252 252 252 252 252 252 253 253 253 253 253 253 253 253 253 253 253 253 253 253 253 252 252 252 252 252 252 252 252 252 252 252 252 251 251 251 251 251 251 251 251 251 251 251 251 251 251 251 251 251 251 251 251 251 250 250 250 250 250 250 250 250 250 250 250 250 250 250 250 245 245 245 247 247 247 245 245 245 240 240 240 246 246 246 233 233 233 197 197 197 228 228 228 208 208 208 200 200 200 198 198 198 221 221 221 196 196 196 196 196 196 211 211 211 227 227 227 207 207 207 169 169 169 204 204 204 163 163 163 131 131 131 244 244 244 250 250 250 247 247 247 
249 249 249 246 246 246 239 239 239 240 240 240 248 248 248 252 252 252 250 250 250 249 249 249 252 252 252 250 250 250 247 247 247 243 243 243 232 232 232 206 206 206 180 180 180 45 45 46 159 159 161 243 243 245 229 229 231 222 222 224 236 236 238 150 150 152 36 36 38 168 168 170 205 205 207 212 212 214 164 164 166 178 178 180 149 149 151 132 132 134 118 118 119 196 196 196 198 198 198 209 209 209 221 221 221 224 224 224 229 229 229 232 232 232 226 226 226 233 233 233 234 234 234 236 236 236 238 238 238 230 230 230 230 230 230 222 222 222 205 205 205 195 195 195 197 197 197 193 193 193 197 197 197 201 201 201 212 212 212 208 208 208 162 162 162 140 140 140 206 206 206 219 219 219 
228 228 230 231 231 233 231 231 233 231 231 233 232 232 234 233 233 235 233 233 235 233 233 235 233 233 234 236 236 236 235 235 235 232 232 232 230 230 230 231 231 231 235 235 235 241 241 241 245 245 245 173 173 173 159 159 159 182 182 182 227 227 227 238 238 238 222 222 222 226 226 226 248 248 248 241 241 241 247 247 247 250 250 250 249 249 249 248 248 248 250 250 250 252 252 252 252 252 252 250 250 250 250 250 250 250 250 250 250 250 250 250 250 250 250 250 250 250 250 250 250 250 250 251 251 251 251 251 251 250 250 250 250 250 250 250 250 250 249 249 249 249 249 249 249 249 249 249 249 249 249 249 249 249 249 249 250 250 250 250 250 250 250 250 250 250 250 250 250 250 250 251 251 251 250 250 250 248 248 248 248 248 248 248 248 248 248 248 248 246 246 246 245 245 245 246 246 246 244 244 244 245 245 245 247 247 247 246 246 246 244 244 244 246 246 246 251 251 251 246 246 246 247 247 247 248 248 248 248 248 248 249 249 249 248 248 248 248 248 248 248 248 248 246 246 246 247 247 247 248 248 248 249 249 249 249 249 249 249 249 249 248 248 248 247 247 247 245 245 245 244 244 244 243 243 243 242 242 242 240 240 240 236 236 236 232 232 232 229 229 229 229 229 229 229 229 229 231 231 231 236 236 236 242 242 242 246 246 246 247 247 247 247 247 247 249 249 249 249 249 249 250 250 250 250 250 250 250 250 250 251 251 251 251 251 251 251 251 251 252 252 252 252 252 252 252 252 252 252 252 252 252 252 252 252 252 252 252 252 252 252 252 252 252 252 252 252 252 252 252 252 252 253 253 253 253 253 253 253 253 253 254 254 254 254 254 254 253 253 253 253 253 253 253 253 253 252 252 252 252 252 252 252 252 252 251 251 251 251 251 251 251 251 251 251 251 251 251 251 251 251 251 251 250 250 250 250 250 250 250 250 250 250 250 250 248 248 248 241 241 241 248 248 248 247 247 247 239 239 239 248 248 248 232 232 232 183 183 183 227 227 227 209 209 209 203 203 203 192 192 192 220 220 220 194 194 194 189 189 189 214 214 214 236 236 236 193 193 193 154 154 154 175 175 175 194 194 194 155 155 155 237 237 237 250 250 250 250 250 250 
251 251 251 247 247 247 240 240 240 239 239 239 245 245 245 251 251 251 252 252 252 250 250 250 252 252 252 251 251 251 248 248 248 246 246 246 240 240 240 220 220 220 199 199 199 113 113 114 54 54 56 212 212 214 232 232 234 230 230 232 206 206 208 149 149 151 55 55 57 136 136 138 209 209 211 207 207 209 194 194 196 171 171 173 176 176 178 171 171 173 108 108 109 182 182 182 190 190 190 204 204 204 221 221 221 226 226 226 233 233 233 245 245 245 236 236 236 240 240 240 240 240 240 234 234 234 239 239 239 230 230 230 227 227 227 213 213 213 187 187 187 209 209 209 207 207 207 210 210 210 220 220 220 211 211 211 211 211 211 223 223 223 204 204 204 173 173 173 212 212 212 186 186 186 
231 231 233 236 236 238 235 235 237 234 234 236 232 232 234 232 232 234 233 233 235 235 235 237 236 236 237 228 228 228 234 234 234 239 239 239 238 238 238 235 235 235 234 234 234 240 240 240 246 246 246 241 241 241 187 187 187 153 153 153 196 196 196 246 246 246 224 224 224 195 195 195 213 213 213 232 232 232 241 241 241 249 249 249 251 251 251 250 250 250 251 251 251 252 252 252 251 251 251 250 250 250 250 250 250 249 249 249 249 249 249 249 249 249 249 249 249 249 249 249 249 249 249 250 250 250 250 250 250 250 250 250 249 249 249 249 249 249 249 249 249 249 249 249 248 248 248 248 248 248 248 248 248 248 248 248 248 248 248 248 248 248 248 248 248 248 248 248 248 248 248 250 250 250 249 249 249 247 247 247 246 246 246 247 247 247 246 246 246 244 244 244 243 243 243 248 248 248 247 247 247 246 246 246 244 244 244 239 239 239 236 236 236 241 241 241 249 249 249 244 244 244 244 244 244 245 245 245 246 246 246 246 246 246 245 245 245 245 245 245 245 245 245 245 245 245 246 246 246 247 247 247 248 248 248 248 248 248 247 247 247 246 246 246 245 245 245 245 245 245 238 238 238 231 231 231 229 229 229 233 233 233 237 237 237 237 237 237 235 235 235 224 224 224 230 230 230 237 237 237 242 242 242 245 245 245 246 246 246 247 247 247 248 248 248 250 250 250 250 250 250 250 250 250 251 251 251 251 251 251 251 251 251 252 252 252 252 252 252 252 252 252 252 252 252 252 252 252 252 252 252 252 252 252 252 252 252 252 252 252 252 252 252 252 252 252 253 253 253 253 253 253 253 253 253 253 253 253 254 254 254 254 254 254 254 254 254 253 253 253 253 253 253 253 253 253 253 253 253 252 252 252 252 252 252 252 252 252 252 252 252 251 251 251 251 251 251 251 251 251 251 251 251 250 250 250 250 250 250 250 250 250 250 250 250 250 250 250 244 244 244 251 251 251 250 250 250 241 241 241 248 248 248 231 231 231 180 180 180 226 226 226 209 209 209 205 205 205 194 194 194 219 219 219 197 197 197 174 174 174 192 192 192 192 192 192 186 186 186 137 137 137 150 150 150 219 219 219 145 145 145 240 240 240 255 255 255 252 252 252 
251 251 251 247 247 247 242 242 242 240 240 240 244 244 244 249 249 249 252 252 252 251 251 251 253 253 253 251 251 251 247 247 247 247 247 247 246 246 246 235 235 235 220 220 220 152 152 153 88 88 90 222 222 224 233 233 235 224 224 226 219 219 221 181 181 183 42 42 44 98 98 100 210 210 212 219 219 221 213 213 215 159 159 161 191 191 193 213 213 215 121 121 122 147 147 147 180 180 180 203 203 203 224 224 224 225 225 225 225 225 225 245 245 245 244 244 244 237 237 237 241 241 241 234 234 234 235 235 235 221 221 221 206 206 206 210 210 210 192 192 192 225 225 225 209 209 209 205 205 205 222 222 222 212 212 212 195 195 195 206 206 206 207 207 207 207 207 207 232 232 232 191 191 191 
233 233 235 238 238 240 238 238 240 237 237 239 235 235 237 234 234 236 234 234 236 236 236 238 239 239 240 237 237 237 236 236 236 235 235 235 237 237 237 239 239 239 241 241 241 240 240 240 239 239 239 242 242 242 225 225 225 194 194 194 192 192 192 195 195 195 159 159 159 161 161 161 224 224 224 226 226 226 237 237 237 248 248 248 251 251 251 250 250 250 251 251 251 251 251 251 250 250 250 248 248 248 248 248 248 248 248 248 249 249 249 249 249 249 249 249 249 249 249 249 249 249 249 250 250 250 249 249 249 249 249 249 249 249 249 248 248 248 248 248 248 248 248 248 248 248 248 247 247 247 247 247 247 246 246 246 246 246 246 246 246 246 245 245 245 245 245 245 245 245 245 247 247 247 245 245 245 243 243 243 243 243 243 243 243 243 242 242 242 240 240 240 238 238 238 240 240 240 238 238 238 235 235 235 232 232 232 227 227 227 223 223 223 226 226 226 232 232 232 239 239 239 240 240 240 241 241 241 242 242 242 242 242 242 242 242 242 242 242 242 242 242 242 243 243 243 244 244 244 246 246 246 246 246 246 246 246 246 244 244 244 242 242 242 241 241 241 239 239 239 236 236 236 235 235 235 236 236 236 237 237 237 234 234 234 225 225 225 217 217 217 221 221 221 229 229 229 238 238 238 244 244 244 246 246 246 246 246 246 247 247 247 249 249 249 251 251 251 251 251 251 251 251 251 251 251 251 252 252 252 252 252 252 252 252 252 252 252 252 253 253 253 253 253 253 253 253 253 253 253 253 253 253 253 253 253 253 253 253 253 253 253 253 253 253 253 253 253 253 253 253 253 253 253 253 254 254 254 254 254 254 254 254 254 254 254 254 254 254 254 253 253 253 253 253 253 253 253 253 253 253 253 252 252 252 252 252 252 252 252 252 251 251 251 251 251 251 251 251 251 251 251 251 250 250 250 250 250 250 250 250 250 250 250 250 249 249 249 245 245 245 249 249 249 245 245 245 238 238 238 240 240 240 223 223 223 185 185 185 220 220 220 207 207 207 209 209 209 208 208 208 221 221 221 214 214 214 170 170 170 174 174 174 177 177 177 190 190 190 100 100 100 126 126 126 212 212 212 123 123 123 248 248 248 251 251 251 253 253 253 
250 250 250 246 246 246 243 243 243 243 243 243 245 245 245 249 249 249 251 251 251 251 251 251 253 253 253 250 250 250 244 244 244 244 244 244 246 246 246 240 240 240 230 230 230 199 199 200 179 179 181 180 180 182 213 213 215 202 202 204 182 182 184 153 153 155 82 82 84 140 140 142 206 206 208 221 221 223 216 216 218 157 157 159 143 143 145 223 223 225 174 174 175 111 111 111 172 172 172 204 204 204 233 233 233 240 240 240 225 225 225 235 235 235 234 234 234 234 234 234 242 242 242 244 244 244 233 233 233 213 213 213 180 180 180 217 217 217 220 220 220 203 203 203 199 199 199 197 197 197 219 219 219 215 215 215 190 190 190 202 202 202 224 224 224 216 216 216 206 206 206 160 160 160 
236 236 238 237 237 239 240 240 242 241 241 243 241 241 243 239 239 241 237 237 239 237 237 239 239 239 240 241 241 241 236 236 236 231 231 231 231 231 231 236 236 236 242 242 242 244 244 244 244 244 244 251 251 251 246 246 246 226 226 226 206 206 206 189 189 189 174 174 174 190 190 190 231 231 231 225 225 225 236 236 236 246 246 246 248 248 248 247 247 247 248 248 248 249 249 249 249 249 249 247 247 247 247 247 247 247 247 247 248 248 248 248 248 248 249 249 249 249 249 249 249 249 249 249 249 249 249 249 249 249 249 249 248 248 248 248 248 248 248 248 248 247 247 247 247 247 247 246 246 246 246 246 246 245 245 245 244 244 244 243 243 243 242 242 242 242 242 242 241 241 241 242 242 242 240 240 240 238 238 238 238 238 238 237 237 237 237 237 237 235 235 235 233 233 233 229 229 229 224 224 224 221 221 221 223 223 223 224 224 224 222 222 222 220 220 220 220 220 220 232 232 232 233 233 233 235 235 235 237 237 237 239 239 239 241 241 241 242 242 242 242 242 242 242 242 242 243 243 243 244 244 244 245 245 245 244 244 244 242 242 242 239 239 239 237 237 237 234 234 234 237 237 237 240 240 240 240 240 240 235 235 235 226 226 226 216 216 216 210 210 210 231 231 231 234 234 234 239 239 239 244 244 244 247 247 247 248 248 248 249 249 249 249 249 249 251 251 251 251 251 251 251 251 251 252 252 252 252 252 252 252 252 252 253 253 253 253 253 253 253 253 253 253 253 253 253 253 253 253 253 253 253 253 253 253 253 253 253 253 253 253 253 253 253 253 253 253 253 253 253 253 253 254 254 254 254 254 254 254 254 254 255 255 255 255 255 255 254 254 254 254 254 254 253 253 253 253 253 253 253 253 253 253 253 253 252 252 252 252 252 252 251 251 251 251 251 251 251 251 251 251 251 251 250 250 250 250 250 250 250 250 250 250 250 250 245 245 245 246 246 246 245 245 245 242 242 242 240 240 240 237 237 237 222 222 222 203 203 203 222 222 222 210 210 210 212 212 212 218 218 218 211 211 211 226 226 226 171 171 171 164 164 164 181 181 181 169 169 169 106 106 106 144 144 144 199 199 199 136 136 136 234 234 234 249 249 249 254 254 254 
249 249 249 244 244 244 244 244 244 246 246 246 248 248 248 249 249 249 249 249 249 247 247 247 250 250 250 248 248 248 242 242 242 241 241 241 244 244 244 239 239 239 231 231 231 188 188 189 195 195 197 178 178 180 192 192 194 159 159 161 173 173 175 126 126 128 57 57 59 187 187 189 193 193 195 195 195 197 193 193 195 145 145 147 104 104 106 214 214 216 200 200 201 143 143 143 186 186 186 176 176 176 201 201 201 240 240 240 239 239 239 243 243 243 236 236 236 240 240 240 240 240 240 247 247 247 231 231 231 218 218 218 163 163 163 214 214 214 220 220 220 201 201 201 204 204 204 187 187 187 198 198 198 209 209 209 188 188 188 188 188 188 208 208 208 213 213 213 221 221 221 209 209 209 
238 238 240 236 236 238 240 240 242 245 245 247 246 246 248 243 243 245 240 240 242 238 238 240 238 238 239 224 224 224 229 229 229 234 234 234 237 237 237 239 239 239 241 241 241 245 245 245 249 249 249 246 246 246 248 248 248 247 247 247 224 224 224 196 196 196 201 201 201 223 223 223 227 227 227 227 227 227 237 237 237 245 245 245 246 246 246 244 244 244 245 245 245 248 248 248 249 249 249 246 246 246 246 246 246 247 247 247 248 248 248 248 248 248 249 249 249 250 250 250 250 250 250 249 249 249 249 249 249 248 248 248 248 248 248 248 248 248 247 247 247 247 247 247 247 247 247 246 246 246 245 245 245 244 244 244 243 243 243 242 242 242 241 241 241 240 240 240 239 239 239 238 238 238 237 237 237 235 235 235 234 234 234 234 234 234 233 233 233 231 231 231 229 229 229 225 225 225 218 218 218 216 216 216 224 224 224 234 234 234 234 234 234 228 228 228 223 223 223 227 227 227 229 229 229 231 231 231 235 235 235 238 238 238 240 240 240 242 242 242 243 243 243 241 241 241 242 242 242 244 244 244 244 244 244 243 243 243 240 240 240 237 237 237 235 235 235 237 237 237 236 236 236 232 232 232 223 223 223 217 217 217 218 218 218 228 228 228 238 238 238 245 245 245 243 243 243 242 242 242 244 244 244 249 249 249 251 251 251 250 250 250 248 248 248 251 251 251 251 251 251 252 252 252 252 252 252 252 252 252 253 253 253 253 253 253 253 253 253 253 253 253 253 253 253 253 253 253 253 253 253 253 253 253 253 253 253 253 253 253 253 253 253 253 253 253 253 253 253 254 254 254 254 254 254 254 254 254 254 254 254 255 255 255 255 255 255 254 254 254 254 254 254 254 254 254 253 253 253 253 253 253 253 253 253 252 252 252 252 252 252 251 251 251 251 251 251 251 251 251 251 251 251 250 250 250 250 250 250 250 250 250 250 250 250 246 246 246 250 250 250 247 247 247 245 245 245 249 249 249 244 244 244 232 232 232 227 227 227 234 234 234 220 220 220 214 214 214 216 216 216 191 191 191 219 219 219 162 162 162 151 151 151 155 155 155 128 128 128 157 157 157 200 200 200 200 200 200 169 169 169 208 208 208 255 255 255 254 254 254 
248 248 248 243 243 243 244 244 244 248 248 248 249 249 249 249 249 249 248 248 248 243 243 243 247 247 247 247 247 247 242 242 242 241 241 241 243 243 243 240 240 240 232 232 232 217 217 218 193 193 195 146 146 148 121 121 123 166 166 168 153 153 155 52 52 54 125 125 127 186 186 188 200 200 202 190 190 192 181 181 183 143 143 145 140 140 142 235 235 237 193 193 194 197 197 197 190 190 190 112 112 112 118 118 118 195 195 195 229 229 229 245 245 245 241 241 241 246 246 246 233 233 233 239 239 239 225 225 225 226 226 226 155 155 155 199 199 199 192 192 192 132 132 132 128 128 128 95 95 95 121 121 121 187 187 187 204 204 204 197 197 197 199 199 199 229 229 229 232 232 232 224 224 224 
241 241 243 244 244 246 243 243 245 243 243 245 243 243 245 242 242 244 242 242 244 242 242 244 242 242 243 232 232 232 232 232 232 233 233 233 237 237 237 242 242 242 246 246 246 249 249 249 249 249 249 254 254 254 250 250 250 251 251 251 246 246 246 220 220 220 192 192 192 198 198 198 224 224 224 228 228 228 221 221 221 234 234 234 249 249 249 248 248 248 250 250 250 255 255 255 249 249 249 244 244 244 247 247 247 243 243 243 241 241 241 248 248 248 248 248 248 244 244 244 248 248 248 248 248 248 248 248 248 249 249 249 250 250 250 248 248 248 244 244 244 244 244 244 245 245 245 244 244 244 244 244 244 240 240 240 234 234 234 235 235 235 240 240 240 237 237 237 229 229 229 230 230 230 227 227 227 223 223 223 222 222 222 224 224 224 219 219 219 201 201 201 184 184 184 184 184 184 194 194 194 199 199 199 209 209 209 228 228 228 236 236 236 233 233 233 232 232 232 237 237 237 237 237 237 237 237 237 236 236 236 236 236 236 235 235 235 235 235 235 235 235 235 236 236 236 239 239 239 240 240 240 239 239 239 236 236 236 233 233 233 232 232 232 233 233 233 228 228 228 240 240 240 232 232 232 207 207 207 205 205 205 230 230 230 247 247 247 244 244 244 246 246 246 246 246 246 247 247 247 248 248 248 249 249 249 250 250 250 251 251 251 252 252 252 252 252 252 252 252 252 252 252 252 252 252 252 252 252 252 252 252 252 252 252 252 252 252 252 254 254 254 254 254 254 254 254 254 254 254 254 254 254 254 254 254 254 254 254 254 254 254 254 254 254 254 254 254 254 254 254 254 254 254 254 254 254 254 254 254 254 254 254 254 254 254 254 254 254 254 254 254 254 254 254 254 254 254 254 254 254 254 254 254 254 254 254 254 254 254 254 253 253 253 253 253 253 252 252 252 252 252 252 251 251 251 250 250 250 250 250 250 250 250 250 248 248 248 242 242 242 255 255 255 241 241 241 245 245 245 244 244 244 237 237 237 196 196 196 228 228 228 230 230 230 212 212 212 221 221 221 164 164 164 208 208 208 176 176 176 121 121 121 78 78 78 88 88 88 179 179 179 222 222 222 217 217 217 181 181 181 221 221 221 255 255 255 250 250 250 251 251 251 
253 253 253 254 254 254 254 254 254 252 252 252 249 249 249 248 248 248 238 238 238 248 248 248 246 246 246 240 240 240 239 239 239 236 236 236 235 235 235 242 242 242 219 219 220 190 190 192 139 139 141 53 53 55 142 142 144 155 155 157 44 44 46 65 65 67 162 162 164 190 190 192 192 192 194 184 184 186 174 174 176 216 216 218 226 226 228 218 218 219 216 216 216 217 217 217 227 227 227 117 117 117 155 155 155 221 221 221 232 232 232 243 243 243 246 246 246 229 229 229 123 123 123 186 186 186 247 247 247 215 215 215 197 197 197 179 179 179 72 72 72 215 215 215 241 241 241 202 202 202 179 179 179 170 170 170 195 195 195 203 203 203 235 235 235 234 234 234 218 218 218 
242 242 244 244 244 246 244 244 246 244 244 246 243 243 245 243 243 245 243 243 245 242 242 244 242 242 243 239 239 239 236 236 236 234 234 234 235 235 235 239 239 239 244 244 244 248 248 248 250 250 250 247 247 247 247 247 247 251 251 251 255 255 255 247 247 247 217 217 217 178 178 178 150 150 150 212 212 212 229 229 229 233 233 233 231 231 231 239 239 239 243 243 243 243 243 243 249 249 249 248 248 248 248 248 248 240 240 240 238 238 238 247 247 247 247 247 247 241 241 241 243 243 243 241 241 241 240 240 240 241 241 241 243 243 243 245 245 245 244 244 244 241 241 241 240 240 240 238 238 238 244 244 244 242 242 242 231 231 231 227 227 227 232 232 232 235 235 235 233 233 233 217 217 217 217 217 217 217 217 217 216 216 216 216 216 216 209 209 209 191 191 191 175 175 175 180 180 180 199 199 199 212 212 212 223 223 223 237 237 237 239 239 239 233 233 233 232 232 232 237 237 237 237 237 237 236 236 236 234 234 234 233 233 233 232 232 232 231 231 231 230 230 230 233 233 233 236 236 236 239 239 239 240 240 240 239 239 239 238 238 238 239 239 239 241 241 241 233 233 233 223 223 223 204 204 204 195 195 195 210 210 210 235 235 235 246 246 246 240 240 240 247 247 247 248 248 248 248 248 248 249 249 249 251 251 251 252 252 252 252 252 252 253 253 253 252 252 252 252 252 252 252 252 252 252 252 252 252 252 252 252 252 252 252 252 252 252 252 252 254 254 254 254 254 254 254 254 254 254 254 254 254 254 254 254 254 254 254 254 254 254 254 254 254 254 254 254 254 254 254 254 254 254 254 254 254 254 254 254 254 254 254 254 254 254 254 254 254 254 254 254 254 254 254 254 254 254 254 254 254 254 254 254 254 254 254 254 254 254 254 254 253 253 253 253 253 253 252 252 252 252 252 252 251 251 251 250 250 250 250 250 250 250 250 250 252 252 252 255 255 255 247 247 247 238 238 238 255 255 255 230 230 230 222 222 222 193 193 193 234 234 234 247 247 247 198 198 198 230 230 230 152 152 152 160 160 160 138 138 138 141 141 141 139 139 139 180 180 180 184 184 184 224 224 224 214 214 214 161 161 161 244 244 244 236 236 236 250 250 250 
251 251 251 253 253 253 254 254 254 254 254 254 252 252 252 250 250 250 248 248 248 231 231 231 238 238 238 233 233 233 237 237 237 239 239 239 244 244 244 236 236 236 242 242 242 215 215 216 188 188 190 141 141 143 44 44 46 99 99 101 158 158 160 102 102 104 82 82 84 140 140 142 191 191 193 186 186 188 188 188 190 176 176 178 231 231 233 235 235 237 192 192 193 232 232 232 244 244 244 246 246 246 206 206 206 194 194 194 233 233 233 247 247 247 248 248 248 242 242 242 231 231 231 75 75 75 242 242 242 208 208 208 201 201 201 212 212 212 73 73 73 156 156 156 231 231 231 240 240 240 243 243 243 225 225 225 154 154 154 127 127 127 131 131 131 203 203 203 213 213 213 194 194 194 
244 244 246 245 245 247 245 245 247 244 244 246 244 244 246 244 244 246 243 243 245 243 243 245 243 243 244 246 246 246 241 241 241 235 235 235 233 233 233 236 236 236 241 241 241 247 247 247 250 250 250 248 248 248 249 249 249 248 248 248 250 250 250 255 255 255 247 247 247 199 199 199 148 148 148 181 181 181 221 221 221 228 228 228 222 222 222 238 238 238 243 243 243 239 239 239 251 251 251 251 251 251 248 248 248 238 238 238 235 235 235 244 244 244 244 244 244 237 237 237 237 237 237 241 241 241 240 240 240 240 240 240 242 242 242 244 244 244 245 245 245 242 242 242 238 238 238 241 241 241 235 235 235 227 227 227 224 224 224 228 228 228 227 227 227 214 214 214 199 199 199 200 200 200 207 207 207 214 214 214 219 219 219 222 222 222 218 218 218 206 206 206 194 194 194 211 211 211 227 227 227 233 233 233 232 232 232 235 235 235 235 235 235 235 235 235 242 242 242 240 240 240 239 239 239 238 238 238 236 236 236 234 234 234 232 232 232 230 230 230 229 229 229 228 228 228 230 230 230 232 232 232 232 232 232 231 231 231 230 230 230 231 231 231 231 231 231 232 232 232 216 216 216 202 202 202 207 207 207 226 226 226 243 243 243 248 248 248 245 245 245 249 249 249 249 249 249 250 250 250 251 251 251 252 252 252 252 252 252 253 253 253 253 253 253 253 253 253 253 253 253 253 253 253 253 253 253 253 253 253 253 253 253 253 253 253 253 253 253 254 254 254 254 254 254 254 254 254 254 254 254 254 254 254 254 254 254 254 254 254 254 254 254 254 254 254 254 254 254 254 254 254 254 254 254 254 254 254 254 254 254 254 254 254 254 254 254 254 254 254 254 254 254 254 254 254 254 254 254 254 254 254 254 254 254 254 254 254 254 254 254 253 253 253 253 253 253 252 252 252 252 252 252 251 251 251 250 250 250 250 250 250 250 250 250 251 251 251 239 239 239 252 252 252 248 248 248 242 242 242 253 253 253 254 254 254 79 79 79 245 245 245 226 226 226 207 207 207 230 230 230 198 198 198 72 72 72 126 126 126 186 186 186 219 219 219 208 208 208 216 216 216 219 219 219 203 203 203 163 163 163 208 208 208 255 255 255 250 250 250 251 251 251 
253 253 253 254 254 254 254 254 254 252 252 252 250 250 250 249 249 249 232 232 232 235 235 235 221 221 221 234 234 234 237 237 237 249 249 249 234 234 234 238 238 238 213 213 214 190 190 192 196 196 198 164 164 166 177 177 179 206 206 208 164 164 166 95 95 97 87 87 89 150 150 152 195 195 197 187 187 189 92 92 94 223 223 225 191 191 193 224 224 225 242 242 242 245 245 245 237 237 237 241 241 241 202 202 202 201 201 201 241 241 241 240 240 240 245 245 245 182 182 182 112 112 112 148 148 148 155 155 155 197 197 197 246 246 246 130 130 130 212 212 212 255 255 255 241 241 241 241 241 241 253 253 253 226 226 226 213 213 213 212 212 212 121 121 121 128 128 128 156 156 156 
246 246 248 246 246 248 245 245 247 245 245 247 245 245 247 245 245 247 244 244 246 244 244 246 244 244 245 246 246 246 241 241 241 235 235 235 233 233 233 234 234 234 239 239 239 244 244 244 247 247 247 249 249 249 253 253 253 249 249 249 243 243 243 251 251 251 255 255 255 240 240 240 211 211 211 177 177 177 206 206 206 224 224 224 227 227 227 235 235 235 240 240 240 242 242 242 247 247 247 250 250 250 249 249 249 240 240 240 235 235 235 240 240 240 238 238 238 233 233 233 236 236 236 243 243 243 244 244 244 243 243 243 241 241 241 240 240 240 241 241 241 240 240 240 238 238 238 240 240 240 227 227 227 222 222 222 227 227 227 223 223 223 203 203 203 182 182 182 172 172 172 202 202 202 212 212 212 223 223 223 229 229 229 233 233 233 233 233 233 228 228 228 222 222 222 231 231 231 243 243 243 242 242 242 234 234 234 235 235 235 235 235 235 238 238 238 248 248 248 245 245 245 244 244 244 243 243 243 241 241 241 239 239 239 237 237 237 236 236 236 235 235 235 231 231 231 231 231 231 229 229 229 225 225 225 221 221 221 218 218 218 216 216 216 214 214 214 215 215 215 220 220 220 228 228 228 236 236 236 241 241 241 244 244 244 248 248 248 251 251 251 249 249 249 249 249 249 250 250 250 251 251 251 251 251 251 252 252 252 253 253 253 253 253 253 253 253 253 253 253 253 253 253 253 253 253 253 253 253 253 253 253 253 253 253 253 253 253 253 254 254 254 254 254 254 254 254 254 254 254 254 254 254 254 254 254 254 254 254 254 254 254 254 254 254 254 254 254 254 254 254 254 254 254 254 254 254 254 254 254 254 254 254 254 254 254 254 254 254 254 254 254 254 254 254 254 254 254 254 254 254 254 254 254 254 254 254 254 254 254 254 253 253 253 253 253 253 252 252 252 252 252 252 251 251 251 250 250 250 250 250 250 250 250 250 249 249 249 255 255 255 247 247 247 244 244 244 242 242 242 223 223 223 224 224 224 95 95 95 214 214 214 209 209 209 229 229 229 225 225 225 210 210 210 49 49 49 161 161 161 211 211 211 198 198 198 219 219 219 220 220 220 191 191 191 179 179 179 162 162 162 213 213 213 244 244 244 251 251 251 252 252 252 
253 253 253 254 254 254 254 254 254 253 253 253 251 251 251 250 250 250 243 243 243 243 243 243 221 221 221 232 232 232 230 230 230 242 242 242 227 227 227 234 234 234 220 220 221 194 194 196 205 205 207 213 213 215 203 203 205 209 209 211 185 185 187 104 104 106 109 109 111 120 120 122 170 170 172 76 76 78 210 210 212 234 234 236 183 183 185 233 233 234 254 254 254 243 243 243 239 239 239 233 233 233 218 218 218 185 185 185 231 231 231 237 237 237 236 236 236 247 247 247 170 170 170 107 107 107 67 67 67 222 222 222 233 233 233 90 90 90 178 178 178 239 239 239 235 235 235 220 220 220 239 239 239 251 251 251 251 251 251 238 238 238 245 245 245 227 227 227 220 220 220 
247 247 249 247 247 249 247 247 249 246 246 248 246 246 248 246 246 248 245 245 247 245 245 247 245 245 246 243 243 243 239 239 239 235 235 235 233 233 233 235 235 235 238 238 238 241 241 241 242 242 242 245 245 245 252 252 252 254 254 254 251 251 251 250 250 250 252 252 252 249 249 249 242 242 242 208 208 208 195 195 195 209 209 209 217 217 217 202 202 202 214 214 214 238 238 238 235 235 235 245 245 245 250 250 250 244 244 244 238 238 238 237 237 237 233 233 233 231 231 231 238 238 238 239 239 239 243 243 243 243 243 243 237 237 237 233 233 233 234 234 234 236 236 236 235 235 235 228 228 228 223 223 223 226 226 226 225 225 225 199 199 199 168 168 168 171 171 171 197 197 197 221 221 221 229 229 229 235 235 235 236 236 236 235 235 235 234 234 234 232 232 232 229 229 229 220 220 220 233 233 233 237 237 237 238 238 238 244 244 244 244 244 244 240 240 240 242 242 242 246 246 246 246 246 246 245 245 245 244 244 244 243 243 243 242 242 242 242 242 242 241 241 241 240 240 240 238 238 238 234 234 234 230 230 230 226 226 226 223 223 223 219 219 219 217 217 217 199 199 199 222 222 222 242 242 242 245 245 245 241 241 241 244 244 244 248 248 248 249 249 249 249 249 249 249 249 249 249 249 249 250 250 250 250 250 250 251 251 251 251 251 251 252 252 252 253 253 253 253 253 253 253 253 253 253 253 253 253 253 253 253 253 253 253 253 253 253 253 253 254 254 254 254 254 254 254 254 254 254 254 254 254 254 254 254 254 254 254 254 254 254 254 254 254 254 254 254 254 254 254 254 254 254 254 254 254 254 254 254 254 254 254 254 254 254 254 254 254 254 254 254 254 254 254 254 254 254 254 254 254 254 254 254 254 254 254 254 254 254 254 254 253 253 253 253 253 253 252 252 252 252 252 252 251 251 251 250 250 250 250 250 250 250 250 250 249 249 249 255 255 255 246 246 246 249 249 249 251 251 251 232 232 232 206 206 206 101 101 101 160 160 160 230 230 230 232 232 232 225 225 225 139 139 139 117 117 117 201 201 201 198 198 198 221 221 221 172 172 172 215 215 215 198 198 198 196 196 196 149 149 149 158 158 158 240 240 240 251 251 251 
252 252 252 253 253 253 253 253 253 254 254 254 253 253 253 252 252 252 252 252 252 252 252 252 249 249 249 227 227 227 228 228 228 221 221 221 225 225 225 219 219 219 233 233 233 246 246 247 233 233 235 216 216 218 214 214 216 204 204 206 225 225 227 219 219 221 142 142 144 107 107 109 135 135 137 131 131 133 193 193 195 215 215 217 229 229 231 204 204 206 246 246 247 250 250 250 247 247 247 249 249 249 234 234 234 240 240 240 216 216 216 214 214 214 231 231 231 230 230 230 240 240 240 233 233 233 189 189 189 76 76 76 210 210 210 229 229 229 184 184 184 199 199 199 241 241 241 246 246 246 240 240 240 245 245 245 237 237 237 231 231 231 235 235 235 223 223 223 240 240 240 242 242 242 
248 248 250 248 248 250 247 247 249 247 247 249 247 247 249 247 247 249 246 246 248 246 246 248 246 246 247 242 242 242 239 239 239 236 236 236 234 234 234 235 235 235 236 236 236 237 237 237 237 237 237 245 245 245 247 247 247 250 250 250 253 253 253 253 253 253 250 250 250 248 248 248 247 247 247 228 228 228 186 186 186 185 185 185 186 186 186 162 162 162 186 186 186 231 231 231 232 232 232 240 240 240 249 249 249 247 247 247 241 241 241 238 238 238 232 232 232 232 232 232 241 241 241 236 236 236 242 242 242 242 242 242 236 236 236 232 232 232 233 233 233 232 232 232 227 227 227 216 216 216 210 210 210 208 208 208 203 203 203 183 183 183 171 171 171 194 194 194 229 229 229 235 235 235 240 240 240 242 242 242 239 239 239 236 236 236 236 236 236 235 235 235 234 234 234 231 231 231 239 239 239 237 237 237 235 235 235 243 243 243 246 246 246 243 243 243 245 245 245 246 246 246 245 245 245 245 245 245 245 245 245 245 245 245 244 244 244 244 244 244 244 244 244 243 243 243 241 241 241 238 238 238 237 237 237 236 236 236 236 236 236 234 234 234 233 233 233 210 210 210 223 223 223 235 235 235 238 238 238 242 242 242 250 250 250 252 252 252 249 249 249 249 249 249 249 249 249 249 249 249 250 250 250 250 250 250 251 251 251 251 251 251 251 251 251 254 254 254 254 254 254 254 254 254 254 254 254 254 254 254 254 254 254 254 254 254 254 254 254 254 254 254 254 254 254 254 254 254 254 254 254 254 254 254 254 254 254 254 254 254 254 254 254 254 254 254 254 254 254 254 254 254 254 254 254 254 254 254 254 254 254 254 254 254 254 254 254 254 254 254 254 254 254 254 254 254 254 254 254 254 254 254 254 254 254 254 254 254 254 254 254 253 253 253 253 253 253 252 252 252 252 252 252 251 251 251 250 250 250 250 250 250 250 250 250 251 251 251 242 242 242 242 242 242 251 251 251 246 246 246 252 252 252 175 175 175 74 74 74 162 162 162 234 234 234 224 224 224 222 222 222 114 114 114 171 171 171 208 208 208 188 188 188 182 182 182 43 43 43 143 143 143 180 180 180 209 209 209 120 120 120 119 119 119 255 255 255 252 252 252 252 252 252 
253 253 253 253 253 253 253 253 253 253 253 253 253 253 253 253 253 253 252 252 252 246 246 246 233 233 233 221 221 221 218 218 218 211 211 211 220 220 220 239 239 239 237 237 238 226 226 228 209 209 211 229 229 231 222 222 224 227 227 229 212 212 214 154 154 156 138 138 140 141 141 143 144 144 146 222 222 224 242 242 244 233 233 235 205 205 207 248 248 249 243 243 243 251 251 251 243 243 243 236 236 236 229 229 229 248 248 248 204 204 204 233 233 233 254 254 254 235 235 235 214 214 214 84 84 84 123 123 123 218 218 218 239 239 239 160 160 160 221 221 221 236 236 236 234 234 234 229 229 229 235 235 235 233 233 233 231 231 231 243 243 243 253 253 253 242 242 242 237 237 237 
248 248 250 248 248 250 248 248 250 248 248 250 248 248 250 247 247 249 247 247 249 247 247 249 247 247 248 246 246 246 243 243 243 238 238 238 235 235 235 234 234 234 235 235 235 235 235 235 234 234 234 239 239 239 243 243 243 246 246 246 248 248 248 251 251 251 253 253 253 252 252 252 249 249 249 230 230 230 202 202 202 193 193 193 183 183 183 167 167 167 192 192 192 230 230 230 234 234 234 238 238 238 247 247 247 247 247 247 242 242 242 242 242 242 237 237 237 234 234 234 242 242 242 239 239 239 242 242 242 241 241 241 235 235 235 233 233 233 232 232 232 221 221 221 207 207 207 197 197 197 203 203 203 204 204 204 200 200 200 201 201 201 213 213 213 229 229 229 238 238 238 239 239 239 243 243 243 244 244 244 241 241 241 240 240 240 242 242 242 242 242 242 241 241 241 249 249 249 252 252 252 244 244 244 236 236 236 241 241 241 245 245 245 245 245 245 250 250 250 247 247 247 247 247 247 246 246 246 246 246 246 246 246 246 246 246 246 245 245 245 245 245 245 244 244 244 241 241 241 239 239 239 239 239 239 241 241 241 242 242 242 242 242 242 240 240 240 232 232 232 229 229 229 231 231 231 241 241 241 251 251 251 254 254 254 253 253 253 253 253 253 250 250 250 250 250 250 251 251 251 251 251 251 251 251 251 251 251 251 252 252 252 252 252 252 254 254 254 254 254 254 254 254 254 254 254 254 254 254 254 254 254 254 254 254 254 254 254 254 254 254 254 254 254 254 254 254 254 254 254 254 254 254 254 254 254 254 254 254 254 254 254 254 254 254 254 254 254 254 254 254 254 254 254 254 254 254 254 254 254 254 254 254 254 254 254 254 254 254 254 254 254 254 254 254 254 254 254 254 254 254 254 254 254 254 254 254 254 254 254 254 253 253 253 253 253 253 252 252 252 252 252 252 251 251 251 250 250 250 250 250 250 250 250 250 249 249 249 255 255 255 236 236 236 237 237 237 249 249 249 210 210 210 94 94 94 184 184 184 198 198 198 211 211 211 221 221 221 212 212 212 163 163 163 189 189 189 188 188 188 185 185 185 186 186 186 153 153 153 180 180 180 198 198 198 207 207 207 83 83 83 194 194 194 240 240 240 252 252 252 252 252 252 
252 252 252 253 253 253 253 253 253 254 254 254 254 254 254 254 254 254 252 252 252 243 243 243 241 241 241 218 218 218 225 225 225 207 207 207 228 228 228 247 247 247 250 250 251 224 224 226 212 212 214 240 240 242 222 222 224 226 226 228 215 215 217 173 173 175 183 183 185 125 125 127 199 199 201 218 218 220 232 232 234 241 241 243 243 243 245 245 245 246 251 251 251 255 255 255 248 248 248 242 242 242 219 219 219 253 253 253 227 227 227 247 247 247 232 232 232 240 240 240 121 121 121 136 136 136 210 210 210 200 200 200 232 232 232 192 192 192 228 228 228 243 243 243 247 247 247 240 240 240 247 247 247 250 250 250 238 238 238 237 237 237 233 233 233 241 241 241 242 242 242 
248 248 249 249 249 250 249 249 250 248 248 249 248 248 249 248 248 249 247 247 248 247 247 248 247 247 248 251 251 251 246 246 246 240 240 240 235 235 235 233 233 233 233 233 233 234 234 234 234 234 234 223 223 223 240 240 240 252 252 252 251 251 251 250 250 250 252 252 252 249 249 249 241 241 241 236 236 236 238 238 238 230 230 230 211 211 211 203 203 203 217 217 217 232 232 232 233 233 233 238 238 238 245 245 245 244 244 244 243 243 243 246 246 246 241 241 241 237 237 237 241 241 241 239 239 239 240 240 240 236 236 236 231 231 231 231 231 231 227 227 227 206 206 206 182 182 182 172 172 172 209 209 209 234 234 234 228 228 228 227 227 227 244 244 244 251 251 251 243 243 243 243 243 243 245 245 245 245 245 245 242 242 242 240 240 240 241 241 241 240 240 240 237 237 237 236 236 236 247 247 247 247 247 247 245 245 245 249 249 249 249 249 249 244 244 244 247 247 247 250 250 250 249 249 249 249 249 249 248 248 248 248 248 248 247 247 247 247 247 247 246 246 246 249 249 249 246 246 246 242 242 242 241 241 241 242 242 242 243 243 243 242 242 242 240 240 240 244 244 244 233 233 233 236 236 236 252 252 252 255 255 255 248 248 248 246 246 246 254 254 254 252 252 252 252 252 252 252 252 252 252 252 252 252 252 252 253 253 253 253 253 253 253 253 253 254 254 254 254 254 254 254 254 254 254 254 254 254 254 254 254 254 254 254 254 254 254 254 254 254 254 254 254 254 254 254 254 254 254 254 254 254 254 254 254 254 254 254 254 254 254 254 254 254 254 254 254 254 254 254 254 254 254 254 254 254 254 254 254 254 254 254 254 254 254 254 254 254 254 254 254 254 254 254 254 254 254 254 254 254 254 254 254 254 254 254 254 254 254 254 254 253 253 253 253 253 253 252 252 252 252 252 252 251 251 251 250 250 250 250 250 250 250 250 250 241 241 241 253 253 253 253 253 253 249 249 249 241 241 241 236 236 236 115 115 115 227 227 227 207 207 207 202 202 202 217 217 217 203 203 203 193 193 193 212 212 212 167 167 167 173 173 173 179 179 179 204 204 204 232 232 232 197 197 197 185 185 185 76 76 76 238 238 238 249 249 249 252 252 252 
252 252 252 252 252 252 253 253 253 253 253 253 254 254 254 254 254 254 254 254 254 254 254 254 243 243 243 248 248 248 219 219 219 235 235 235 209 209 209 236 236 236 252 252 252 242 242 243 231 231 232 229 229 230 230 230 231 195 195 196 230 230 231 224 224 225 156 156 157 152 152 153 167 167 168 184 184 185 202 202 203 227 227 228 246 246 247 242 242 243 239 239 240 245 245 245 240 240 240 255 255 255 243 243 243 221 221 221 235 235 235 244 244 244 239 239 239 242 242 242 179 179 179 106 106 106 212 212 212 226 226 226 218 218 218 198 198 198 213 213 213 237 237 237 233 233 233 235 235 235 236 236 236 238 238 238 232 232 232 228 228 228 247 247 247 236 236 236 239 239 239 243 243 243 
250 250 250 250 250 250 249 249 249 249 249 249 249 249 249 249 249 249 248 248 248 248 248 248 248 248 248 249 249 249 249 249 249 246 246 246 250 250 250 242 242 242 236 236 236 241 241 241 230 230 230 227 227 227 242 242 242 254 254 254 254 254 254 249 249 249 248 248 248 247 247 247 244 244 244 237 237 237 240 240 240 238 238 238 226 226 226 213 213 213 210 210 210 221 221 221 234 234 234 217 217 217 228 228 228 240 240 240 245 245 245 244 244 244 240 240 240 235 235 235 232 232 232 228 228 228 235 235 235 231 231 231 230 230 230 235 235 235 220 220 220 182 182 182 152 152 152 181 181 181 197 197 197 219 219 219 234 234 234 240 240 240 242 242 242 246 246 246 250 250 250 247 247 247 246 246 246 245 245 245 244 244 244 243 243 243 243 243 243 243 243 243 244 244 244 242 242 242 246 246 246 248 248 248 247 247 247 243 243 243 242 242 242 245 245 245 248 248 248 250 250 250 250 250 250 250 250 250 250 250 250 250 250 250 250 250 250 250 250 250 250 250 250 247 247 247 247 247 247 247 247 247 246 246 246 246 246 246 246 246 246 245 245 245 245 245 245 237 237 237 241 241 241 246 246 246 250 250 250 251 251 251 252 252 252 253 253 253 253 253 253 253 253 253 253 253 253 253 253 253 253 253 253 253 253 253 253 253 253 253 253 253 253 253 253 253 253 253 253 253 253 253 253 253 253 253 253 253 253 253 253 253 253 253 253 253 253 253 253 254 254 254 254 254 254 254 254 254 254 254 254 254 254 254 254 254 254 254 254 254 254 254 254 254 254 254 254 254 254 254 254 254 254 254 254 254 254 254 254 254 254 254 254 254 254 254 254 255 255 255 255 255 255 255 255 255 255 255 255 255 255 255 255 255 255 255 255 255 255 255 255 252 252 252 250 250 250 251 251 251 255 255 255 255 255 255 251 251 251 255 255 255 247 247 247 252 252 252 243 243 243 250 250 250 254 254 254 236 236 236 231 231 231 110 110 110 210 210 210 199 198 198 204 202 203 194 192 193 225 223 224 202 200 201 178 176 177 177 175 176 170 168 169 194 192 193 231 229 230 205 203 204 196 194 195 139 137 138 124 122 123 252 250 251 249 248 248 252 252 252 
252 252 252 253 253 253 254 254 254 254 254 254 254 254 254 254 254 254 253 253 253 252 252 252 251 251 251 248 248 248 233 233 233 210 210 210 225 225 225 252 252 252 238 238 238 229 229 229 230 230 230 223 223 223 227 227 227 218 218 218 203 203 203 208 208 208 203 203 203 145 145 145 179 179 179 145 145 145 158 158 158 231 231 231 242 242 242 237 237 237 255 255 255 248 248 248 249 249 249 249 249 249 237 237 237 219 219 219 222 222 222 237 237 237 243 243 243 239 239 239 89 89 89 182 182 182 241 241 241 202 202 202 209 209 209 205 205 205 176 176 176 237 237 237 237 237 237 237 237 237 237 237 237 238 238 238 238 238 238 238 238 238 238 238 238 239 239 239 239 239 239 239 239 239 
250 250 250 250 250 250 250 250 250 249 249 249 249 249 249 249 249 249 248 248 248 248 248 248 248 248 248 250 250 250 248 248 248 249 249 249 248 248 248 245 245 245 236 236 236 227 227 227 228 228 228 237 237 237 243 243 243 252 252 252 255 255 255 255 255 255 249 249 249 243 243 243 240 240 240 241 241 241 243 243 243 245 245 245 239 239 239 229 229 229 219 219 219 213 213 213 211 211 211 233 233 233 235 235 235 236 236 236 234 234 234 230 230 230 229 229 229 229 229 229 230 230 230 242 242 242 239 239 239 233 233 233 223 223 223 196 196 196 163 163 163 170 170 170 206 206 206 222 222 222 229 229 229 238 238 238 244 244 244 245 245 245 244 244 244 243 243 243 243 243 243 248 248 248 248 248 248 248 248 248 248 248 248 247 247 247 247 247 247 246 246 246 246 246 246 245 245 245 248 248 248 250 250 250 251 251 251 249 249 249 249 249 249 251 251 251 253 253 253 250 250 250 250 250 250 250 250 250 250 250 250 250 250 250 250 250 250 250 250 250 250 250 250 248 248 248 248 248 248 247 247 247 247 247 247 247 247 247 247 247 247 246 246 246 246 246 246 239 239 239 243 243 243 248 248 248 251 251 251 252 252 252 252 252 252 253 253 253 253 253 253 253 253 253 253 253 253 253 253 253 253 253 253 253 253 253 253 253 253 253 253 253 253 253 253 253 253 253 253 253 253 253 253 253 253 253 253 253 253 253 253 253 253 253 253 253 253 253 253 254 254 254 254 254 254 254 254 254 254 254 254 254 254 254 254 254 254 254 254 254 254 254 254 254 254 254 254 254 254 254 254 254 254 254 254 254 254 254 254 254 254 254 254 254 254 254 254 255 255 255 255 255 255 255 255 255 255 255 255 255 255 255 255 255 255 255 255 255 255 255 255 255 255 255 255 255 255 252 252 252 252 252 252 249 249 249 249 249 249 254 254 254 248 248 248 244 244 244 255 255 255 238 238 238 255 255 255 218 218 218 187 187 187 153 153 153 205 205 205 179 177 178 198 196 197 220 218 219 216 214 215 194 192 193 215 213 214 170 168 169 149 147 148 122 120 121 92 90 91 194 192 193 190 188 189 91 89 90 178 176 177 245 243 244 244 242 243 251 251 251 252 252 252 
253 253 253 253 253 253 254 254 254 254 254 254 253 253 253 253 253 253 254 254 254 249 249 249 240 240 240 233 233 233 227 227 227 229 229 229 227 227 227 205 205 205 186 186 186 205 205 205 231 231 231 236 236 236 208 208 208 209 209 209 230 230 230 208 208 208 113 113 113 183 183 183 127 127 127 163 163 163 228 228 228 246 246 246 251 251 251 251 251 251 249 249 249 250 250 250 253 253 253 244 244 244 228 228 228 229 229 229 240 240 240 241 241 241 241 241 241 123 123 123 208 208 208 220 220 220 248 248 248 212 212 212 164 164 164 213 213 213 236 236 236 236 236 236 236 236 236 237 237 237 237 237 237 237 237 237 238 238 238 238 238 238 238 238 238 239 239 239 239 239 239 
250 250 250 250 250 250 250 250 250 250 250 250 249 249 249 249 249 249 249 249 249 248 248 248 248 248 248 251 251 251 245 245 245 252 252 252 246 246 246 248 248 248 236 236 236 207 207 207 225 225 225 247 247 247 246 246 246 250 250 250 255 255 255 255 255 255 248 248 248 243 243 243 242 242 242 249 249 249 249 249 249 250 250 250 251 251 251 247 247 247 235 235 235 217 217 217 204 204 204 214 214 214 212 212 212 209 209 209 206 206 206 207 207 207 214 214 214 226 226 226 236 236 236 216 216 216 225 225 225 237 237 237 234 234 234 201 201 201 158 158 158 166 166 166 211 211 211 241 241 241 241 241 241 242 242 242 243 243 243 245 245 245 245 245 245 245 245 245 244 244 244 246 246 246 247 247 247 247 247 247 247 247 247 247 247 247 246 246 246 245 245 245 245 245 245 245 245 245 247 247 247 249 249 249 250 250 250 251 251 251 251 251 251 250 250 250 250 250 250 250 250 250 250 250 250 250 250 250 250 250 250 250 250 250 250 250 250 250 250 250 250 250 250 249 249 249 249 249 249 249 249 249 249 249 249 248 248 248 248 248 248 248 248 248 248 248 248 243 243 243 246 246 246 250 250 250 252 252 252 253 253 253 252 252 252 253 253 253 253 253 253 254 254 254 254 254 254 254 254 254 254 254 254 254 254 254 254 254 254 254 254 254 254 254 254 254 254 254 254 254 254 254 254 254 254 254 254 254 254 254 254 254 254 254 254 254 254 254 254 254 254 254 254 254 254 254 254 254 254 254 254 254 254 254 254 254 254 254 254 254 254 254 254 254 254 254 254 254 254 254 254 254 254 254 254 254 254 254 254 254 254 254 254 254 254 254 254 255 255 255 255 255 255 255 255 255 255 255 255 255 255 255 255 255 255 255 255 255 255 255 255 255 255 255 255 255 255 255 255 255 250 250 250 251 251 251 255 255 255 255 255 255 251 251 251 252 252 252 255 255 255 235 235 235 230 230 230 186 186 186 177 177 177 205 205 205 202 202 202 181 179 180 230 228 229 231 229 230 212 210 211 163 161 162 115 113 114 38 36 37 87 85 86 56 54 55 5 3 4 146 144 145 85 83 84 62 60 61 204 202 203 255 254 255 255 254 255 251 251 251 252 252 252 253 253 253 
253 253 253 254 254 254 254 254 254 253 253 253 253 253 253 253 253 253 249 249 249 239 239 239 237 237 237 238 238 238 217 217 217 195 195 195 196 196 196 229 229 229 221 221 221 227 227 227 230 230 230 214 214 214 230 230 230 224 224 224 146 146 146 110 110 110 188 188 188 112 112 112 179 179 179 235 235 235 242 242 242 252 252 252 247 247 247 245 245 245 246 246 246 251 251 251 246 246 246 234 234 234 234 234 234 238 238 238 233 233 233 230 230 230 88 88 88 211 211 211 206 206 206 233 233 233 197 197 197 168 168 168 221 221 221 235 235 235 235 235 235 236 236 236 236 236 236 236 236 236 237 237 237 237 237 237 237 237 237 238 238 238 238 238 238 239 239 239 
250 250 250 250 250 250 250 250 250 250 250 250 250 250 250 249 249 249 249 249 249 249 249 249 249 249 249 252 252 252 244 244 244 255 255 255 245 245 245 251 251 251 236 236 236 193 193 193 222 222 222 242 242 242 248 248 248 252 252 252 250 250 250 247 247 247 247 247 247 249 249 249 250 250 250 255 255 255 253 253 253 251 251 251 253 253 253 255 255 255 249 249 249 235 235 235 223 223 223 200 200 200 199 199 199 196 196 196 193 193 193 190 190 190 194 194 194 208 208 208 221 221 221 222 222 222 231 231 231 228 228 228 218 218 218 215 215 215 215 215 215 221 221 221 234 234 234 237 237 237 237 237 237 237 237 237 239 239 239 242 242 242 245 245 245 248 248 248 250 250 250 250 250 250 249 249 249 247 247 247 246 246 246 245 245 245 245 245 245 245 245 245 245 245 245 246 246 246 246 246 246 247 247 247 249 249 249 251 251 251 250 250 250 248 248 248 246 246 246 251 251 251 251 251 251 251 251 251 251 251 251 251 251 251 251 251 251 251 251 251 251 251 251 251 251 251 251 251 251 251 251 251 250 250 250 250 250 250 250 250 250 249 249 249 249 249 249 247 247 247 250 250 250 252 252 252 254 254 254 253 253 253 253 253 253 253 253 253 253 253 253 254 254 254 254 254 254 254 254 254 254 254 254 254 254 254 254 254 254 254 254 254 254 254 254 254 254 254 254 254 254 254 254 254 254 254 254 254 254 254 254 254 254 254 254 254 254 254 254 254 254 254 254 254 254 254 254 254 254 254 254 254 254 254 254 254 254 254 254 254 254 254 254 254 254 254 254 254 254 254 254 254 254 254 254 254 254 254 254 254 254 254 254 254 254 254 254 255 255 255 255 255 255 255 255 255 255 255 255 255 255 255 255 255 255 255 255 255 255 255 255 249 249 249 255 255 255 255 255 255 251 251 251 255 255 255 255 255 255 245 245 245 239 239 239 238 238 238 229 229 229 229 229 229 179 179 179 175 175 175 213 213 213 220 220 220 188 188 188 150 148 149 211 209 210 221 219 220 212 210 211 95 93 94 53 51 52 47 45 46 43 41 42 168 166 167 113 111 112 27 25 26 19 17 18 87 85 86 236 234 235 234 232 233 247 245 246 251 251 251 251 251 251 252 252 252 
253 253 253 253 253 253 253 253 253 253 253 253 253 253 253 249 249 249 252 252 252 247 247 247 244 244 244 235 235 235 187 187 187 170 170 170 226 226 226 241 241 241 239 239 239 234 234 234 230 230 230 222 222 222 233 233 233 219 219 219 151 151 151 164 164 164 201 201 201 128 128 128 198 198 198 252 252 252 240 240 240 244 244 244 250 250 250 245 245 245 245 245 245 249 249 249 246 246 246 237 237 237 238 238 238 238 238 238 229 229 229 235 235 235 91 91 91 217 217 217 215 215 215 214 214 214 209 209 209 219 219 219 229 229 229 235 235 235 235 235 235 235 235 235 235 235 235 236 236 236 236 236 236 236 236 236 236 236 236 238 238 238 238 238 238 239 239 239 
251 251 251 251 251 251 251 251 251 250 250 250 250 250 250 250 250 250 249 249 249 249 249 249 249 249 249 252 252 252 244 244 244 255 255 255 245 245 245 251 251 251 235 235 235 192 192 192 221 221 221 220 220 220 242 242 242 255 255 255 250 250 250 244 244 244 250 250 250 255 255 255 253 253 253 255 255 255 253 253 253 251 251 251 253 253 253 255 255 255 254 254 254 249 249 249 244 244 244 227 227 227 225 225 225 221 221 221 211 211 211 193 193 193 178 178 178 178 178 178 185 185 185 203 203 203 216 216 216 210 210 210 201 201 201 219 219 219 244 244 244 250 250 250 246 246 246 240 240 240 243 243 243 245 245 245 245 245 245 244 244 244 245 245 245 248 248 248 252 252 252 255 255 255 253 253 253 249 249 249 245 245 245 243 243 243 243 243 243 245 245 245 246 246 246 246 246 246 246 246 246 247 247 247 250 250 250 252 252 252 253 253 253 252 252 252 251 251 251 252 252 252 252 252 252 252 252 252 252 252 252 252 252 252 252 252 252 252 252 252 252 252 252 252 252 252 252 252 252 252 252 252 251 251 251 251 251 251 251 251 251 250 250 250 250 250 250 250 250 250 252 252 252 254 254 254 254 254 254 253 253 253 253 253 253 253 253 253 254 254 254 254 254 254 254 254 254 254 254 254 254 254 254 254 254 254 254 254 254 254 254 254 254 254 254 254 254 254 254 254 254 254 254 254 254 254 254 254 254 254 254 254 254 254 254 254 254 254 254 254 254 254 254 254 254 254 254 254 254 254 254 254 254 254 254 254 254 254 254 254 254 254 254 254 254 254 254 254 254 254 254 254 254 254 254 254 254 254 254 254 254 254 254 254 254 254 254 255 255 255 255 255 255 255 255 255 255 255 255 255 255 255 255 255 255 255 255 255 255 255 255 252 252 252 255 255 255 255 255 255 248 248 248 252 252 252 252 252 252 224 224 224 222 222 222 197 197 197 186 186 186 201 201 201 155 155 155 185 185 185 208 208 208 188 188 188 162 162 162 133 131 132 180 178 179 179 177 178 198 196 197 144 142 143 115 113 114 105 103 104 110 108 109 119 117 118 96 94 95 19 17 18 75 73 74 183 181 182 189 187 188 242 240 241 255 254 255 251 251 251 251 251 251 
252 252 252 253 253 253 253 253 253 253 253 253 253 253 253 252 252 252 249 249 249 251 251 251 251 251 251 248 248 248 233 233 233 166 166 166 149 149 149 243 243 243 235 235 235 246 246 246 231 231 231 230 230 230 238 238 238 227 227 227 207 207 207 179 179 179 226 226 226 220 220 220 175 175 175 200 200 200 250 250 250 250 250 250 247 247 247 252 252 252 251 251 251 248 248 248 250 250 250 248 248 248 241 241 241 242 242 242 243 243 243 233 233 233 239 239 239 181 181 181 220 220 220 205 205 205 228 228 228 234 234 234 234 234 234 239 239 239 235 235 235 235 235 235 235 235 235 235 235 235 236 236 236 236 236 236 236 236 236 236 236 236 239 239 239 239 239 239 239 239 239 
251 251 251 251 251 251 251 251 251 251 251 251 250 250 250 250 250 250 250 250 250 249 249 249 249 249 249 251 251 251 246 246 246 254 254 254 248 248 248 249 249 249 236 236 236 205 205 205 222 222 222 205 205 205 229 229 229 249 249 249 252 252 252 251 251 251 255 255 255 255 255 255 250 250 250 248 248 248 250 250 250 253 253 253 254 254 254 254 254 254 253 253 253 250 250 250 248 248 248 245 245 245 242 242 242 238 238 238 230 230 230 212 212 212 190 190 190 179 179 179 179 179 179 162 162 162 192 192 192 214 214 214 224 224 224 232 232 232 234 234 234 234 234 234 239 239 239 242 242 242 246 246 246 249 249 249 249 249 249 247 247 247 246 246 246 249 249 249 252 252 252 254 254 254 251 251 251 247 247 247 243 243 243 240 240 240 240 240 240 242 242 242 243 243 243 241 241 241 242 242 242 244 244 244 246 246 246 249 249 249 251 251 251 254 254 254 255 255 255 252 252 252 252 252 252 252 252 252 252 252 252 252 252 252 252 252 252 252 252 252 252 252 252 252 252 252 252 252 252 252 252 252 252 252 252 251 251 251 251 251 251 251 251 251 251 251 251 252 252 252 253 253 253 255 255 255 254 254 254 253 253 253 252 252 252 253 253 253 254 254 254 255 255 255 255 255 255 255 255 255 255 255 255 255 255 255 255 255 255 255 255 255 255 255 255 255 255 255 255 255 255 255 255 255 255 255 255 255 255 255 255 255 255 255 255 255 255 255 255 254 254 254 254 254 254 254 254 254 254 254 254 254 254 254 254 254 254 254 254 254 254 254 254 254 254 254 254 254 254 254 254 254 254 254 254 254 254 254 254 254 254 254 254 254 254 254 254 255 255 255 255 255 255 255 255 255 255 255 255 255 255 255 255 255 255 255 255 255 255 255 255 255 255 255 255 255 255 255 255 255 245 245 245 253 253 253 251 251 251 218 218 218 227 227 227 238 238 238 238 238 238 224 224 224 210 210 210 226 226 226 181 181 181 193 193 193 196 196 196 181 179 180 125 123 124 180 178 179 228 226 227 173 171 172 159 157 158 146 144 145 133 131 132 147 145 146 105 103 104 34 32 33 108 106 107 90 88 89 132 130 131 200 198 199 244 242 243 250 250 250 251 251 251 
252 252 252 252 252 252 253 253 253 253 253 253 252 252 252 252 252 252 252 252 252 248 248 248 248 248 248 246 246 246 240 240 240 173 173 173 136 136 136 219 219 219 240 240 240 253 253 253 235 235 235 237 237 237 242 242 242 207 207 207 184 184 184 187 187 187 247 247 247 232 232 232 218 218 218 190 190 190 213 213 213 251 251 251 253 253 253 246 246 246 251 251 251 247 247 247 248 248 248 245 245 245 238 238 238 241 241 241 243 243 243 234 234 234 233 233 233 239 239 239 215 215 215 201 201 201 229 229 229 237 237 237 233 233 233 233 233 233 235 235 235 235 235 235 236 236 236 236 236 236 236 236 236 237 237 237 237 237 237 237 237 237 240 240 240 240 240 240 240 240 240 
251 251 251 251 251 251 251 251 251 251 251 251 251 251 251 250 250 250 250 250 250 250 250 250 250 250 250 249 249 249 248 248 248 251 251 251 251 251 251 247 247 247 236 236 236 224 224 224 223 223 223 216 216 216 217 217 217 227 227 227 244 244 244 255 255 255 255 255 255 252 252 252 251 251 251 248 248 248 250 250 250 253 253 253 254 254 254 253 253 253 251 251 251 249 249 249 248 248 248 243 243 243 234 234 234 231 231 231 235 235 235 232 232 232 219 219 219 207 207 207 204 204 204 185 185 185 212 212 212 231 231 231 236 236 236 236 236 236 233 233 233 240 240 240 255 255 255 240 240 240 241 241 241 243 243 243 245 245 245 247 247 247 249 249 249 250 250 250 251 251 251 250 250 250 249 249 249 247 247 247 246 246 246 245 245 245 244 244 244 243 243 243 243 243 243 240 240 240 242 242 242 244 244 244 244 244 244 244 244 244 245 245 245 250 250 250 254 254 254 253 253 253 253 253 253 253 253 253 253 253 253 253 253 253 253 253 253 253 253 253 253 253 253 252 252 252 252 252 252 252 252 252 252 252 252 251 251 251 251 251 251 251 251 251 251 251 251 252 252 252 253 253 253 254 254 254 254 254 254 253 253 253 252 252 252 253 253 253 254 254 254 255 255 255 255 255 255 255 255 255 255 255 255 255 255 255 255 255 255 255 255 255 255 255 255 255 255 255 255 255 255 255 255 255 255 255 255 255 255 255 255 255 255 255 255 255 255 255 255 254 254 254 254 254 254 254 254 254 254 254 254 254 254 254 254 254 254 254 254 254 254 254 254 254 254 254 254 254 254 254 254 254 254 254 254 254 254 254 254 254 254 254 254 254 254 254 254 255 255 255 255 255 255 255 255 255 255 255 255 255 255 255 255 255 255 255 255 255 255 255 255 255 255 255 250 250 250 255 255 255 247 247 247 255 255 255 250 250 250 208 208 208 225 225 225 243 243 243 255 255 255 234 234 234 232 232 232 208 208 208 131 131 131 178 178 178 193 193 193 158 156 157 158 156 157 197 195 196 192 190 191 190 188 189 188 186 187 155 153 154 130 128 129 140 138 139 119 117 118 134 132 133 134 132 133 82 80 81 75 73 74 132 130 131 243 241 242 250 250 250 250 250 250 
251 251 251 252 252 252 252 252 252 252 252 252 252 252 252 252 252 252 252 252 252 250 250 250 250 250 250 240 240 240 244 244 244 194 194 194 135 135 135 183 183 183 214 214 214 240 240 240 250 250 250 252 252 252 224 224 224 185 185 185 203 203 203 241 241 241 246 246 246 241 241 241 242 242 242 199 199 199 173 173 173 232 232 232 249 249 249 243 243 243 248 248 248 245 245 245 246 246 246 243 243 243 235 235 235 238 238 238 241 241 241 233 233 233 235 235 235 240 240 240 226 226 226 226 226 226 231 231 231 231 231 231 245 245 245 236 236 236 236 236 236 236 236 236 236 236 236 237 237 237 237 237 237 237 237 237 238 238 238 238 238 238 241 241 241 241 241 241 242 242 242 
251 251 251 251 251 251 251 251 251 251 251 251 251 251 251 250 250 250 250 250 250 250 250 250 250 250 250 248 248 248 250 250 250 249 249 249 253 253 253 245 245 245 236 236 236 238 238 238 225 225 225 237 237 237 211 211 211 205 205 205 233 233 233 254 254 254 252 252 252 249 249 249 255 255 255 254 254 254 253 253 253 252 252 252 251 251 251 250 250 250 251 251 251 251 251 251 252 252 252 250 250 250 234 234 234 226 226 226 235 235 235 243 243 243 237 237 237 226 226 226 220 220 220 199 199 199 223 223 223 233 233 233 231 231 231 238 238 238 244 244 244 242 242 242 240 240 240 246 246 246 243 243 243 240 240 240 242 242 242 247 247 247 250 250 250 249 249 249 247 247 247 252 252 252 253 253 253 255 255 255 255 255 255 255 255 255 254 254 254 251 251 251 250 250 250 249 249 249 251 251 251 251 251 251 248 248 248 244 244 244 244 244 244 249 249 249 254 254 254 253 253 253 253 253 253 253 253 253 253 253 253 253 253 253 253 253 253 253 253 253 253 253 253 252 252 252 252 252 252 252 252 252 251 251 251 251 251 251 251 251 251 251 251 251 250 250 250 252 252 252 253 253 253 254 254 254 254 254 254 252 252 252 252 252 252 253 253 253 254 254 254 255 255 255 255 255 255 255 255 255 255 255 255 255 255 255 255 255 255 255 255 255 255 255 255 255 255 255 255 255 255 255 255 255 255 255 255 255 255 255 255 255 255 255 255 255 255 255 255 254 254 254 254 254 254 254 254 254 254 254 254 254 254 254 254 254 254 254 254 254 254 254 254 254 254 254 254 254 254 254 254 254 254 254 254 254 254 254 254 254 254 254 254 254 254 254 254 255 255 255 255 255 255 255 255 255 255 255 255 255 255 255 255 255 255 255 255 255 255 255 255 255 255 255 248 248 248 255 255 255 250 250 250 255 255 255 238 238 238 184 184 184 202 202 202 215 215 215 239 239 239 251 251 251 245 245 245 197 197 197 132 132 132 175 175 175 179 179 179 172 170 171 168 166 167 177 175 176 200 198 199 217 215 216 180 178 179 177 175 176 137 135 136 128 126 127 123 121 122 121 119 120 160 158 159 158 156 157 99 97 98 48 46 47 251 249 250 250 250 250 250 250 250 
251 251 251 252 252 252 252 252 252 252 252 252 252 252 252 252 252 252 249 249 249 255 255 255 255 255 255 235 235 235 242 242 242 209 209 209 142 142 142 166 166 166 230 230 230 223 223 223 229 229 229 243 243 243 224 224 224 208 208 208 238 238 238 255 255 255 251 251 251 252 252 252 252 252 252 226 226 226 157 157 157 213 213 213 243 243 243 250 250 250 249 249 249 247 247 247 249 249 249 247 247 247 238 238 238 240 240 240 243 243 243 235 235 235 229 229 229 234 234 234 233 233 233 233 233 233 239 239 239 217 217 217 228 228 228 239 239 239 237 237 237 237 237 237 237 237 237 237 237 237 238 238 238 238 238 238 238 238 238 238 238 238 242 242 242 242 242 242 243 243 243 
252 252 252 250 250 250 250 250 250 250 250 250 250 250 250 251 251 251 251 251 251 251 251 251 251 251 251 251 251 251 250 250 250 249 249 249 247 247 247 244 244 244 241 241 241 238 238 238 236 236 236 232 232 232 228 228 228 159 159 159 242 242 242 255 255 255 248 248 248 255 255 255 254 254 254 253 253 253 253 253 253 252 252 252 252 252 252 252 252 252 252 252 252 252 252 252 253 253 253 245 245 245 242 242 242 237 237 237 235 235 235 241 241 241 244 244 244 234 234 234 220 220 220 210 210 210 221 221 221 238 238 238 241 241 241 234 234 234 237 237 237 244 244 244 241 241 241 245 245 245 244 244 244 243 243 243 243 243 243 244 244 244 247 247 247 251 251 251 253 253 253 254 254 254 254 254 254 254 254 254 254 254 254 254 254 254 254 254 254 254 254 254 254 254 254 255 255 255 254 254 254 254 254 254 253 253 253 252 252 252 251 251 251 250 250 250 250 250 250 253 253 253 254 254 254 254 254 254 253 253 253 252 252 252 251 251 251 253 253 253 254 254 254 252 252 252 251 251 251 250 250 250 250 250 250 250 250 250 252 252 252 253 253 253 254 254 254 253 253 253 253 253 253 254 254 254 254 254 254 254 254 254 254 254 254 255 255 255 255 255 255 253 253 253 253 253 253 254 254 254 254 254 254 254 254 254 254 254 254 255 255 255 255 255 255 255 255 255 255 255 255 255 255 255 255 255 255 255 255 255 255 255 255 255 255 255 255 255 255 254 254 254 254 254 254 254 254 254 254 254 254 254 254 254 254 254 254 254 254 254 254 254 254 254 254 254 254 254 254 254 254 254 254 254 254 254 254 254 254 254 254 254 254 254 254 254 254 254 254 254 254 254 254 254 254 254 254 254 254 254 254 254 254 254 254 254 254 254 253 253 253 255 255 255 248 248 248 255 255 255 255 255 255 241 241 241 217 217 217 204 204 204 219 219 219 232 232 232 219 219 219 255 255 255 233 233 233 194 194 194 200 200 200 196 196 196 166 166 166 187 185 186 146 144 145 183 181 182 193 191 192 195 193 194 190 188 189 171 169 170 151 149 150 157 155 156 156 154 155 154 152 153 182 180 181 186 184 185 102 100 101 54 52 53 218 216 217 246 246 246 
255 255 255 247 247 247 254 254 254 244 244 244 251 251 251 249 249 249 255 255 255 255 255 255 248 248 248 255 255 255 249 249 249 227 227 227 194 194 194 209 209 209 200 200 200 225 225 225 236 236 236 246 246 246 230 230 230 233 233 233 251 251 251 240 240 240 251 251 251 249 249 249 244 244 244 245 245 245 234 234 234 179 179 179 161 161 161 254 254 254 243 243 243 241 241 241 250 250 250 244 244 244 234 234 234 238 238 238 242 242 242 240 240 240 241 241 241 240 240 240 237 237 237 229 229 229 222 222 222 223 223 223 233 233 233 240 240 240 240 240 240 240 240 240 239 239 239 239 239 239 239 239 239 240 240 240 241 241 241 241 241 241 242 242 242 243 243 243 243 243 243 243 243 243 
251 251 251 250 250 250 250 250 250 250 250 250 250 250 250 250 250 250 250 250 250 250 250 250 250 250 250 250 250 250 251 251 251 250 250 250 249 249 249 246 246 246 242 242 242 238 238 238 236 236 236 234 234 234 232 232 232 162 162 162 228 228 228 242 242 242 255 255 255 238 238 238 254 254 254 253 253 253 253 253 253 252 252 252 252 252 252 251 251 251 252 252 252 252 252 252 253 253 253 249 249 249 245 245 245 237 237 237 233 233 233 237 237 237 242 242 242 237 237 237 228 228 228 212 212 212 222 222 222 238 238 238 242 242 242 235 235 235 238 238 238 245 245 245 242 242 242 246 246 246 245 245 245 245 245 245 245 245 245 247 247 247 249 249 249 251 251 251 253 253 253 254 254 254 254 254 254 254 254 254 254 254 254 254 254 254 254 254 254 254 254 254 254 254 254 254 254 254 254 254 254 253 253 253 253 253 253 252 252 252 252 252 252 251 251 251 251 251 251 254 254 254 255 255 255 255 255 255 254 254 254 252 252 252 252 252 252 253 253 253 254 254 254 251 251 251 251 251 251 250 250 250 250 250 250 250 250 250 251 251 251 252 252 252 253 253 253 253 253 253 253 253 253 254 254 254 254 254 254 254 254 254 254 254 254 255 255 255 255 255 255 253 253 253 253 253 253 254 254 254 254 254 254 254 254 254 254 254 254 255 255 255 255 255 255 255 255 255 255 255 255 255 255 255 255 255 255 255 255 255 255 255 255 255 255 255 255 255 255 254 254 254 254 254 254 254 254 254 254 254 254 254 254 254 254 254 254 254 254 254 254 254 254 254 254 254 254 254 254 254 254 254 254 254 254 254 254 254 254 254 254 254 254 254 254 254 254 254 254 254 254 254 254 254 254 254 254 254 254 254 254 254 253 253 253 253 253 253 253 253 253 255 255 255 247 247 247 250 250 250 251 251 251 241 241 241 215 215 215 225 225 225 241 241 241 235 235 235 223 223 223 234 234 234 237 237 237 207 207 207 224 224 224 203 203 203 163 163 163 151 149 150 171 169 170 185 183 184 191 189 190 187 185 186 180 178 179 172 170 171 182 180 181 165 163 164 175 173 174 189 187 188 177 175 176 164 162 163 117 115 116 109 107 108 192 190 191 241 241 241 
255 255 255 251 251 251 249 249 249 247 247 247 252 252 252 252 252 252 248 248 248 250 250 250 244 244 244 252 252 252 244 244 244 223 223 223 192 192 192 204 204 204 187 187 187 183 183 183 215 215 215 235 235 235 211 211 211 229 229 229 249 249 249 245 245 245 253 253 253 254 254 254 245 245 245 253 253 253 242 242 242 201 201 201 166 166 166 207 207 207 255 255 255 247 247 247 253 253 253 246 246 246 235 235 235 237 237 237 240 240 240 241 241 241 247 247 247 242 242 242 241 241 241 235 235 235 229 229 229 230 230 230 237 237 237 240 240 240 239 239 239 240 240 240 239 239 239 239 239 239 239 239 239 240 240 240 240 240 240 241 241 241 242 242 242 244 244 244 243 243 243 243 243 243 
249 249 249 250 250 250 250 250 250 250 250 250 250 250 250 250 250 250 250 250 250 250 250 250 250 250 250 249 249 249 250 250 250 251 251 251 250 250 250 248 248 248 243 243 243 239 239 239 236 236 236 240 240 240 228 228 228 206 206 206 179 179 179 239 239 239 250 250 250 253 253 253 252 252 252 252 252 252 252 252 252 252 252 252 251 251 251 251 251 251 252 252 252 252 252 252 253 253 253 253 253 253 249 249 249 240 240 240 234 234 234 234 234 234 238 238 238 239 239 239 237 237 237 216 216 216 223 223 223 237 237 237 242 242 242 236 236 236 239 239 239 246 246 246 242 242 242 246 246 246 246 246 246 247 247 247 248 248 248 250 250 250 251 251 251 252 252 252 253 253 253 254 254 254 254 254 254 254 254 254 254 254 254 254 254 254 254 254 254 254 254 254 254 254 254 253 253 253 253 253 253 253 253 253 253 253 253 253 253 253 253 253 253 252 252 252 252 252 252 255 255 255 255 255 255 255 255 255 254 254 254 252 252 252 252 252 252 253 253 253 255 255 255 251 251 251 250 250 250 250 250 250 249 249 249 249 249 249 250 250 250 252 252 252 252 252 252 253 253 253 253 253 253 254 254 254 254 254 254 254 254 254 254 254 254 255 255 255 255 255 255 253 253 253 253 253 253 254 254 254 254 254 254 254 254 254 254 254 254 255 255 255 255 255 255 255 255 255 255 255 255 255 255 255 255 255 255 255 255 255 255 255 255 255 255 255 255 255 255 254 254 254 254 254 254 254 254 254 254 254 254 254 254 254 254 254 254 254 254 254 254 254 254 254 254 254 254 254 254 254 254 254 254 254 254 254 254 254 254 254 254 254 254 254 254 254 254 254 254 254 254 254 254 254 254 254 253 253 253 253 253 253 253 253 253 252 252 252 252 252 252 249 249 249 250 250 250 255 255 255 253 253 253 235 235 235 195 195 195 233 233 233 248 248 248 243 243 243 247 247 247 203 203 203 200 200 200 163 163 163 213 213 213 197 197 197 158 158 158 173 171 172 153 151 152 156 154 155 201 199 200 178 176 177 168 166 167 168 166 167 154 152 153 156 154 155 168 166 167 198 196 197 187 185 186 188 186 187 129 127 128 97 95 96 129 127 128 239 239 239 
248 248 248 253 253 253 245 245 245 247 247 247 253 253 253 255 255 255 247 247 247 249 249 249 247 247 247 254 254 254 245 245 245 228 228 228 202 202 202 206 206 206 177 177 177 161 161 161 215 215 215 238 238 238 194 194 194 228 228 228 245 245 245 247 247 247 247 247 247 249 249 249 248 248 248 254 254 254 237 237 237 219 219 219 185 185 185 152 152 152 227 227 227 244 244 244 249 249 249 244 244 244 239 239 239 242 242 242 242 242 242 241 241 241 248 248 248 244 244 244 244 244 244 241 241 241 238 238 238 239 239 239 242 242 242 241 241 241 239 239 239 240 240 240 240 240 240 240 240 240 239 239 239 240 240 240 240 240 240 241 241 241 242 242 242 244 244 244 244 244 244 243 243 243 
249 249 249 250 250 250 250 250 250 249 249 249 249 249 249 249 249 249 249 249 249 249 249 249 248 248 248 247 247 247 249 249 249 250 250 250 251 251 251 248 248 248 243 243 243 238 238 238 235 235 235 229 229 229 242 242 242 217 217 217 188 188 188 185 185 185 247 247 247 255 255 255 254 254 254 252 252 252 251 251 251 251 251 251 251 251 251 251 251 251 252 252 252 252 252 252 253 253 253 254 254 254 252 252 252 247 247 247 241 241 241 237 237 237 237 237 237 237 237 237 238 238 238 220 220 220 223 223 223 235 235 235 241 241 241 237 237 237 239 239 239 245 245 245 242 242 242 246 246 246 247 247 247 249 249 249 250 250 250 251 251 251 252 252 252 252 252 252 251 251 251 254 254 254 254 254 254 254 254 254 254 254 254 254 254 254 254 254 254 254 254 254 254 254 254 252 252 252 252 252 252 252 252 252 253 253 253 253 253 253 253 253 253 254 254 254 254 254 254 255 255 255 255 255 255 255 255 255 255 255 255 253 253 253 252 252 252 253 253 253 254 254 254 251 251 251 251 251 251 250 250 250 249 249 249 249 249 249 250 250 250 251 251 251 252 252 252 253 253 253 253 253 253 254 254 254 254 254 254 254 254 254 254 254 254 255 255 255 255 255 255 253 253 253 253 253 253 254 254 254 254 254 254 254 254 254 254 254 254 255 255 255 255 255 255 255 255 255 255 255 255 255 255 255 255 255 255 255 255 255 255 255 255 255 255 255 255 255 255 254 254 254 254 254 254 254 254 254 254 254 254 254 254 254 254 254 254 254 254 254 254 254 254 254 254 254 254 254 254 254 254 254 254 254 254 254 254 254 254 254 254 254 254 254 254 254 254 254 254 254 254 254 254 253 253 253 253 253 253 252 252 252 252 252 252 251 251 251 251 251 251 249 249 249 251 251 251 251 251 251 254 254 254 237 237 237 190 190 190 224 224 224 214 214 214 234 234 234 239 239 239 175 175 175 213 213 213 187 187 187 222 222 222 182 182 182 153 153 153 149 147 148 144 142 143 166 164 165 195 193 194 197 195 196 181 179 180 175 173 174 190 188 189 184 182 183 180 178 179 184 182 183 163 161 162 190 188 189 135 133 134 52 50 51 95 93 94 243 243 243 247 247 247 
249 249 249 249 249 249 245 245 245 255 255 255 247 247 247 255 255 255 251 251 251 249 249 249 255 255 255 246 246 246 238 238 238 218 218 218 215 215 215 173 173 173 169 169 169 229 229 229 241 241 241 182 182 182 227 227 227 242 242 242 250 250 250 242 242 242 243 243 243 255 255 255 249 249 249 229 229 229 229 229 229 216 216 216 140 140 140 166 166 166 235 235 235 241 241 241 240 240 240 241 241 241 248 248 248 247 247 247 242 242 242 244 244 244 244 244 244 243 243 243 242 242 242 241 241 241 242 242 242 244 244 244 243 243 243 241 241 241 241 241 241 241 241 241 241 241 241 240 240 240 240 240 240 241 241 241 241 241 241 242 242 242 244 244 244 244 244 244 244 244 244 
250 250 250 250 250 250 249 249 249 249 249 249 249 249 249 248 248 248 248 248 248 247 247 247 247 247 247 245 245 245 247 247 247 249 249 249 249 249 249 247 247 247 242 242 242 237 237 237 234 234 234 224 224 224 237 237 237 223 223 223 216 216 216 162 162 162 216 216 216 252 252 252 250 250 250 251 251 251 251 251 251 250 250 250 250 250 250 251 251 251 252 252 252 252 252 252 253 253 253 253 253 253 253 253 253 253 253 253 250 250 250 244 244 244 237 237 237 233 233 233 233 233 233 224 224 224 224 224 224 233 233 233 240 240 240 237 237 237 239 239 239 244 244 244 242 242 242 245 245 245 247 247 247 249 249 249 251 251 251 252 252 252 252 252 252 251 251 251 250 250 250 254 254 254 254 254 254 254 254 254 254 254 254 254 254 254 254 254 254 254 254 254 254 254 254 252 252 252 252 252 252 253 253 253 253 253 253 254 254 254 254 254 254 254 254 254 255 255 255 255 255 255 255 255 255 255 255 255 254 254 254 252 252 252 251 251 251 252 252 252 254 254 254 252 252 252 251 251 251 250 250 250 249 249 249 249 249 249 250 250 250 251 251 251 252 252 252 253 253 253 253 253 253 254 254 254 254 254 254 254 254 254 254 254 254 255 255 255 255 255 255 253 253 253 253 253 253 254 254 254 254 254 254 254 254 254 254 254 254 255 255 255 255 255 255 255 255 255 255 255 255 255 255 255 255 255 255 255 255 255 255 255 255 255 255 255 255 255 255 254 254 254 254 254 254 254 254 254 254 254 254 254 254 254 254 254 254 254 254 254 254 254 254 254 254 254 254 254 254 254 254 254 254 254 254 254 254 254 254 254 254 254 254 254 254 254 254 254 254 254 254 254 254 253 253 253 252 252 252 252 252 252 251 251 251 250 250 250 250 250 250 255 255 255 248 248 248 238 238 238 248 248 248 241 241 241 211 211 211 227 227 227 187 187 187 219 219 219 206 206 206 145 145 145 229 229 229 230 230 230 231 231 231 168 168 168 167 167 167 154 152 153 74 72 73 164 162 163 178 176 177 161 159 160 184 182 183 202 200 201 153 151 152 191 189 190 175 173 174 187 185 186 162 160 161 172 170 171 156 154 155 48 46 47 91 89 90 244 244 244 249 249 249 
243 243 243 255 255 255 246 246 246 254 254 254 227 227 227 255 255 255 252 252 252 247 247 247 251 251 251 245 245 245 244 244 244 230 230 230 224 224 224 176 176 176 181 181 181 232 232 232 229 229 229 175 175 175 227 227 227 242 242 242 254 254 254 244 244 244 245 245 245 255 255 255 245 245 245 239 239 239 236 236 236 235 235 235 178 178 178 152 152 152 234 234 234 241 241 241 237 237 237 236 236 236 247 247 247 251 251 251 245 245 245 243 243 243 244 244 244 241 241 241 239 239 239 240 240 240 243 243 243 244 244 244 245 245 245 246 246 246 243 243 243 243 243 243 242 242 242 242 242 242 242 242 242 242 242 242 242 242 242 243 243 243 245 245 245 244 244 244 244 244 244 
250 250 250 249 249 249 249 249 249 249 249 249 248 248 248 247 247 247 247 247 247 246 246 246 246 246 246 245 245 245 246 246 246 247 247 247 247 247 247 245 245 245 241 241 241 237 237 237 234 234 234 235 235 235 223 223 223 237 237 237 221 221 221 181 181 181 193 193 193 248 248 248 249 249 249 250 250 250 250 250 250 250 250 250 250 250 250 251 251 251 251 251 251 252 252 252 253 253 253 252 252 252 253 253 253 255 255 255 255 255 255 249 249 249 238 238 238 231 231 231 230 230 230 230 230 230 225 225 225 233 233 233 241 241 241 239 239 239 240 240 240 245 245 245 243 243 243 247 247 247 248 248 248 250 250 250 251 251 251 252 252 252 252 252 252 251 251 251 251 251 251 254 254 254 254 254 254 254 254 254 254 254 254 254 254 254 254 254 254 254 254 254 254 254 254 252 252 252 253 253 253 253 253 253 253 253 253 254 254 254 254 254 254 255 255 255 255 255 255 255 255 255 255 255 255 255 255 255 254 254 254 251 251 251 250 250 250 251 251 251 252 252 252 253 253 253 253 253 253 251 251 251 250 250 250 250 250 250 251 251 251 251 251 251 252 252 252 253 253 253 253 253 253 254 254 254 254 254 254 254 254 254 254 254 254 255 255 255 255 255 255 253 253 253 253 253 253 254 254 254 254 254 254 254 254 254 254 254 254 255 255 255 255 255 255 255 255 255 255 255 255 255 255 255 255 255 255 255 255 255 255 255 255 255 255 255 255 255 255 254 254 254 254 254 254 254 254 254 254 254 254 254 254 254 254 254 254 254 254 254 254 254 254 254 254 254 254 254 254 254 254 254 254 254 254 254 254 254 254 254 254 254 254 254 254 254 254 254 254 254 253 253 253 253 253 253 252 252 252 251 251 251 250 250 250 249 249 249 249 249 249 243 243 243 248 248 248 246 246 246 249 249 249 222 222 222 221 221 221 237 237 237 205 205 205 195 195 195 218 218 218 177 177 177 213 213 213 218 218 218 219 219 219 160 160 160 164 164 164 212 210 211 97 95 96 162 160 161 177 175 176 213 211 212 203 201 202 174 172 173 151 149 150 145 143 144 101 99 100 157 155 156 185 183 184 165 163 164 158 156 157 83 81 82 120 118 119 236 236 236 243 243 243 
234 234 234 235 235 235 248 248 248 249 249 249 208 208 208 244 244 244 253 253 253 248 248 248 252 252 252 248 248 248 248 248 248 235 235 235 233 233 233 190 190 190 197 197 197 230 230 230 219 219 219 190 190 190 234 234 234 243 243 243 254 254 254 246 246 246 248 248 248 251 251 251 241 241 241 252 252 252 238 238 238 229 229 229 220 220 220 186 186 186 232 232 232 245 245 245 240 240 240 228 228 228 236 236 236 248 248 248 250 250 250 248 248 248 245 245 245 240 240 240 238 238 238 241 241 241 243 243 243 244 244 244 246 246 246 249 249 249 246 246 246 245 245 245 244 244 244 244 244 244 243 243 243 244 244 244 244 244 244 244 244 244 245 245 245 245 245 245 244 244 244 
248 248 248 249 249 249 249 249 249 248 248 248 248 248 248 247 247 247 246 246 246 246 246 246 245 245 245 246 246 246 247 247 247 247 247 247 246 246 246 244 244 244 241 241 241 238 238 238 236 236 236 235 235 235 234 234 234 224 224 224 199 199 199 164 164 164 230 230 230 235 235 235 255 255 255 249 249 249 249 249 249 249 249 249 250 250 250 250 250 250 251 251 251 253 253 253 253 253 253 253 253 253 252 252 252 253 253 253 255 255 255 249 249 249 239 239 239 233 233 233 234 234 234 235 235 235 228 228 228 234 234 234 243 243 243 242 242 242 243 243 243 247 247 247 245 245 245 250 250 250 250 250 250 251 251 251 252 252 252 252 252 252 253 253 253 253 253 253 253 253 253 254 254 254 254 254 254 254 254 254 254 254 254 254 254 254 254 254 254 254 254 254 254 254 254 253 253 253 253 253 253 254 254 254 254 254 254 254 254 254 254 254 254 254 254 254 254 254 254 254 254 254 255 255 255 254 254 254 253 253 253 250 250 250 249 249 249 250 250 250 251 251 251 255 255 255 254 254 254 253 253 253 251 251 251 251 251 251 251 251 251 252 252 252 253 253 253 253 253 253 253 253 253 254 254 254 254 254 254 254 254 254 254 254 254 255 255 255 255 255 255 253 253 253 253 253 253 254 254 254 254 254 254 254 254 254 254 254 254 255 255 255 255 255 255 255 255 255 255 255 255 255 255 255 255 255 255 255 255 255 255 255 255 255 255 255 255 255 255 254 254 254 254 254 254 254 254 254 254 254 254 254 254 254 254 254 254 254 254 254 254 254 254 254 254 254 254 254 254 254 254 254 254 254 254 254 254 254 254 254 254 254 254 254 254 254 254 254 254 254 253 253 253 252 252 252 251 251 251 250 250 250 249 249 249 248 248 248 248 248 248 236 236 236 250 250 250 254 254 254 247 247 247 198 198 198 227 227 227 235 235 235 212 212 212 178 178 178 226 226 226 211 211 211 197 197 197 220 220 220 224 224 224 161 161 161 154 154 154 218 216 217 118 116 117 190 188 189 217 215 216 214 212 213 181 179 180 156 154 155 131 129 130 90 88 89 49 47 48 102 100 101 163 161 162 169 167 168 149 147 148 120 118 119 146 144 145 222 222 222 229 229 229 
216 216 216 180 180 180 240 240 240 242 242 242 207 207 207 237 237 237 251 251 251 248 248 248 255 255 255 251 251 251 244 244 244 227 227 227 235 235 235 205 205 205 202 202 202 222 222 222 213 213 213 219 219 219 248 248 248 245 245 245 251 251 251 246 246 246 248 248 248 244 244 244 246 246 246 249 249 249 238 238 238 224 224 224 232 232 232 206 206 206 210 210 210 239 239 239 243 243 243 226 226 226 228 228 228 245 245 245 251 251 251 250 250 250 248 248 248 243 243 243 241 241 241 245 245 245 247 247 247 246 246 246 247 247 247 250 250 250 248 248 248 247 247 247 246 246 246 246 246 246 245 245 245 245 245 245 245 245 245 246 246 246 245 245 245 245 245 245 245 245 245 
247 247 247 249 249 249 249 249 249 248 248 248 247 247 247 247 247 247 246 246 246 245 245 245 245 245 245 248 248 248 248 248 248 248 248 248 246 246 246 245 245 245 242 242 242 240 240 240 238 238 238 230 230 230 228 228 229 235 235 236 122 122 123 165 165 166 244 244 245 248 248 249 251 251 252 249 249 249 249 249 249 249 249 249 249 249 249 250 250 250 251 251 251 253 253 253 253 253 253 255 255 255 251 251 251 250 250 250 251 251 251 247 247 247 239 239 239 236 236 236 238 238 238 239 239 239 230 230 230 235 235 235 245 245 245 244 244 244 245 245 245 249 249 249 247 247 247 252 252 252 252 252 252 252 252 252 253 253 253 253 253 253 254 254 254 254 254 254 255 255 255 254 254 254 254 254 254 254 254 254 254 254 254 254 254 254 254 254 254 254 254 254 254 254 254 254 254 254 254 254 254 254 254 254 254 254 254 254 254 254 254 254 254 254 254 254 254 254 254 254 254 254 254 254 254 254 254 254 252 252 252 249 249 249 248 248 248 249 249 249 250 250 250 255 255 255 255 255 255 253 253 253 252 252 252 252 252 252 252 252 252 253 253 253 253 253 253 253 253 253 253 253 253 254 254 254 254 254 254 254 254 254 254 254 254 255 255 255 255 255 255 253 253 253 253 253 253 254 254 254 254 254 254 254 254 254 254 254 254 255 255 255 255 255 255 255 255 255 255 255 255 255 255 255 255 255 255 255 255 255 255 255 255 255 255 255 255 255 255 254 254 254 254 254 254 254 254 254 254 254 254 254 254 254 254 254 254 254 254 254 254 254 254 254 254 254 254 254 254 254 254 254 254 254 254 254 254 254 254 254 254 254 254 254 254 254 254 253 253 253 253 253 253 252 252 252 251 251 251 250 250 250 249 249 249 248 248 248 248 248 248 251 251 251 249 249 249 239 239 239 234 234 234 193 193 193 245 245 245 226 226 226 183 183 183 203 203 203 185 185 185 149 149 149 140 140 140 214 214 214 219 219 219 167 167 167 183 183 183 226 225 225 206 204 205 225 223 224 215 213 214 229 227 228 206 204 205 132 130 131 62 60 61 28 26 27 56 54 55 95 93 94 147 145 146 206 204 205 171 169 170 130 128 129 104 103 103 214 213 213 215 215 215 
200 200 200 127 127 127 230 230 230 235 235 235 216 216 216 239 239 239 243 243 243 243 243 243 254 254 254 249 249 249 235 235 235 214 214 214 229 229 229 210 210 210 188 188 188 204 204 204 204 204 204 238 238 238 255 255 255 248 248 248 250 250 250 249 249 249 249 249 249 247 247 247 255 255 255 239 239 239 241 241 241 233 233 233 229 229 229 198 198 198 181 181 181 227 227 227 245 245 245 228 228 228 226 226 226 243 243 243 250 250 250 247 247 247 251 251 251 246 246 246 245 245 245 250 250 250 252 252 252 248 248 248 247 247 247 250 250 250 249 249 249 248 248 248 247 247 247 247 247 247 246 246 246 246 246 246 246 246 246 247 247 247 245 245 245 245 245 245 245 245 245 
249 249 249 247 247 247 233 233 233 246 246 246 246 246 246 252 252 252 240 240 240 244 244 244 238 238 238 246 246 245 244 244 243 244 244 244 247 247 247 249 249 249 246 246 246 243 243 244 241 241 242 236 236 237 230 230 232 225 225 227 132 131 135 160 159 163 241 241 244 245 245 248 247 247 249 251 251 252 251 251 251 250 250 250 250 250 250 250 250 250 250 250 250 251 251 251 251 251 251 253 253 253 252 252 252 251 251 251 251 251 251 251 251 251 251 251 251 248 248 248 246 246 246 246 246 246 233 233 233 227 227 227 236 236 236 245 245 245 246 246 246 247 247 247 251 251 251 253 253 253 253 253 253 254 254 254 254 254 254 255 255 255 255 255 255 255 255 255 254 254 254 254 254 254 254 254 254 254 254 254 254 254 254 254 254 254 254 254 254 254 254 254 254 254 254 255 255 255 255 255 255 255 255 255 255 255 255 255 255 255 255 255 255 255 255 255 255 255 255 253 253 253 253 253 253 253 253 253 252 252 252 252 252 252 252 252 252 251 251 251 251 251 251 252 252 252 252 252 252 252 252 252 252 252 252 252 252 252 252 252 252 252 252 252 252 252 252 253 253 253 253 253 253 253 253 253 253 253 253 253 253 253 253 253 253 253 253 253 253 253 253 254 254 254 254 254 254 254 254 254 254 254 254 254 254 254 254 254 254 254 254 254 254 254 254 254 254 254 254 254 254 254 254 254 254 254 254 254 254 254 254 254 254 254 254 254 254 254 254 254 254 254 254 254 254 254 254 254 254 254 254 254 254 254 254 254 254 254 254 254 254 254 254 255 255 255 255 255 255 254 254 254 255 255 255 255 255 255 255 255 255 254 254 254 253 253 253 255 255 255 255 255 255 245 245 245 240 240 240 248 248 248 250 250 250 245 245 245 244 244 244 242 242 242 240 240 240 207 207 207 208 208 208 206 206 206 225 225 225 165 165 165 187 187 187 213 213 213 184 184 184 231 231 231 202 202 202 195 195 195 226 226 226 136 136 136 181 181 181 191 191 191 231 231 231 230 230 230 213 213 213 228 228 228 178 178 178 54 54 54 85 85 85 117 117 117 97 97 97 48 48 48 125 125 125 180 180 180 189 189 189 180 180 180 143 142 142 157 156 156 191 189 190 
150 148 149 101 99 100 213 211 212 228 226 227 219 217 218 240 238 239 244 242 243 249 247 248 251 249 250 253 251 252 248 246 247 228 226 227 215 213 214 220 219 219 212 212 212 150 150 150 216 216 216 245 245 245 255 255 255 239 239 239 254 254 254 247 247 247 246 246 246 247 247 247 252 252 252 249 249 249 237 237 237 231 231 231 222 222 222 206 206 206 187 187 187 210 210 210 233 233 233 240 240 240 237 237 237 238 238 238 245 245 245 250 250 250 250 250 250 250 250 250 250 250 250 250 250 250 249 249 249 249 249 249 249 249 249 249 249 249 252 252 252 252 252 252 251 251 251 251 251 251 250 250 250 250 250 250 249 249 249 249 249 249 248 248 248 248 248 248 247 247 247 
236 236 236 234 234 234 238 238 238 209 209 209 228 228 228 236 236 236 232 232 232 237 237 237 242 242 242 244 244 243 243 243 242 244 244 244 245 245 245 246 246 246 246 246 246 246 246 247 246 246 248 230 230 232 228 228 230 223 222 226 111 110 115 193 192 197 245 244 249 240 239 244 244 243 247 248 248 249 248 248 248 248 248 248 248 248 248 248 248 248 249 249 249 250 250 250 251 251 251 253 253 253 252 252 252 251 251 251 251 251 251 252 252 252 251 251 251 250 250 250 248 248 248 243 243 243 238 238 238 233 233 233 232 232 232 238 238 238 246 246 246 248 248 248 246 246 246 250 250 250 251 251 251 253 253 253 254 254 254 255 255 255 254 254 254 253 253 253 253 253 253 254 254 254 254 254 254 254 254 254 254 254 254 254 254 254 254 254 254 254 254 254 254 254 254 255 255 255 255 255 255 255 255 255 255 255 255 255 255 255 255 255 255 255 255 255 255 255 255 253 253 253 253 253 253 253 253 253 253 253 253 252 252 252 252 252 252 251 251 251 251 251 251 252 252 252 252 252 252 252 252 252 252 252 252 252 252 252 252 252 252 252 252 252 252 252 252 253 253 253 253 253 253 253 253 253 253 253 253 253 253 253 253 253 253 253 253 253 253 253 253 254 254 254 254 254 254 254 254 254 254 254 254 254 254 254 254 254 254 254 254 254 254 254 254 254 254 254 254 254 254 254 254 254 254 254 254 254 254 254 254 254 254 254 254 254 254 254 254 254 254 254 254 254 254 254 254 254 254 254 254 254 254 254 254 254 254 254 254 254 254 254 254 255 255 255 254 254 254 254 254 254 254 254 254 255 255 255 255 255 255 254 254 254 252 252 252 252 252 252 250 250 250 250 250 250 252 252 252 250 250 250 245 245 245 243 243 243 245 245 245 239 239 239 178 178 178 186 186 186 198 198 198 208 208 208 180 180 180 196 196 196 219 219 219 168 168 168 216 216 216 240 240 240 239 239 239 220 220 220 215 215 215 182 182 182 180 180 180 189 189 189 205 205 205 216 216 216 214 214 214 210 210 210 179 179 179 50 50 50 102 102 102 125 125 125 70 70 70 39 39 39 139 139 139 178 178 178 179 179 179 180 180 180 135 135 135 85 83 84 118 116 117 
85 83 84 92 90 91 187 185 186 227 225 226 220 218 219 232 230 231 239 237 238 246 244 245 249 247 248 248 246 247 239 237 238 222 220 221 216 214 215 223 221 222 212 212 212 136 136 136 208 208 208 235 235 235 252 252 252 240 240 240 254 254 254 251 251 251 255 255 255 251 251 251 247 247 247 241 241 241 235 235 235 238 238 238 232 232 232 214 214 214 195 195 195 203 203 203 215 215 215 226 226 226 234 234 234 241 241 241 247 247 247 251 251 251 250 250 250 250 250 250 250 250 250 250 250 250 250 250 250 251 251 251 251 251 251 251 251 251 252 252 252 252 252 252 252 252 252 251 251 251 250 250 250 250 250 250 249 249 249 249 249 249 248 248 248 247 247 247 247 247 247 
237 237 237 243 243 243 237 237 237 195 195 195 204 204 204 217 217 217 213 213 213 249 249 249 241 241 241 243 243 242 244 244 243 245 245 245 244 244 244 243 243 243 243 243 243 244 244 245 244 244 246 232 232 234 225 225 227 196 195 199 86 85 90 211 210 215 234 233 238 237 236 241 248 247 251 245 245 246 245 245 245 245 245 245 246 246 246 247 247 247 248 248 248 249 249 249 250 250 250 252 252 252 251 251 251 251 251 251 251 251 251 253 253 253 253 253 253 251 251 251 250 250 250 244 244 244 247 247 247 242 242 242 233 233 233 235 235 235 247 247 247 250 250 250 245 245 245 247 247 247 248 248 248 251 251 251 253 253 253 254 254 254 253 253 253 252 252 252 251 251 251 254 254 254 254 254 254 254 254 254 254 254 254 254 254 254 254 254 254 254 254 254 254 254 254 255 255 255 255 255 255 255 255 255 255 255 255 255 255 255 255 255 255 255 255 255 255 255 255 253 253 253 253 253 253 253 253 253 253 253 253 252 252 252 252 252 252 252 252 252 252 252 252 253 253 253 253 253 253 253 253 253 253 253 253 253 253 253 253 253 253 253 253 253 253 253 253 253 253 253 253 253 253 253 253 253 253 253 253 253 253 253 253 253 253 253 253 253 253 253 253 254 254 254 254 254 254 254 254 254 254 254 254 254 254 254 254 254 254 254 254 254 254 254 254 254 254 254 254 254 254 254 254 254 254 254 254 254 254 254 254 254 254 254 254 254 254 254 254 254 254 254 254 254 254 254 254 254 254 254 254 254 254 254 254 254 254 254 254 254 254 254 254 255 255 255 254 254 254 253 253 253 254 254 254 254 254 254 254 254 254 252 252 252 251 251 251 248 248 248 242 242 242 247 247 247 253 253 253 245 245 245 239 239 239 242 242 242 244 244 244 163 163 163 143 143 143 188 188 188 224 224 224 217 217 217 215 215 215 236 236 236 241 241 241 210 210 210 255 255 255 240 240 240 245 245 245 229 229 229 211 211 211 211 211 211 185 185 185 202 202 202 200 200 200 215 215 215 215 215 215 192 192 192 183 183 183 44 44 44 70 70 70 113 113 113 65 65 65 71 71 71 164 164 164 168 168 168 159 159 159 164 164 164 102 102 102 41 39 40 156 154 155 162 160 161 
156 154 155 165 163 164 218 216 217 229 227 228 226 224 225 238 236 237 245 243 244 250 248 249 246 244 245 234 232 233 224 222 223 225 223 224 233 231 232 200 200 200 157 157 157 149 149 149 237 237 237 252 252 252 255 255 255 238 238 238 252 252 252 246 246 246 245 245 245 247 247 247 242 242 242 237 237 237 239 239 239 233 233 233 213 213 213 211 211 211 199 199 199 197 197 197 213 213 213 233 233 233 243 243 243 248 248 248 251 251 251 249 249 249 249 249 249 250 250 250 250 250 250 251 251 251 252 252 252 252 252 252 252 252 252 253 253 253 252 252 252 252 252 252 251 251 251 251 251 251 250 250 250 249 249 249 249 249 249 247 247 247 247 247 247 247 247 247 
244 244 244 245 245 245 248 248 248 209 209 209 152 152 152 213 213 213 193 193 193 230 230 230 242 242 242 242 242 241 246 246 245 248 248 248 246 246 246 242 242 242 240 240 240 237 237 238 234 234 236 230 230 232 217 217 219 159 158 162 117 116 121 218 217 222 223 222 227 239 238 243 246 245 249 243 243 244 244 244 244 244 244 244 245 245 245 246 246 246 248 248 248 249 249 249 250 250 250 251 251 251 250 250 250 250 250 250 251 251 251 253 253 253 254 254 254 252 252 252 251 251 251 245 245 245 247 247 247 242 242 242 235 235 235 234 234 234 241 241 241 246 246 246 246 246 246 245 245 245 246 246 246 247 247 247 249 249 249 250 250 250 252 252 252 252 252 252 253 253 253 254 254 254 254 254 254 254 254 254 254 254 254 254 254 254 254 254 254 254 254 254 254 254 254 254 254 254 254 254 254 254 254 254 254 254 254 254 254 254 254 254 254 254 254 254 254 254 254 253 253 253 253 253 253 253 253 253 253 253 253 253 253 253 253 253 253 253 253 253 253 253 253 253 253 253 253 253 253 253 253 253 253 253 253 253 253 253 253 253 253 253 253 253 253 253 253 253 253 253 253 253 253 253 253 253 253 253 253 253 253 253 253 253 253 253 253 253 253 253 253 254 254 254 254 254 254 254 254 254 254 254 254 254 254 254 254 254 254 254 254 254 254 254 254 254 254 254 254 254 254 254 254 254 254 254 254 254 254 254 254 254 254 254 254 254 254 254 254 254 254 254 254 254 254 254 254 254 254 254 254 254 254 254 254 254 254 254 254 254 254 254 254 254 254 254 253 253 253 252 252 252 252 252 252 253 253 253 253 253 253 251 251 251 249 249 249 250 250 250 241 241 241 242 242 242 244 244 244 239 239 239 242 242 242 244 244 244 236 236 236 137 137 137 135 135 135 202 202 202 226 226 226 230 230 230 242 242 242 217 217 217 195 195 195 238 238 238 241 241 241 245 245 245 249 249 249 242 242 242 224 224 224 190 190 190 173 173 173 209 209 209 206 206 206 216 216 216 210 210 210 197 197 197 200 200 200 81 81 81 42 42 42 39 39 39 58 58 58 110 110 110 181 181 181 180 180 180 189 189 189 205 205 205 142 142 142 79 77 78 172 170 171 
182 180 181 210 208 209 208 206 207 221 219 220 223 221 222 237 235 236 237 235 236 241 239 240 247 245 246 243 241 242 231 229 230 228 226 227 233 231 232 233 231 232 230 230 230 205 205 205 180 180 180 255 255 255 234 234 234 240 240 240 255 255 255 242 242 242 248 248 248 250 250 250 254 254 254 249 249 249 238 238 238 238 238 238 233 233 233 219 219 219 226 226 226 204 204 204 195 195 195 212 212 212 234 234 234 243 243 243 245 245 245 248 248 248 247 247 247 247 247 247 248 248 248 249 249 249 250 250 250 251 251 251 252 252 252 252 252 252 253 253 253 253 253 253 252 252 252 252 252 252 251 251 251 250 250 250 250 250 250 249 249 249 247 247 247 247 247 247 247 247 247 
244 244 244 234 234 234 255 255 255 224 224 224 125 125 125 205 205 205 193 193 193 190 190 190 244 244 244 239 239 238 245 245 244 248 248 248 245 245 245 241 241 241 239 239 239 233 233 234 227 227 229 217 217 219 197 197 199 138 137 141 196 195 200 225 224 229 222 221 226 243 242 247 234 233 237 243 243 244 243 243 243 244 244 244 245 245 245 246 246 246 248 248 248 250 250 250 251 251 251 250 250 250 250 250 250 250 250 250 251 251 251 253 253 253 254 254 254 252 252 252 251 251 251 246 246 246 240 240 240 236 236 236 236 236 236 234 234 234 232 232 232 237 237 237 245 245 245 245 245 245 244 244 244 244 244 244 245 245 245 247 247 247 250 250 250 253 253 253 255 255 255 254 254 254 254 254 254 254 254 254 254 254 254 254 254 254 254 254 254 254 254 254 254 254 254 254 254 254 254 254 254 254 254 254 254 254 254 254 254 254 254 254 254 254 254 254 254 254 254 253 253 253 253 253 253 253 253 253 253 253 253 253 253 253 253 253 253 254 254 254 254 254 254 253 253 253 253 253 253 253 253 253 253 253 253 253 253 253 253 253 253 253 253 253 253 253 253 253 253 253 253 253 253 253 253 253 253 253 253 253 253 253 253 253 253 253 253 253 253 253 253 254 254 254 254 254 254 254 254 254 254 254 254 254 254 254 254 254 254 254 254 254 254 254 254 254 254 254 254 254 254 254 254 254 254 254 254 254 254 254 254 254 254 254 254 254 254 254 254 254 254 254 254 254 254 254 254 254 254 254 254 254 254 254 254 254 254 254 254 254 254 254 254 253 253 253 252 252 252 251 251 251 251 251 251 252 252 252 251 251 251 249 249 249 247 247 247 252 252 252 247 247 247 242 242 242 239 239 239 243 243 243 248 248 248 236 236 236 213 213 213 212 212 212 125 125 125 221 221 221 217 217 217 245 245 245 232 232 232 233 233 233 216 216 216 242 242 242 233 233 233 255 255 255 251 251 251 249 249 249 243 243 243 205 205 205 192 192 192 204 204 204 204 204 204 206 206 206 208 208 208 213 213 213 209 209 209 162 162 162 99 99 99 101 101 101 147 147 147 183 183 183 201 201 201 194 194 194 187 187 187 187 187 187 142 142 142 80 78 79 168 166 167 
194 192 193 209 207 208 225 223 224 226 224 225 228 226 227 238 236 237 239 237 238 237 235 236 241 239 240 236 234 235 224 222 223 226 224 225 229 227 228 219 217 218 232 232 232 235 235 235 205 205 205 153 153 153 234 234 234 243 243 243 254 254 254 244 244 244 254 254 254 245 245 245 242 242 242 238 238 238 231 231 231 231 231 231 231 231 231 223 223 223 226 226 226 209 209 209 203 203 203 219 219 219 236 236 236 240 240 240 242 242 242 246 246 246 245 245 245 245 245 245 246 246 246 247 247 247 248 248 248 250 250 250 250 250 250 251 251 251 253 253 253 253 253 253 253 253 253 252 252 252 251 251 251 251 251 251 250 250 250 250 250 250 247 247 247 247 247 247 247 247 247 
247 247 247 251 251 251 245 245 245 244 244 244 188 188 188 183 183 183 210 210 210 206 206 206 236 236 236 235 235 234 238 238 237 236 236 236 230 230 230 230 230 230 232 232 232 229 229 230 222 222 224 212 212 214 165 165 167 133 132 136 237 236 241 209 208 213 217 216 221 244 243 248 235 235 238 242 242 243 242 242 242 243 243 243 244 244 244 245 245 245 247 247 247 249 249 249 250 250 250 250 250 250 249 249 249 249 249 249 250 250 250 252 252 252 253 253 253 251 251 251 250 250 250 249 249 249 240 240 240 236 236 236 239 239 239 237 237 237 230 230 230 232 232 232 242 242 242 243 243 243 243 243 243 243 243 243 244 244 244 247 247 247 250 250 250 253 253 253 255 255 255 254 254 254 254 254 254 254 254 254 254 254 254 254 254 254 254 254 254 254 254 254 254 254 254 254 254 254 254 254 254 254 254 254 254 254 254 254 254 254 254 254 254 254 254 254 254 254 254 253 253 253 253 253 253 253 253 253 253 253 253 254 254 254 254 254 254 254 254 254 254 254 254 254 254 254 254 254 254 254 254 254 254 254 254 254 254 254 254 254 254 254 254 254 254 254 254 253 253 253 253 253 253 253 253 253 253 253 253 253 253 253 253 253 253 253 253 253 253 253 253 254 254 254 254 254 254 254 254 254 254 254 254 254 254 254 254 254 254 254 254 254 254 254 254 254 254 254 254 254 254 254 254 254 254 254 254 254 254 254 254 254 254 254 254 254 254 254 254 254 254 254 254 254 254 254 254 254 254 254 254 254 254 254 254 254 254 254 254 254 254 254 254 252 252 252 251 251 251 250 250 250 250 250 250 250 250 250 250 250 250 247 247 247 245 245 245 243 243 243 247 247 247 238 238 238 236 236 236 249 249 249 241 241 241 211 211 211 190 190 190 218 218 218 121 121 121 204 204 204 192 192 192 168 168 168 191 191 191 238 238 238 247 247 247 255 255 255 254 254 254 251 251 251 240 240 240 249 249 249 250 250 250 231 231 231 176 176 176 214 214 214 208 208 208 206 206 206 214 214 214 214 214 214 191 191 191 208 208 208 174 174 174 179 179 179 197 197 197 198 198 198 197 197 197 206 206 206 184 184 184 179 179 179 169 169 169 36 34 35 
151 149 150 238 236 237 220 218 219 215 213 214 224 222 223 239 237 238 233 231 232 246 244 245 240 238 239 242 240 241 234 232 233 218 216 217 224 222 223 228 226 227 210 208 209 211 211 211 223 223 223 207 207 207 70 70 70 164 164 164 255 255 255 234 234 234 249 249 249 248 248 248 236 236 236 238 238 238 243 243 243 233 233 233 225 225 225 227 227 227 229 229 229 214 214 214 211 211 211 215 215 215 229 229 229 238 238 238 240 240 240 242 242 242 246 246 246 244 244 244 244 244 244 245 245 245 246 246 246 247 247 247 248 248 248 249 249 249 250 250 250 254 254 254 253 253 253 253 253 253 252 252 252 252 252 252 251 251 251 250 250 250 250 250 250 248 248 248 248 248 248 248 248 248 
251 251 251 255 255 255 232 232 232 255 255 255 253 253 253 200 200 200 216 216 216 227 227 227 225 225 225 232 232 231 228 228 227 215 215 215 203 203 203 204 204 204 215 215 215 217 217 218 212 212 214 208 208 210 128 128 130 151 150 154 228 227 232 196 195 200 216 215 220 240 239 244 242 241 245 241 241 242 241 241 241 241 241 241 242 242 242 243 243 243 245 245 245 246 246 246 247 247 247 249 249 249 248 248 248 248 248 248 249 249 249 251 251 251 251 251 251 250 250 250 248 248 248 248 248 248 243 243 243 239 239 239 236 236 236 233 233 233 229 229 229 228 228 228 229 229 229 239 239 239 240 240 240 243 243 243 246 246 246 249 249 249 252 252 252 253 253 253 254 254 254 254 254 254 254 254 254 254 254 254 254 254 254 254 254 254 254 254 254 254 254 254 254 254 254 253 253 253 253 253 253 253 253 253 253 253 253 253 253 253 253 253 253 253 253 253 253 253 253 253 253 253 253 253 253 253 253 253 254 254 254 254 254 254 254 254 254 255 255 255 255 255 255 254 254 254 254 254 254 254 254 254 254 254 254 254 254 254 254 254 254 254 254 254 254 254 254 253 253 253 253 253 253 253 253 253 253 253 253 253 253 253 253 253 253 253 253 253 253 253 253 254 254 254 254 254 254 254 254 254 254 254 254 254 254 254 254 254 254 254 254 254 254 254 254 254 254 254 254 254 254 254 254 254 254 254 254 254 254 254 254 254 254 254 254 254 254 254 254 254 254 254 254 254 254 254 254 254 254 254 254 254 254 254 254 254 254 254 254 254 254 254 254 252 252 252 250 250 250 249 249 249 249 249 249 249 249 249 248 248 248 246 246 246 244 244 244 235 235 235 244 244 244 233 233 233 236 236 236 251 251 251 226 226 226 193 193 193 199 199 199 220 220 220 202 202 202 200 200 200 167 167 167 146 146 146 204 204 204 239 239 239 249 249 249 244 244 244 245 245 245 245 245 245 242 242 242 255 255 255 248 248 248 222 222 222 144 144 144 208 208 208 206 206 206 212 212 212 218 218 218 198 198 198 182 182 182 199 199 199 187 187 187 206 206 206 193 193 193 186 186 186 189 189 189 206 206 206 180 180 180 180 180 180 183 183 183 75 73 74 77 75 76 
181 179 180 233 231 232 226 224 225 221 219 220 232 230 231 242 240 241 247 245 246 240 238 239 243 241 242 231 229 230 211 209 210 222 220 221 233 231 232 214 212 213 224 224 224 205 205 205 244 244 244 169 169 169 89 89 89 234 234 234 253 253 253 244 244 244 249 249 249 245 245 245 252 252 252 241 241 241 195 195 195 165 165 165 186 186 186 222 222 222 207 207 207 216 216 216 229 229 229 239 239 239 242 242 242 244 244 244 246 246 246 248 248 248 245 245 245 245 245 245 246 246 246 247 247 247 248 248 248 248 248 248 249 249 249 249 249 249 254 254 254 254 254 254 253 253 253 252 252 252 252 252 252 251 251 251 251 251 251 250 250 250 249 249 249 249 249 249 249 249 249 
247 247 247 245 245 245 249 249 249 250 250 250 247 247 247 253 253 253 205 205 205 198 198 198 226 226 226 232 232 231 220 220 219 198 198 198 179 179 179 181 181 181 196 196 196 204 204 205 201 201 203 198 198 200 101 101 103 181 180 184 218 217 222 207 206 211 227 226 231 234 233 238 241 241 244 240 240 241 240 240 240 240 240 240 241 241 241 242 242 242 243 243 243 244 244 244 245 245 245 249 249 249 248 248 248 248 248 248 249 249 249 250 250 250 250 250 250 249 249 249 247 247 247 239 239 239 241 241 241 236 236 236 225 225 225 221 221 221 224 224 224 220 220 220 211 211 211 235 235 235 239 239 239 244 244 244 249 249 249 253 253 253 253 253 253 252 252 252 251 251 251 254 254 254 254 254 254 254 254 254 254 254 254 254 254 254 254 254 254 254 254 254 254 254 254 253 253 253 253 253 253 253 253 253 253 253 253 253 253 253 253 253 253 253 253 253 253 253 253 253 253 253 253 253 253 253 253 253 254 254 254 254 254 254 255 255 255 255 255 255 255 255 255 254 254 254 254 254 254 254 254 254 254 254 254 254 254 254 254 254 254 254 254 254 254 254 254 253 253 253 253 253 253 253 253 253 253 253 253 253 253 253 253 253 253 253 253 253 253 253 253 254 254 254 254 254 254 254 254 254 254 254 254 254 254 254 254 254 254 254 254 254 254 254 254 254 254 254 254 254 254 254 254 254 254 254 254 254 254 254 254 254 254 254 254 254 254 254 254 254 254 254 254 254 254 254 254 254 254 254 254 254 254 254 254 254 254 254 254 254 254 254 254 251 251 251 250 250 250 249 249 249 248 248 248 249 249 249 248 248 248 245 245 245 243 243 243 238 238 238 246 246 246 232 232 232 238 238 238 255 255 255 217 217 217 192 192 192 227 227 227 226 226 226 243 243 243 161 161 161 100 100 100 204 204 204 235 235 235 249 249 249 246 246 246 255 255 255 239 239 239 255 255 255 249 249 249 254 254 254 251 251 251 239 239 239 212 212 212 175 175 175 189 189 189 209 209 209 214 214 214 187 187 187 197 197 197 183 183 183 166 166 166 185 185 185 170 170 170 181 181 181 191 191 191 204 204 204 184 184 184 192 192 192 187 187 187 152 150 151 
72 70 71 158 156 157 220 218 219 194 192 193 216 214 215 237 235 236 241 239 240 238 236 237 233 231 232 238 236 237 224 222 223 202 200 201 217 215 216 235 233 234 219 217 218 210 210 210 210 210 210 201 201 201 193 193 193 168 168 168 243 243 243 251 251 251 249 249 249 247 247 247 246 246 246 241 241 241 191 191 191 97 97 97 49 49 49 103 103 103 182 182 182 208 208 208 224 224 224 240 240 240 246 246 246 246 246 246 248 248 248 249 249 249 249 249 249 246 246 246 246 246 246 247 247 247 248 248 248 248 248 248 249 249 249 249 249 249 250 250 250 254 254 254 254 254 254 253 253 253 253 253 253 252 252 252 251 251 251 251 251 251 251 251 251 250 250 250 250 250 250 249 249 249 
251 251 251 250 250 250 248 248 248 247 247 247 247 247 247 245 245 245 236 236 236 223 223 223 213 213 213 224 224 223 214 214 213 208 208 208 181 181 181 187 187 187 167 167 167 193 193 194 189 189 191 143 143 145 50 50 52 180 179 183 231 230 235 219 218 223 187 186 191 234 233 238 240 239 243 242 242 243 232 232 232 232 232 232 237 237 237 234 234 234 241 241 241 242 242 242 237 237 237 244 244 244 248 248 248 249 249 249 247 247 247 246 246 246 248 248 248 247 247 247 244 244 244 233 233 233 238 238 238 233 233 233 220 220 220 217 217 217 224 224 224 221 221 221 210 210 210 233 233 233 241 241 241 249 249 249 252 252 252 254 254 254 255 255 255 254 254 254 251 251 251 254 254 254 254 254 254 254 254 254 254 254 254 254 254 254 254 254 254 254 254 254 254 254 254 254 254 254 254 254 254 254 254 254 254 254 254 254 254 254 254 254 254 254 254 254 254 254 254 254 254 254 254 254 254 254 254 254 254 254 254 254 254 254 254 254 254 254 254 254 254 254 254 254 254 254 254 254 254 254 254 254 254 254 254 254 254 254 254 254 254 254 254 254 254 254 254 254 254 254 254 254 254 254 254 254 254 254 254 254 254 254 254 254 254 254 254 254 254 254 254 254 254 254 254 254 254 254 254 254 254 254 254 254 254 254 254 254 254 254 254 254 254 254 254 255 255 255 255 255 255 255 255 255 255 255 255 255 255 255 255 255 255 254 254 254 254 254 254 253 253 253 254 254 254 254 254 254 254 254 254 254 254 254 253 253 253 252 252 252 251 251 251 247 247 247 249 249 249 255 255 255 252 252 252 243 243 243 245 245 245 250 250 250 245 245 245 243 243 243 231 231 231 253 253 253 243 243 243 249 249 249 205 205 205 218 218 218 227 227 227 224 224 224 184 184 184 170 170 170 204 204 204 240 240 240 246 246 246 245 245 245 251 251 251 249 249 249 249 249 249 250 250 250 252 252 252 253 253 253 250 250 250 246 246 246 242 242 242 133 133 133 227 227 227 214 214 214 215 215 215 209 209 209 179 179 179 158 158 158 166 166 166 183 183 183 191 191 191 187 187 187 179 179 179 188 188 188 173 173 173 188 188 188 182 182 182 176 174 175 93 91 92 
116 114 115 173 171 172 140 138 139 183 181 182 232 230 231 236 234 235 226 224 225 230 228 229 242 240 241 220 218 219 225 223 224 218 216 217 219 217 218 225 223 224 203 203 203 190 190 190 163 163 163 124 124 124 168 168 168 248 248 248 249 249 249 244 244 244 243 243 243 246 246 246 236 236 236 164 164 164 196 196 196 240 240 240 228 228 228 219 219 219 223 223 223 229 229 229 239 239 239 248 248 248 251 251 251 250 250 250 249 249 249 250 250 250 246 246 246 247 247 247 248 248 248 247 247 247 247 247 247 249 249 249 252 252 252 254 254 254 253 253 253 253 253 253 253 253 253 253 253 253 253 253 253 253 253 253 253 253 253 253 253 253 251 251 251 251 251 251 251 251 251 
251 251 251 251 251 251 249 249 249 248 248 248 249 249 249 250 250 250 247 247 247 239 239 239 233 233 233 232 232 231 208 208 207 179 179 179 179 179 179 190 190 190 184 184 184 197 197 198 174 174 176 110 110 112 51 51 53 147 146 150 230 229 234 231 230 235 201 200 205 219 218 223 245 245 248 241 241 242 214 214 214 230 230 230 229 229 229 228 228 228 236 236 236 242 242 242 243 243 243 244 244 244 247 247 247 248 248 248 247 247 247 249 249 249 251 251 251 250 250 250 246 246 246 236 236 236 236 236 236 229 229 229 218 218 218 216 216 216 221 221 221 222 222 222 216 216 216 233 233 233 242 242 242 249 249 249 251 251 251 251 251 251 253 253 253 255 255 255 254 254 254 254 254 254 254 254 254 254 254 254 254 254 254 254 254 254 254 254 254 254 254 254 254 254 254 254 254 254 254 254 254 254 254 254 254 254 254 254 254 254 254 254 254 254 254 254 254 254 254 254 254 254 254 254 254 254 254 254 254 254 254 254 254 254 254 254 254 254 254 254 254 254 254 254 254 254 254 254 254 254 254 254 254 254 254 254 254 254 254 254 254 254 254 254 254 254 254 254 254 254 254 254 254 254 254 254 254 254 254 254 254 254 254 254 254 254 254 254 254 254 254 254 254 254 254 254 254 254 254 254 254 254 254 254 254 254 254 254 254 254 254 254 254 254 254 253 253 253 254 254 254 254 254 254 255 255 255 254 254 254 254 254 254 253 253 253 253 253 253 253 253 253 253 253 253 253 253 253 253 253 253 253 253 253 252 252 252 251 251 251 250 250 250 253 253 253 246 246 246 245 245 245 248 248 248 247 247 247 246 246 246 243 243 243 235 235 235 237 237 237 234 234 234 247 247 247 223 223 223 233 233 233 212 212 212 223 223 223 216 216 216 166 166 166 181 181 181 210 210 210 236 236 236 243 243 243 239 239 239 242 242 242 253 253 253 249 249 249 249 249 249 250 250 250 251 251 251 252 252 252 250 250 250 247 247 247 244 244 244 185 185 185 207 207 207 236 236 236 213 213 213 168 168 168 193 193 193 209 209 209 193 193 193 175 175 175 177 177 177 155 155 155 167 167 167 182 182 182 170 170 170 165 165 165 146 146 146 172 170 171 
135 133 134 92 90 91 129 127 128 214 212 213 210 208 209 222 220 221 210 208 209 214 212 213 243 241 242 225 223 224 225 223 224 222 220 221 190 188 189 222 220 221 195 193 194 179 179 179 135 135 135 129 129 129 207 207 207 235 235 235 235 235 235 238 238 238 253 253 253 250 250 250 254 254 254 180 180 180 62 62 62 215 215 215 236 236 236 255 255 255 230 230 230 233 233 233 237 237 237 244 244 244 250 250 250 252 252 252 252 252 252 252 252 252 253 253 253 249 249 249 249 249 249 250 250 250 249 249 249 248 248 248 248 248 248 250 250 250 253 253 253 253 253 253 253 253 253 253 253 253 253 253 253 253 253 253 253 253 253 253 253 253 253 253 253 252 252 252 252 252 252 252 252 252 
251 251 251 248 248 248 246 246 246 244 244 244 245 245 245 248 248 248 249 249 249 247 247 247 244 244 244 246 246 245 219 219 218 176 176 176 190 190 190 199 199 199 199 199 199 204 204 205 157 157 159 75 75 77 75 75 77 130 129 133 226 225 230 237 236 241 222 221 226 206 205 210 225 225 228 233 233 234 188 188 188 234 234 234 230 230 230 231 231 231 234 234 234 242 242 242 245 245 245 243 243 243 245 245 245 245 245 245 245 245 245 249 249 249 252 252 252 249 249 249 244 244 244 239 239 239 233 233 233 224 224 224 218 218 218 216 216 216 216 216 216 217 217 217 218 218 218 231 231 231 241 241 241 249 249 249 250 250 250 248 248 248 250 250 250 255 255 255 255 255 255 254 254 254 254 254 254 254 254 254 254 254 254 254 254 254 254 254 254 254 254 254 254 254 254 254 254 254 254 254 254 254 254 254 254 254 254 254 254 254 254 254 254 254 254 254 254 254 254 254 254 254 254 254 254 254 254 254 254 254 254 254 254 254 254 254 254 254 254 254 254 254 254 254 254 254 254 254 254 254 254 254 254 254 254 254 254 254 254 254 254 253 253 253 253 253 253 254 254 254 254 254 254 254 254 254 254 254 254 254 254 254 254 254 254 254 254 254 254 254 254 254 254 254 254 254 254 254 254 254 254 254 254 254 254 254 254 254 254 254 254 254 254 254 254 252 252 252 253 253 253 253 253 253 254 254 254 254 254 254 253 253 253 253 253 253 253 253 253 252 252 252 252 252 252 252 252 252 252 252 252 251 251 251 250 250 250 249 249 249 248 248 248 255 255 255 248 248 248 244 244 244 246 246 246 249 249 249 248 248 248 245 245 245 242 242 242 250 250 250 235 235 235 226 226 226 188 188 188 189 189 189 177 177 177 197 197 197 198 198 198 184 184 184 209 209 209 233 233 233 241 241 241 241 241 241 244 244 244 248 248 248 248 248 248 250 250 250 249 249 249 249 249 249 250 250 250 251 251 251 251 251 251 249 249 249 247 247 247 245 245 245 167 167 167 218 218 218 222 222 222 185 185 185 195 195 195 202 202 202 209 209 209 164 164 164 130 130 130 166 166 166 161 161 161 160 160 160 172 172 172 179 179 179 164 164 164 191 189 190 138 136 137 
113 111 112 154 152 153 204 202 203 182 180 181 171 169 170 151 149 150 222 220 221 217 215 216 230 228 229 224 222 223 209 207 208 180 178 179 199 197 198 211 209 210 175 175 175 115 115 115 166 166 166 244 244 244 252 252 252 234 234 234 243 243 243 247 247 247 249 249 249 234 234 234 105 105 105 96 96 96 240 240 240 245 245 245 245 245 245 243 243 243 237 237 237 240 240 240 244 244 244 246 246 246 247 247 247 249 249 249 250 250 250 251 251 251 252 252 252 252 252 252 252 252 252 251 251 251 249 249 249 249 249 249 250 250 250 252 252 252 254 254 254 254 254 254 254 254 254 254 254 254 254 254 254 254 254 254 254 254 254 254 254 254 253 253 253 253 253 253 253 253 253 
251 251 251 248 248 248 246 246 246 243 243 243 243 243 243 244 244 244 244 244 244 243 243 243 242 242 242 247 247 246 237 237 236 207 207 207 205 205 205 216 216 216 210 210 210 222 222 223 154 154 156 90 90 92 133 133 135 164 163 167 234 233 238 239 238 243 239 238 243 217 216 221 198 197 201 211 211 212 159 159 159 232 232 232 233 233 233 237 237 237 233 233 233 237 237 237 239 239 239 241 241 241 242 242 242 242 242 242 243 243 243 246 246 246 249 249 249 245 245 245 239 239 239 237 237 237 228 228 228 222 222 222 221 221 221 218 218 218 210 210 210 207 207 207 210 210 210 227 227 227 239 239 239 250 250 250 251 251 251 248 248 248 249 249 249 254 254 254 255 255 255 253 253 253 253 253 253 253 253 253 253 253 253 253 253 253 253 253 253 253 253 253 253 253 253 253 253 253 253 253 253 253 253 253 253 253 253 253 253 253 253 253 253 253 253 253 253 253 253 254 254 254 254 254 254 254 254 254 254 254 254 254 254 254 254 254 254 254 254 254 254 254 254 254 254 254 254 254 254 254 254 254 253 253 253 253 253 253 253 253 253 253 253 253 253 253 253 253 253 253 253 253 253 253 253 253 253 253 253 253 253 253 253 253 253 253 253 253 253 253 253 253 253 253 253 253 253 253 253 253 253 253 253 253 253 253 253 253 253 253 253 253 253 253 253 253 253 253 253 253 253 254 254 254 254 254 254 254 254 254 253 253 253 253 253 253 252 252 252 251 251 251 251 251 251 250 250 250 250 250 250 249 249 249 248 248 248 247 247 247 246 246 246 247 247 247 251 251 251 247 247 247 243 243 243 246 246 246 248 248 248 245 245 245 245 245 245 241 241 241 194 194 194 170 170 170 165 165 165 197 197 197 196 196 196 207 207 207 206 206 206 235 235 235 237 237 237 234 234 234 229 229 229 237 237 237 250 250 250 252 252 252 246 246 246 251 251 251 249 249 249 248 248 248 249 249 249 250 250 250 252 252 252 251 251 251 251 251 251 251 251 251 166 166 166 206 206 206 234 234 234 247 247 247 218 218 218 199 199 199 244 244 244 220 220 220 44 44 44 124 124 124 155 155 155 155 155 155 124 124 124 116 116 116 142 142 142 172 170 171 167 165 166 
144 142 143 144 142 143 123 121 122 148 146 147 104 102 103 168 166 167 240 238 239 228 226 227 252 250 251 224 222 223 196 194 195 177 175 176 188 186 187 211 209 210 162 162 162 93 93 93 212 212 212 223 223 223 229 229 229 242 242 242 246 246 246 241 241 241 239 239 239 200 200 200 109 109 109 217 217 217 251 251 251 251 251 251 231 231 231 241 241 241 236 236 236 241 241 241 244 244 244 244 244 244 245 245 245 247 247 247 248 248 248 247 247 247 252 252 252 253 253 253 253 253 253 253 253 253 251 251 251 250 250 250 251 251 251 253 253 253 254 254 254 254 254 254 254 254 254 254 254 254 254 254 254 254 254 254 254 254 254 254 254 254 255 255 255 254 254 254 254 254 254 
251 251 251 251 251 251 250 250 250 248 248 248 247 247 247 246 246 246 245 245 245 242 242 242 240 240 240 238 238 237 241 241 240 233 233 233 198 198 198 230 230 230 220 220 220 236 236 237 153 153 155 165 165 167 197 197 199 216 215 219 251 250 255 242 241 246 241 240 245 242 241 246 204 203 207 191 191 192 140 140 140 217 217 217 224 224 224 231 231 231 228 228 228 232 232 232 235 235 235 241 241 241 243 243 243 243 243 243 243 243 243 244 244 244 246 246 246 241 241 241 235 235 235 232 232 232 225 225 225 222 222 222 226 226 226 221 221 221 207 207 207 199 199 199 199 199 199 222 222 222 236 236 236 249 249 249 252 252 252 250 250 250 250 250 250 252 252 252 254 254 254 253 253 253 253 253 253 253 253 253 253 253 253 253 253 253 253 253 253 253 253 253 253 253 253 253 253 253 253 253 253 253 253 253 253 253 253 253 253 253 253 253 253 253 253 253 253 253 253 254 254 254 254 254 254 254 254 254 254 254 254 254 254 254 254 254 254 254 254 254 254 254 254 254 254 254 254 254 254 254 254 254 253 253 253 253 253 253 252 252 252 252 252 252 252 252 252 253 253 253 253 253 253 253 253 253 253 253 253 253 253 253 253 253 253 253 253 253 253 253 253 253 253 253 253 253 253 253 253 253 253 253 253 253 253 253 253 253 253 253 253 253 253 253 253 254 254 254 254 254 254 254 254 254 254 254 254 254 254 254 253 253 253 252 252 252 252 252 252 248 248 248 248 248 248 248 248 248 248 248 248 247 247 247 246 246 246 245 245 245 244 244 244 241 241 241 250 250 250 244 244 244 239 239 239 247 247 247 243 243 243 226 226 226 218 218 218 185 185 185 195 195 195 218 218 218 218 218 218 211 211 211 196 196 196 224 224 224 254 254 254 230 230 230 233 233 233 236 236 236 238 238 238 239 239 239 242 242 242 247 247 247 251 251 251 252 252 252 250 250 250 248 248 248 249 249 249 251 251 251 252 252 252 253 253 253 252 252 252 241 241 241 222 222 222 233 233 233 227 227 227 249 249 249 225 225 225 201 201 201 210 210 210 213 213 213 66 66 66 54 54 54 38 38 38 74 74 74 129 129 129 143 143 143 155 155 155 161 159 160 174 172 173 
159 157 158 125 123 124 28 26 27 104 102 103 143 141 142 218 216 217 220 218 219 252 250 251 240 238 239 227 225 226 213 211 212 182 180 181 213 211 212 184 182 183 137 137 137 59 59 59 173 173 173 220 220 220 235 235 235 246 246 246 236 236 236 247 247 247 232 232 232 193 193 193 185 185 185 250 250 250 249 249 249 246 246 246 249 249 249 235 235 235 235 235 235 241 241 241 246 246 246 246 246 246 246 246 246 249 249 249 250 250 250 247 247 247 250 250 250 251 251 251 253 253 253 253 253 253 253 253 253 253 253 253 254 254 254 255 255 255 254 254 254 254 254 254 254 254 254 254 254 254 254 254 254 254 254 254 254 254 254 254 254 254 255 255 255 255 255 255 255 255 255 
251 251 251 249 249 249 249 249 249 249 249 249 248 248 248 246 246 246 244 244 244 242 242 242 240 240 240 241 241 240 241 241 240 239 239 239 177 177 177 229 229 229 222 222 222 226 226 227 149 149 151 235 235 237 232 232 234 240 239 243 255 254 255 243 242 247 232 231 236 252 251 255 230 229 233 198 198 199 154 154 154 207 207 207 216 216 216 222 222 222 225 225 225 233 233 233 240 240 240 238 238 238 243 243 243 245 245 245 243 243 243 242 242 242 242 242 242 238 238 238 234 234 234 229 229 229 224 224 224 224 224 224 227 227 227 223 223 223 211 211 211 202 202 202 200 200 200 220 220 220 234 234 234 247 247 247 252 252 252 251 251 251 251 251 251 252 252 252 251 251 251 253 253 253 253 253 253 253 253 253 253 253 253 253 253 253 253 253 253 253 253 253 253 253 253 253 253 253 253 253 253 253 253 253 253 253 253 253 253 253 253 253 253 253 253 253 253 253 253 254 254 254 254 254 254 254 254 254 254 254 254 254 254 254 254 254 254 254 254 254 254 254 254 254 254 254 254 254 254 254 254 254 253 253 253 252 252 252 252 252 252 251 251 251 251 251 251 253 253 253 253 253 253 253 253 253 253 253 253 253 253 253 253 253 253 253 253 253 253 253 253 253 253 253 253 253 253 253 253 253 253 253 253 253 253 253 253 253 253 253 253 253 253 253 253 254 254 254 254 254 254 254 254 254 253 253 253 252 252 252 251 251 251 250 250 250 249 249 249 245 245 245 245 245 245 246 246 246 246 246 246 245 245 245 245 245 245 244 244 244 244 244 244 247 247 247 249 249 249 240 240 240 242 242 242 251 251 251 228 228 228 197 197 197 193 193 193 219 219 219 227 227 227 232 232 232 225 225 225 229 229 229 233 233 233 234 234 234 226 226 226 227 227 227 226 226 226 232 232 232 242 242 242 245 245 245 242 242 242 245 245 245 252 252 252 252 252 252 251 251 251 249 249 249 250 250 250 252 252 252 253 253 253 253 253 253 252 252 252 252 252 252 242 242 242 237 237 237 230 230 230 231 231 231 223 223 223 199 199 199 146 146 146 181 181 181 135 135 135 42 42 42 63 63 63 128 128 128 159 159 159 109 109 109 91 91 91 183 181 182 168 166 167 
171 169 170 153 151 152 24 22 23 19 17 18 160 158 159 202 200 201 227 225 226 229 227 228 225 223 224 233 231 232 234 232 233 180 178 179 171 169 170 168 166 167 159 159 159 109 109 109 133 133 133 216 216 216 241 241 241 250 250 250 241 241 241 245 245 245 230 230 230 202 202 202 211 211 211 242 242 242 249 249 249 249 249 249 242 242 242 242 242 242 231 231 231 239 239 239 244 244 244 242 242 242 243 243 243 247 247 247 248 248 248 244 244 244 247 247 247 250 250 250 252 252 252 253 253 253 254 254 254 254 254 254 255 255 255 255 255 255 255 255 255 255 255 255 255 255 255 255 255 255 255 255 255 255 255 255 255 255 255 255 255 255 255 255 255 255 255 255 255 255 255 
251 251 251 247 247 247 247 247 247 246 246 246 244 244 244 242 242 242 241 241 241 240 240 240 240 240 240 245 245 244 242 242 241 237 237 237 166 166 166 218 218 218 222 222 222 214 214 215 177 177 179 250 250 252 244 244 246 240 239 243 250 249 254 240 239 244 237 236 241 244 243 248 243 243 246 224 224 225 193 193 193 210 210 210 218 218 218 219 219 219 222 222 222 229 229 229 236 236 236 230 230 230 238 238 238 242 242 242 240 240 240 237 237 237 236 236 236 234 234 234 232 232 232 228 228 228 226 226 226 225 225 225 225 225 225 224 224 224 220 220 220 216 216 216 213 213 213 221 221 221 232 232 232 244 244 244 248 248 248 250 250 250 252 252 252 252 252 252 251 251 251 252 252 252 252 252 252 252 252 252 252 252 252 252 252 252 252 252 252 252 252 252 252 252 252 252 252 252 252 252 252 252 252 252 252 252 252 252 252 252 252 252 252 252 252 252 252 252 252 254 254 254 254 254 254 254 254 254 254 254 254 254 254 254 254 254 254 254 254 254 254 254 254 254 254 254 254 254 254 253 253 253 253 253 253 252 252 252 251 251 251 251 251 251 250 250 250 252 252 252 252 252 252 252 252 252 252 252 252 252 252 252 252 252 252 252 252 252 252 252 252 252 252 252 252 252 252 252 252 252 252 252 252 252 252 252 252 252 252 252 252 252 252 252 252 253 253 253 253 253 253 253 253 253 251 251 251 250 250 250 248 248 248 246 246 246 245 245 245 242 242 242 243 243 243 243 243 243 244 244 244 244 244 244 244 244 244 244 244 244 243 243 243 246 246 246 242 242 242 236 236 236 244 244 244 238 238 238 192 192 192 175 175 175 210 210 210 228 228 228 238 238 238 238 238 238 228 228 228 224 224 224 234 234 234 241 241 241 240 240 240 242 242 242 233 233 233 228 228 228 234 234 234 243 243 243 247 247 247 248 248 248 249 249 249 252 252 252 251 251 251 250 250 250 251 251 251 253 253 253 254 254 254 253 253 253 251 251 251 254 254 254 232 232 232 225 225 225 236 236 236 222 222 222 220 220 220 207 207 207 183 183 183 79 79 79 162 162 162 159 159 159 111 111 111 111 111 111 128 128 128 119 119 119 133 133 133 181 179 180 
198 196 197 162 160 161 133 131 132 115 113 114 9 7 8 84 82 83 134 132 133 227 225 226 210 208 209 224 222 223 214 212 213 211 209 210 153 151 152 126 124 125 182 180 181 207 207 207 201 201 201 171 171 171 171 171 171 222 222 222 248 248 248 253 253 253 239 239 239 236 236 236 199 199 199 185 185 185 252 252 252 250 250 250 253 253 253 228 228 228 247 247 247 232 232 232 240 240 240 242 242 242 237 237 237 237 237 237 244 244 244 246 246 246 242 242 242 247 247 247 249 249 249 252 252 252 254 254 254 254 254 254 254 254 254 255 255 255 255 255 255 255 255 255 255 255 255 255 255 255 255 255 255 255 255 255 255 255 255 255 255 255 255 255 255 255 255 255 255 255 255 255 255 255 
251 251 251 250 250 250 249 249 249 247 247 247 244 244 244 241 241 241 240 240 240 241 241 241 241 241 241 237 237 236 237 237 237 234 234 234 169 169 169 211 211 211 227 227 228 218 218 219 225 225 227 234 234 236 253 253 255 241 240 244 242 241 245 241 240 244 255 254 255 237 236 240 239 239 241 243 243 244 221 221 221 216 216 216 223 223 223 217 217 217 215 215 215 216 216 216 219 219 219 222 222 222 231 231 231 238 238 238 236 236 236 231 231 231 230 230 230 230 230 230 230 230 230 229 229 229 228 228 228 225 225 225 222 222 222 223 223 223 227 227 227 229 229 229 228 228 228 223 223 223 232 232 232 241 241 241 245 245 245 249 249 249 253 253 253 253 253 253 251 251 251 252 252 252 252 252 252 252 252 252 252 252 252 252 252 252 252 252 252 252 252 252 252 252 252 252 252 252 252 252 252 252 252 252 252 252 252 252 252 252 252 252 252 252 252 252 252 252 252 254 254 254 254 254 254 254 254 254 254 254 254 254 254 254 254 254 254 254 254 254 254 254 254 254 254 254 254 254 254 253 253 253 253 253 253 252 252 252 251 251 251 250 250 250 250 250 250 252 252 252 252 252 252 252 252 252 252 252 252 252 252 252 252 252 252 252 252 252 252 252 252 252 252 252 252 252 252 252 252 252 252 252 252 252 252 252 252 252 252 252 252 252 252 252 252 252 252 252 252 252 252 251 251 251 249 249 249 247 247 247 245 245 245 243 243 243 242 242 242 241 241 241 241 241 241 242 242 242 243 243 243 244 244 244 244 244 244 244 244 244 244 244 244 234 234 234 230 230 230 230 230 230 240 240 240 213 213 213 151 151 151 162 162 162 246 246 246 241 241 241 238 238 238 237 237 237 244 244 244 240 240 240 235 235 235 234 234 234 242 242 242 232 232 232 234 234 234 235 235 235 234 234 234 237 237 237 243 243 243 249 249 249 251 251 251 252 252 252 252 252 252 251 251 251 252 252 252 254 254 254 254 254 254 252 252 252 251 251 251 250 250 250 253 253 253 239 239 239 213 213 213 171 171 171 173 173 173 181 181 181 230 230 230 151 151 151 117 117 117 189 189 189 132 132 132 147 147 147 135 135 135 117 117 117 134 134 134 179 177 178 
179 177 178 142 140 141 97 95 96 144 142 143 84 82 83 82 80 81 54 52 53 148 146 147 208 206 207 195 193 194 171 169 170 172 170 171 140 138 139 188 186 187 235 233 234 223 223 223 231 231 231 225 225 225 120 120 120 208 208 208 236 236 236 252 252 252 244 244 244 245 245 245 191 191 191 179 179 179 247 247 247 245 245 245 245 245 245 248 248 248 238 238 238 239 239 239 245 245 245 245 245 245 237 237 237 237 237 237 245 245 245 248 248 248 245 245 245 247 247 247 250 250 250 252 252 252 254 254 254 253 253 253 253 253 253 254 254 254 254 254 254 255 255 255 255 255 255 255 255 255 255 255 255 255 255 255 255 255 255 255 255 255 255 255 255 255 255 255 255 255 255 254 254 254 
247 247 247 248 248 248 246 246 246 246 246 246 246 246 246 242 242 242 237 237 237 236 236 236 239 239 239 240 240 241 234 234 235 233 233 234 121 121 122 220 220 221 223 223 224 217 217 219 229 229 231 247 247 249 247 247 249 246 246 248 245 245 247 243 243 245 241 241 243 240 240 242 239 239 241 237 237 239 223 223 224 223 223 224 203 203 204 199 199 200 211 211 212 206 206 207 218 218 219 232 232 233 238 238 239 240 240 241 224 224 225 239 239 240 222 222 223 224 224 225 232 232 233 224 224 224 224 224 224 223 223 223 221 221 221 220 220 220 223 223 223 230 230 230 236 236 236 223 223 223 229 229 229 232 232 232 248 248 248 253 253 253 244 244 244 251 251 251 248 248 248 252 252 252 252 252 252 252 252 252 252 252 252 252 252 252 252 252 252 252 252 252 252 252 252 254 254 254 254 254 254 254 254 254 253 253 253 253 253 253 253 253 253 252 252 252 252 252 252 253 253 253 253 253 253 253 253 253 254 254 254 254 254 254 253 253 253 253 253 253 252 252 252 248 248 248 248 248 248 248 248 248 248 248 248 248 248 248 248 248 248 248 248 248 248 248 248 247 247 247 252 252 252 250 250 250 249 249 249 254 254 254 251 251 251 244 244 244 247 247 247 252 252 252 252 252 252 251 251 251 251 251 251 250 250 250 251 251 251 251 251 251 252 252 252 247 246 246 253 251 252 250 248 249 244 242 243 241 239 240 255 253 254 227 225 226 251 249 250 237 235 236 242 240 241 238 236 237 251 249 250 245 243 244 234 232 233 245 243 244 229 228 228 217 217 217 161 161 161 163 163 163 153 153 153 136 136 136 153 153 153 185 185 185 245 245 245 240 240 240 238 238 238 236 236 236 237 237 237 239 239 239 241 241 241 241 241 241 241 241 241 242 242 242 240 240 240 237 237 237 236 236 236 240 240 240 245 245 245 250 250 250 253 253 253 252 252 252 252 252 252 253 253 253 254 254 254 254 254 254 254 254 254 254 254 254 253 253 253 252 252 253 255 255 255 238 238 239 226 226 227 135 135 136 100 100 101 145 145 146 168 168 169 184 184 185 118 118 119 119 119 120 146 146 147 160 160 161 126 126 127 136 136 137 151 151 152 179 177 179 
164 162 164 122 120 122 128 126 128 130 128 130 75 73 75 147 145 147 108 106 108 93 91 93 175 173 175 174 172 174 168 166 168 136 134 136 193 191 193 241 239 241 227 225 227 237 237 237 230 230 230 222 222 222 219 219 219 227 227 227 238 238 238 243 243 243 242 242 242 238 238 238 219 219 219 171 171 171 255 255 255 246 246 246 233 233 233 247 247 247 241 241 241 241 241 241 242 242 242 243 243 243 243 243 243 243 243 243 244 244 244 247 247 247 250 250 250 251 251 251 251 251 251 252 252 252 253 253 253 254 254 254 254 254 254 254 254 254 254 254 254 255 255 254 255 255 254 255 255 254 255 255 254 255 255 254 255 255 254 255 255 254 255 255 254 255 255 254 255 255 254 255 255 254 
248 248 248 248 248 248 246 246 246 246 246 246 246 246 246 242 242 242 237 237 237 236 236 236 239 239 239 243 243 244 231 231 233 201 201 203 147 147 149 210 210 212 154 154 156 216 216 218 247 247 249 248 248 250 248 248 250 247 247 249 245 245 247 243 243 245 241 241 243 240 240 242 238 238 240 232 232 234 226 226 228 230 230 232 212 212 214 200 200 202 203 203 205 198 198 200 210 210 212 223 223 225 236 236 238 227 227 229 232 232 234 223 223 225 233 233 235 220 220 222 223 223 224 223 223 223 224 224 224 223 223 223 221 221 221 220 220 220 223 223 223 229 229 229 234 234 234 234 234 234 221 221 221 198 198 198 235 235 235 245 245 245 255 255 255 251 251 251 253 253 253 252 252 252 252 252 252 252 252 252 252 252 252 252 252 252 252 252 252 252 252 252 252 252 252 254 254 254 254 254 254 253 253 253 253 253 253 253 253 253 253 253 253 252 252 252 252 252 252 252 252 252 253 253 253 253 253 253 253 253 253 253 253 253 252 252 252 252 252 252 251 251 251 251 251 251 251 251 251 251 251 251 251 251 251 250 250 250 249 249 249 248 248 248 247 247 247 242 242 242 246 246 246 243 243 243 242 242 242 248 248 248 249 249 249 248 248 248 254 254 254 250 250 250 250 250 250 249 249 249 249 249 249 249 249 249 249 249 249 250 250 250 250 250 250 255 254 255 249 247 248 244 242 243 245 243 244 246 244 245 240 238 239 244 242 243 240 238 239 226 224 225 224 222 223 231 229 230 242 240 241 242 240 241 219 217 218 218 216 217 187 185 186 139 139 139 109 109 109 142 142 142 173 173 173 203 203 203 234 234 234 229 229 229 238 238 238 240 240 240 239 239 239 237 237 237 238 238 238 240 240 240 242 242 242 242 242 242 242 242 242 243 243 243 240 240 240 238 238 238 237 237 237 240 240 240 244 244 244 249 249 249 252 252 252 252 252 252 252 252 252 253 253 253 254 254 254 254 254 254 254 254 254 254 254 254 253 253 253 250 250 251 250 250 252 254 254 255 246 246 248 202 202 204 136 136 138 139 139 141 103 103 105 139 139 141 128 128 130 122 122 124 154 154 156 140 140 142 139 139 141 128 128 130 117 116 119 193 191 194 
152 150 153 104 102 105 151 149 152 148 146 149 100 98 101 101 99 102 120 118 121 87 85 88 119 117 120 169 167 170 174 172 175 137 135 138 204 202 205 204 202 205 232 230 232 237 237 237 244 244 244 236 236 236 216 216 216 216 216 216 237 237 237 250 250 250 246 246 246 245 245 245 229 229 229 190 190 190 247 247 247 248 248 248 239 239 239 249 249 249 245 245 245 243 243 243 244 244 244 245 245 245 245 245 245 244 244 244 245 245 245 248 248 248 250 250 250 251 251 251 251 251 251 252 252 252 253 253 253 254 254 254 254 254 254 254 254 254 254 254 254 255 255 254 255 255 253 255 255 253 255 255 253 255 255 253 255 255 253 255 255 253 255 255 253 255 255 253 255 255 253 255 255 253 
248 248 248 247 247 247 246 246 246 245 245 245 245 245 245 242 242 242 237 237 237 236 236 236 240 240 240 242 242 243 222 222 224 190 190 192 196 196 198 151 151 153 169 169 171 246 246 248 243 243 245 249 249 251 249 249 251 248 248 250 246 246 248 244 244 246 241 241 243 239 239 241 238 238 240 237 237 239 232 232 234 235 235 237 225 225 227 217 217 219 216 216 218 208 208 210 213 213 215 218 218 220 224 224 226 217 217 219 218 218 220 198 198 200 217 217 219 220 220 222 225 225 226 221 221 221 223 223 223 223 223 223 222 222 222 220 220 220 222 222 222 227 227 227 232 232 232 238 238 238 218 218 218 182 182 182 232 232 232 238 238 238 255 255 255 249 249 249 255 255 255 252 252 252 252 252 252 252 252 252 252 252 252 252 252 252 252 252 252 252 252 252 252 252 252 254 254 254 253 253 253 253 253 253 253 253 253 253 253 253 252 252 252 252 252 252 252 252 252 252 252 252 252 252 252 252 252 252 252 252 252 252 252 252 251 251 251 250 250 250 249 249 249 244 244 244 244 244 244 244 244 244 244 244 244 244 244 244 244 244 244 243 243 243 243 243 243 243 243 243 247 247 247 242 242 242 240 240 240 245 245 245 245 245 245 244 244 244 250 250 250 247 247 247 247 247 247 247 247 247 247 247 247 247 247 247 247 247 247 247 247 247 248 248 248 251 249 250 242 240 241 249 247 248 249 247 248 244 242 243 240 238 239 253 251 252 165 163 164 95 93 94 124 122 123 177 175 176 204 202 203 197 195 196 163 161 162 156 154 155 125 123 124 162 162 162 179 179 179 230 230 230 235 235 235 226 226 226 236 236 236 233 233 233 245 245 245 241 241 241 240 240 240 239 239 239 239 239 239 241 241 241 243 243 243 243 243 243 243 243 243 243 243 243 242 242 242 240 240 240 239 239 239 241 241 241 244 244 244 248 248 248 251 251 251 252 252 252 252 252 252 253 253 253 254 254 254 254 254 254 254 254 254 254 254 254 253 253 253 255 255 255 250 250 252 245 245 247 245 245 247 241 241 243 212 212 214 218 218 220 177 177 179 168 168 170 138 138 140 85 85 87 159 159 161 139 139 141 152 152 154 126 126 128 130 129 132 181 179 182 166 164 167 
134 132 135 140 138 141 127 125 128 116 114 117 89 87 90 137 135 138 121 119 122 89 87 90 120 118 121 158 156 159 126 124 127 193 191 194 192 190 193 243 241 243 241 241 241 247 247 247 239 239 239 218 218 218 208 208 208 220 220 220 237 237 237 245 245 245 246 246 246 235 235 235 210 210 210 226 226 226 242 242 242 240 240 240 244 244 244 243 243 243 246 246 246 247 247 247 248 248 248 247 247 247 246 246 246 246 246 246 248 248 248 250 250 250 251 251 251 251 251 251 252 252 252 253 253 253 254 254 254 254 254 254 254 254 254 254 254 254 255 255 254 255 255 253 255 255 253 255 255 253 255 255 253 255 255 253 255 255 253 255 255 253 255 255 253 255 255 253 255 255 253 
247 247 247 247 247 247 245 245 245 245 245 245 245 245 245 242 242 242 237 237 237 237 237 237 240 240 240 228 228 229 211 211 213 204 204 206 179 179 181 170 170 172 239 239 241 236 236 238 251 251 253 251 251 253 250 250 252 249 249 251 247 247 249 244 244 246 242 242 244 239 239 241 238 238 240 244 244 246 234 234 236 230 230 232 230 230 232 234 234 236 235 235 237 228 228 230 225 225 227 207 207 209 196 196 198 209 209 211 196 196 198 191 191 193 187 187 189 217 217 219 221 221 222 219 219 219 221 221 221 223 223 223 222 222 222 221 221 221 222 222 222 226 226 226 230 230 230 233 233 233 227 227 227 203 203 203 238 238 238 237 237 237 250 250 250 247 247 247 253 253 253 252 252 252 252 252 252 252 252 252 252 252 252 252 252 252 252 252 252 252 252 252 252 252 252 253 253 253 253 253 253 253 253 253 253 253 253 252 252 252 252 252 252 252 252 252 252 252 252 251 251 251 251 251 251 251 251 251 251 251 251 250 250 250 249 249 249 248 248 248 247 247 247 249 249 249 248 248 248 246 246 246 245 245 245 244 244 244 243 243 243 243 243 243 244 244 244 241 241 241 242 242 242 236 236 236 235 235 235 242 242 242 242 242 242 237 237 237 239 239 239 244 244 244 245 245 245 245 245 245 246 246 246 246 246 246 246 246 246 246 246 246 246 246 246 231 229 230 252 250 251 245 243 244 242 240 241 237 235 236 174 172 173 175 173 174 218 216 217 196 194 195 199 197 198 198 196 197 190 188 189 167 165 166 184 182 183 218 216 217 233 231 232 226 226 226 231 231 231 247 247 247 233 233 233 224 224 224 234 234 234 233 233 233 240 240 240 243 243 243 241 241 241 240 240 240 241 241 241 243 243 243 244 244 244 244 244 244 243 243 243 243 243 243 243 243 243 242 242 242 241 241 241 242 242 242 244 244 244 247 247 247 250 250 250 252 252 252 252 252 252 253 253 253 254 254 254 254 254 254 254 254 254 254 254 254 253 253 253 251 251 252 255 255 255 241 241 243 255 255 255 238 238 240 245 245 247 242 242 244 220 220 222 222 222 224 168 168 170 86 86 88 167 167 169 152 152 154 162 162 164 144 144 146 167 166 169 188 186 189 
160 158 161 132 130 133 105 103 106 123 121 124 138 136 139 106 104 107 99 97 100 162 160 163 106 104 107 63 61 64 148 146 149 131 129 132 176 174 177 219 217 220 243 241 243 252 252 252 240 240 240 234 234 234 231 231 231 217 217 217 204 204 204 217 217 217 244 244 244 243 243 243 237 237 237 228 228 228 208 208 208 235 235 235 239 239 239 239 239 239 242 242 242 248 248 248 249 249 249 250 250 250 249 249 249 248 248 248 247 247 247 249 249 249 250 250 250 251 251 251 251 251 251 252 252 252 253 253 253 254 254 254 254 254 254 254 254 254 254 254 254 255 255 254 255 255 253 255 255 253 255 255 253 255 255 253 255 255 253 255 255 253 255 255 253 255 255 253 255 255 253 255 255 253 
246 246 246 246 246 246 244 244 244 244 244 244 244 244 244 241 241 241 237 237 237 237 237 237 240 240 240 249 249 250 136 136 138 223 223 225 178 178 180 218 218 220 236 236 238 254 254 255 247 247 249 251 251 253 251 251 253 249 249 251 248 248 250 245 245 247 242 242 244 240 240 242 239 239 241 241 241 243 235 235 237 227 227 229 228 228 230 226 226 228 223 223 225 228 228 230 232 232 234 198 198 200 170 170 172 179 179 181 183 183 185 192 192 194 186 186 188 209 209 211 210 210 211 217 217 217 220 220 220 223 223 223 224 224 224 223 223 223 224 224 224 227 227 227 230 230 230 230 230 230 236 236 236 225 225 225 231 231 231 235 235 235 242 242 242 252 252 252 246 246 246 252 252 252 252 252 252 252 252 252 252 252 252 252 252 252 252 252 252 252 252 252 252 252 252 253 253 253 253 253 253 253 253 253 252 252 252 252 252 252 252 252 252 251 251 251 251 251 251 250 250 250 250 250 250 250 250 250 249 249 249 248 248 248 246 246 246 245 245 245 244 244 244 248 248 248 246 246 246 243 243 243 240 240 240 239 239 239 238 238 238 239 239 239 240 240 240 237 237 237 235 235 235 226 226 226 225 225 225 236 236 236 239 239 239 236 236 236 238 238 238 241 241 241 242 242 242 243 243 243 244 244 244 245 245 245 245 245 245 244 244 244 244 244 244 255 254 255 247 245 246 237 235 236 224 222 223 206 204 205 209 207 208 197 195 196 220 218 219 216 214 215 214 212 213 181 179 180 175 173 174 163 161 162 209 207 208 212 210 211 219 217 218 225 225 225 220 220 220 221 221 221 221 221 221 234 234 234 245 245 245 241 241 241 244 244 244 244 244 244 243 243 243 242 242 242 243 243 243 244 244 244 244 244 244 243 243 243 241 241 241 243 243 243 244 244 244 245 245 245 244 244 244 243 243 243 244 244 244 247 247 247 250 250 250 252 252 252 252 252 252 253 253 253 254 254 254 254 254 254 254 254 254 254 254 254 253 253 253 247 247 248 255 255 255 249 249 251 254 254 255 232 232 234 238 238 240 232 232 234 222 222 224 221 221 223 212 212 214 157 157 159 174 174 176 158 158 160 171 171 173 159 159 161 155 154 157 198 196 199 
155 153 156 138 136 139 149 147 150 143 141 144 125 123 126 111 109 112 97 95 98 153 151 154 118 116 119 58 56 59 165 163 166 157 155 158 177 175 178 241 239 242 235 233 235 254 254 254 242 242 242 240 240 240 244 244 244 234 234 234 217 217 217 222 222 222 242 242 242 245 245 245 243 243 243 243 243 243 210 210 210 236 236 236 242 242 242 243 243 243 247 247 247 248 248 248 250 250 250 251 251 251 250 250 250 249 249 249 248 248 248 248 248 248 249 249 249 251 251 251 251 251 251 252 252 252 253 253 253 254 254 254 254 254 254 254 254 254 254 254 254 255 255 254 255 255 253 255 255 253 255 255 253 255 255 253 255 255 253 255 255 253 255 255 253 255 255 253 255 255 253 255 255 253 
244 244 244 245 245 245 243 243 243 243 243 243 244 244 244 241 241 241 237 237 237 237 237 237 240 240 240 234 234 235 154 154 156 218 218 220 181 181 183 255 255 255 230 230 232 238 238 240 255 255 255 251 251 253 251 251 253 250 250 252 248 248 250 246 246 248 243 243 245 241 241 243 240 240 242 236 236 238 242 242 244 236 236 238 231 231 233 212 212 214 197 197 199 215 215 217 230 230 232 213 213 215 175 175 177 143 143 145 166 166 168 178 178 180 207 207 209 209 209 211 215 215 216 214 214 214 218 218 218 224 224 224 226 226 226 225 225 225 226 226 226 228 228 228 230 230 230 234 234 234 238 238 238 224 224 224 216 216 216 229 229 229 241 241 241 255 255 255 243 243 243 252 252 252 252 252 252 252 252 252 252 252 252 252 252 252 252 252 252 252 252 252 252 252 252 253 253 253 252 252 252 252 252 252 252 252 252 252 252 252 251 251 251 251 251 251 251 251 251 250 250 250 249 249 249 249 249 249 248 248 248 246 246 246 244 244 244 243 243 243 242 242 242 239 239 239 239 239 239 239 239 239 240 240 240 240 240 240 241 241 241 242 242 242 242 242 242 237 237 237 237 237 237 228 228 228 224 224 224 231 231 231 234 234 234 234 234 234 240 240 240 238 238 238 239 239 239 240 240 240 242 242 242 242 242 242 242 242 242 241 241 241 241 241 241 222 220 221 236 234 235 228 226 227 159 157 158 116 114 115 197 195 196 205 203 204 178 176 177 189 187 188 202 200 201 165 163 164 146 144 145 158 156 157 220 218 219 212 210 211 223 221 222 219 219 219 232 232 232 240 240 240 240 240 240 238 238 238 231 231 231 234 234 234 253 253 253 246 246 246 245 245 245 244 244 244 244 244 244 244 244 244 243 243 243 241 241 241 239 239 239 242 242 242 244 244 244 246 246 246 246 246 246 244 244 244 244 244 244 247 247 247 250 250 250 252 252 252 252 252 252 253 253 253 254 254 254 254 254 254 254 254 254 254 254 254 253 253 253 255 255 255 254 254 255 255 255 255 235 235 237 246 246 248 241 241 243 251 251 253 243 243 245 229 229 231 223 223 225 195 195 197 165 165 167 169 169 171 173 173 175 151 151 153 127 126 129 185 183 186 
164 162 165 149 147 150 182 180 183 124 122 125 93 91 94 103 101 104 118 116 119 115 113 116 104 102 105 84 82 85 165 163 166 159 157 160 177 175 178 236 234 237 242 240 242 243 243 243 247 247 247 248 248 248 243 243 243 240 240 240 241 241 241 240 240 240 238 238 238 246 246 246 244 244 244 248 248 248 223 223 223 237 237 237 239 239 239 245 245 245 247 247 247 247 247 247 248 248 248 250 250 250 250 250 250 248 248 248 247 247 247 247 247 247 248 248 248 251 251 251 251 251 251 252 252 252 253 253 253 254 254 254 254 254 254 254 254 254 254 254 254 255 255 254 255 255 253 255 255 253 255 255 253 255 255 253 255 255 253 255 255 253 255 255 253 255 255 253 255 255 253 255 255 253 
243 243 243 245 245 245 243 243 243 243 243 243 244 244 244 241 241 241 237 237 237 237 237 237 240 240 240 236 236 237 158 158 160 229 229 231 231 231 233 228 228 230 245 245 247 255 255 255 248 248 250 251 251 253 250 250 252 250 250 252 248 248 250 246 246 248 244 244 246 242 242 244 241 241 243 238 238 240 247 247 249 238 238 240 235 235 237 213 213 215 191 191 193 210 210 212 222 222 224 225 225 227 200 200 202 155 155 157 158 158 160 175 175 177 212 212 214 213 213 215 218 218 219 212 212 212 217 217 217 224 224 224 227 227 227 228 228 228 228 228 228 230 230 230 232 232 232 232 232 232 237 237 237 218 218 218 221 221 221 220 220 220 237 237 237 250 250 250 249 249 249 252 252 252 252 252 252 252 252 252 252 252 252 252 252 252 252 252 252 252 252 252 252 252 252 252 252 252 252 252 252 252 252 252 252 252 252 251 251 251 251 251 251 251 251 251 251 251 251 249 249 249 249 249 249 248 248 248 247 247 247 245 245 245 243 243 243 241 241 241 240 240 240 242 242 242 243 243 243 243 243 243 242 242 242 237 237 237 230 230 230 223 223 223 219 219 219 208 208 208 222 222 222 229 229 229 229 229 229 231 231 231 227 227 227 227 227 227 237 237 237 233 233 233 234 234 234 236 236 236 238 238 238 239 239 239 239 239 239 238 238 238 237 237 237 254 252 253 224 222 223 151 149 150 123 121 122 168 166 167 190 188 189 166 164 165 172 170 171 155 153 154 183 181 182 155 153 154 100 98 99 144 142 143 199 197 198 199 197 198 212 210 211 227 227 227 235 235 235 227 227 227 228 228 228 241 241 241 240 240 240 237 237 237 242 242 242 247 247 247 246 246 246 245 245 245 244 244 244 244 244 244 242 242 242 239 239 239 236 236 236 240 240 240 244 244 244 247 247 247 247 247 247 245 245 245 245 245 245 248 248 248 251 251 251 252 252 252 252 252 252 253 253 253 254 254 254 254 254 254 254 254 254 254 254 254 253 253 253 251 251 252 248 248 250 255 255 255 244 244 246 255 255 255 243 243 245 235 235 237 226 226 228 247 247 249 206 206 208 190 190 192 157 157 159 182 182 184 174 174 176 143 143 145 139 138 141 183 181 184 
159 157 160 134 132 135 146 144 147 127 125 128 107 105 108 103 101 104 109 107 110 98 96 99 103 101 104 100 98 101 149 147 150 152 150 153 164 162 165 231 229 232 250 248 250 240 240 240 247 247 247 247 247 247 241 241 241 241 241 241 247 247 247 247 247 247 240 240 240 245 245 245 242 242 242 245 245 245 239 239 239 235 235 235 230 230 230 244 244 244 241 241 241 244 244 244 246 246 246 248 248 248 249 249 249 247 247 247 246 246 246 246 246 246 247 247 247 251 251 251 251 251 251 252 252 252 253 253 253 254 254 254 254 254 254 254 254 254 254 254 254 255 255 254 255 255 253 255 255 253 255 255 253 255 255 253 255 255 253 255 255 253 255 255 253 255 255 253 255 255 253 255 255 253 
242 242 242 244 244 244 243 243 243 243 243 243 243 243 243 241 241 241 237 237 237 237 237 237 240 240 240 243 243 244 147 147 149 247 247 249 240 240 242 243 243 245 251 251 253 250 250 252 247 247 249 250 250 252 250 250 252 250 250 252 248 248 250 247 247 249 245 245 247 243 243 245 242 242 244 240 240 242 242 242 244 227 227 229 233 233 235 223 223 225 201 201 203 211 211 213 211 211 213 213 213 215 215 215 217 200 200 202 170 170 172 197 197 199 205 205 207 211 211 213 204 204 205 211 211 211 217 217 217 224 224 224 228 228 228 229 229 229 229 229 229 231 231 231 233 233 233 223 223 223 238 238 238 219 219 219 238 238 238 214 214 214 231 231 231 239 239 239 255 255 255 252 252 252 252 252 252 252 252 252 252 252 252 252 252 252 252 252 252 252 252 252 252 252 252 252 252 252 252 252 252 252 252 252 252 252 252 251 251 251 251 251 251 251 251 251 251 251 251 249 249 249 248 248 248 248 248 248 246 246 246 244 244 244 242 242 242 240 240 240 239 239 239 236 236 236 235 235 235 230 230 230 219 219 219 202 202 202 182 182 182 162 162 162 151 151 151 157 157 157 188 188 188 216 216 216 229 229 229 231 231 231 223 223 223 222 222 222 233 233 233 230 230 230 231 231 231 233 233 233 235 235 235 236 236 236 236 236 236 235 235 235 234 234 234 209 207 208 114 112 113 133 131 132 198 196 197 183 181 182 157 155 156 169 167 168 81 79 80 143 141 142 159 157 158 125 123 124 47 45 46 140 138 139 200 198 199 212 210 211 218 216 217 224 224 224 242 242 242 232 232 232 230 230 230 245 245 245 247 247 247 245 245 245 244 244 244 248 248 248 246 246 246 245 245 245 244 244 244 243 243 243 241 241 241 237 237 237 235 235 235 239 239 239 244 244 244 248 248 248 248 248 248 246 246 246 245 245 245 248 248 248 251 251 251 252 252 252 252 252 252 253 253 253 254 254 254 254 254 254 254 254 254 254 254 254 253 253 253 250 250 251 254 254 255 246 246 248 251 251 253 242 242 244 249 249 251 230 230 232 242 242 244 232 232 234 197 197 199 201 201 203 161 161 163 183 183 185 179 179 181 151 151 153 168 167 170 189 187 190 165 163 166 
172 170 173 158 156 159 182 180 183 126 124 127 118 116 119 142 140 143 101 99 102 120 118 121 102 100 103 148 146 149 163 161 164 154 152 155 238 236 239 244 242 244 252 252 252 245 245 245 244 244 244 248 248 248 247 247 247 242 242 242 243 243 243 250 250 250 247 247 247 244 244 244 244 244 244 253 253 253 237 237 237 226 226 226 244 244 244 239 239 239 243 243 243 245 245 245 247 247 247 248 248 248 247 247 247 246 246 246 246 246 246 246 246 246 251 251 251 251 251 251 252 252 252 253 253 253 254 254 254 254 254 254 254 254 254 254 254 254 255 255 254 255 255 253 255 255 253 255 255 253 255 255 253 255 255 253 255 255 253 255 255 253 255 255 253 255 255 253 255 255 253 
243 243 243 242 242 242 242 242 242 241 241 241 239 239 239 236 236 236 234 234 234 235 235 235 236 236 236 220 220 221 185 185 187 217 217 219 249 249 251 249 249 251 249 249 251 243 243 245 251 251 253 249 249 251 248 248 250 247 247 249 247 247 249 248 248 250 248 248 250 246 246 248 244 244 246 244 244 246 234 234 236 231 231 233 231 231 233 219 219 221 203 203 205 205 205 207 220 220 222 217 217 219 229 229 231 226 226 228 203 203 205 190 190 192 197 197 199 201 201 203 195 195 196 215 215 215 224 224 224 230 230 230 231 231 231 231 231 231 233 233 233 232 232 232 230 230 230 237 237 237 220 220 220 224 224 224 227 227 227 209 209 209 208 208 208 234 234 234 253 253 253 255 255 255 253 253 253 252 252 252 252 252 252 252 252 252 251 251 251 251 251 251 252 252 252 254 254 254 248 248 248 255 255 255 249 249 249 253 253 253 255 255 255 241 241 241 255 255 255 245 245 245 244 244 244 247 247 247 244 244 244 235 235 235 238 238 238 240 240 240 231 231 231 235 235 235 230 230 230 215 215 215 202 202 202 209 209 209 223 223 223 218 218 218 199 199 199 205 205 205 212 212 212 206 206 206 221 221 221 238 238 238 235 235 235 237 237 237 235 235 235 230 230 230 237 237 237 232 232 232 219 219 219 212 212 212 208 208 208 210 210 210 218 218 218 122 120 121 162 160 161 192 190 191 175 173 174 190 188 189 142 140 141 111 109 110 153 151 152 177 175 176 145 143 144 79 77 78 63 61 62 142 140 141 224 222 223 210 208 209 232 230 231 230 230 230 234 234 234 239 239 239 243 243 243 245 245 245 246 246 246 247 247 247 248 248 248 249 249 249 248 248 248 246 246 246 245 245 245 242 242 242 238 238 238 232 232 232 228 228 228 234 234 234 239 239 239 244 244 244 245 245 245 244 244 244 244 244 244 248 248 248 252 252 252 247 247 247 248 248 248 250 250 250 251 251 251 252 252 252 252 252 252 252 252 252 252 252 252 251 251 252 248 248 250 246 246 248 255 255 255 252 252 254 244 244 246 247 247 249 233 233 235 228 228 230 192 192 194 181 181 183 192 192 194 191 191 193 199 199 201 162 162 164 171 170 173 181 179 182 177 175 178 
176 174 177 136 134 137 165 163 166 155 153 156 115 113 116 135 133 136 111 109 112 107 105 108 91 89 92 173 171 174 155 153 156 145 143 146 239 237 240 247 245 247 243 243 243 246 246 246 247 247 247 244 244 244 242 242 242 243 243 243 246 246 246 249 249 249 249 249 249 245 245 245 246 246 246 247 247 247 240 240 240 232 232 232 238 238 238 250 250 250 249 249 249 247 247 247 241 241 241 243 243 243 250 250 250 245 245 245 240 240 240 247 247 247 250 250 250 251 251 251 251 251 251 252 252 252 254 254 254 255 255 255 255 255 255 255 255 255 254 254 253 254 254 252 254 254 252 255 255 253 255 255 253 255 255 253 255 255 253 255 255 253 255 255 253 255 255 253 255 255 253 
240 240 240 238 238 238 239 239 239 240 240 240 238 238 238 234 234 234 230 230 230 229 229 229 229 229 229 166 166 167 192 192 194 248 248 250 255 255 255 239 239 241 246 246 248 247 247 249 249 249 251 248 248 250 247 247 249 246 246 248 246 246 248 247 247 249 247 247 249 245 245 247 243 243 245 245 245 247 236 236 238 231 231 233 227 227 229 213 213 215 199 199 201 204 204 206 220 220 222 225 225 227 220 220 222 222 222 224 226 226 228 216 216 218 199 199 201 198 198 200 209 209 210 216 216 216 216 216 216 225 225 225 238 238 238 241 241 241 234 234 234 235 235 235 242 242 242 237 237 237 219 219 219 215 215 215 221 221 221 218 218 218 218 218 218 231 231 231 243 243 243 249 249 249 249 249 249 249 249 249 250 250 250 249 249 249 249 249 249 250 250 250 251 251 251 246 246 246 254 254 254 250 250 250 251 251 251 254 254 254 246 246 246 244 244 244 247 247 247 248 248 248 238 238 238 240 240 240 242 242 242 233 233 233 229 229 229 234 234 234 235 235 235 226 226 226 210 210 210 204 204 204 217 217 217 229 229 229 228 228 228 226 226 226 229 229 229 220 220 220 226 226 226 214 214 214 219 219 219 226 226 226 221 221 221 231 231 231 238 238 238 235 235 235 231 231 231 229 229 229 225 225 225 218 218 218 213 213 213 215 215 215 219 219 219 200 198 199 179 177 178 189 187 188 178 176 177 132 130 131 140 138 139 171 169 170 181 179 180 151 149 150 147 145 146 45 43 44 50 48 49 198 196 197 216 214 215 239 237 238 225 223 224 232 232 232 235 235 235 241 241 241 244 244 244 246 246 246 246 246 246 248 248 248 248 248 248 248 248 248 247 247 247 246 246 246 245 245 245 243 243 243 239 239 239 233 233 233 229 229 229 232 232 232 236 236 236 240 240 240 242 242 242 242 242 242 243 243 243 247 247 247 250 250 250 248 248 248 248 248 248 250 250 250 251 251 251 251 251 251 251 251 251 250 250 250 250 250 250 250 250 251 252 252 254 248 248 250 254 254 255 248 248 250 241 241 243 242 242 244 222 222 224 215 215 217 213 213 215 214 214 216 213 213 215 205 205 207 198 198 200 165 165 167 152 151 154 182 180 183 174 172 175 
166 164 167 159 157 160 110 108 111 146 144 147 132 130 133 141 139 142 132 130 133 92 90 93 81 79 82 174 172 175 184 182 185 160 158 161 232 230 233 247 245 247 246 246 246 249 249 249 251 251 251 248 248 248 245 245 245 245 245 245 248 248 248 250 250 250 249 249 249 246 246 246 246 246 246 247 247 247 241 241 241 232 232 232 236 236 236 247 247 247 245 245 245 244 244 244 238 238 238 241 241 241 249 249 249 245 245 245 240 240 240 246 246 246 252 252 252 253 253 253 253 253 253 254 254 254 254 254 254 253 253 253 253 253 253 252 252 252 254 254 253 254 254 252 254 254 252 255 255 253 255 255 253 255 255 253 255 255 253 255 255 253 255 255 253 255 255 253 255 255 253 
236 236 236 240 240 240 236 236 236 237 237 237 243 243 243 243 243 243 225 225 225 192 192 192 165 165 165 194 194 195 226 226 228 255 255 255 244 244 246 238 238 240 254 254 255 252 252 254 244 244 246 248 248 250 247 247 249 246 246 248 246 246 248 247 247 249 246 246 248 244 244 246 242 242 244 244 244 246 237 237 239 231 231 233 224 224 226 210 210 212 199 199 201 206 206 208 223 223 225 225 225 227 216 216 218 222 222 224 238 238 240 233 233 235 210 210 212 202 202 204 212 212 213 218 218 218 219 219 219 225 225 225 235 235 235 239 239 239 238 238 238 240 240 240 247 247 247 248 248 248 237 237 237 224 224 224 221 221 221 222 222 222 216 216 216 219 219 219 232 232 232 245 245 245 247 247 247 249 249 249 249 249 249 248 248 248 247 247 247 248 248 248 248 248 248 243 243 243 255 255 255 240 240 240 248 248 248 253 253 253 240 240 240 250 250 250 240 240 240 236 236 236 240 240 240 237 237 237 228 228 228 232 232 232 243 243 243 216 216 216 164 164 164 171 171 171 168 168 168 185 185 185 218 218 218 237 237 237 233 233 233 223 223 223 222 222 222 229 229 229 237 237 237 223 223 223 221 221 221 219 219 219 211 211 211 223 223 223 235 235 235 234 234 234 222 222 222 226 226 226 229 229 229 218 218 218 215 215 215 217 217 217 209 209 209 181 179 180 153 151 152 168 166 167 96 94 95 46 44 45 162 160 161 182 180 181 166 164 165 133 131 132 142 140 141 46 44 45 114 112 113 209 207 208 212 210 211 233 231 232 228 226 227 234 234 234 238 238 238 242 242 242 245 245 245 246 246 246 247 247 247 248 248 248 249 249 249 248 248 248 247 247 247 246 246 246 245 245 245 243 243 243 239 239 239 234 234 234 230 230 230 231 231 231 233 233 233 235 235 235 239 239 239 242 242 242 245 245 245 247 247 247 249 249 249 247 247 247 248 248 248 249 249 249 250 250 250 250 250 250 250 250 250 249 249 249 248 248 248 246 246 247 253 253 255 250 250 252 253 253 255 250 250 252 247 247 249 243 243 245 213 213 215 218 218 220 215 215 217 234 234 236 234 234 236 227 227 229 206 206 208 171 171 173 130 129 132 184 182 185 180 178 181 
167 165 168 172 170 173 98 96 99 135 133 136 137 135 138 135 133 136 139 137 140 119 117 120 95 93 96 140 138 141 148 146 149 194 192 195 242 240 243 242 240 242 245 245 245 247 247 247 249 249 249 248 248 248 245 245 245 243 243 243 244 244 244 246 246 246 248 248 248 246 246 246 247 247 247 249 249 249 244 244 244 237 237 237 239 239 239 247 247 247 242 242 242 242 242 242 237 237 237 239 239 239 248 248 248 246 246 246 240 240 240 244 244 244 250 250 250 252 252 252 253 253 253 255 255 255 255 255 255 254 254 254 252 252 252 251 251 251 254 254 253 254 254 252 254 254 252 255 255 253 255 255 253 255 255 253 255 255 253 255 255 253 255 255 253 255 255 253 255 255 253 
233 233 233 241 241 241 244 244 244 236 236 236 211 211 211 188 188 188 190 190 190 221 221 221 251 251 251 254 254 255 252 252 254 246 246 248 241 241 243 251 251 253 255 255 255 249 249 251 248 248 250 249 249 251 248 248 250 247 247 249 247 247 249 248 248 250 247 247 249 245 245 247 244 244 246 242 242 244 239 239 241 234 234 236 226 226 228 212 212 214 204 204 206 211 211 213 224 224 226 219 219 221 224 224 226 227 227 229 227 227 229 229 229 231 228 228 230 216 216 218 200 200 201 217 217 217 224 224 224 228 228 228 226 226 226 230 230 230 240 240 240 243 243 243 240 240 240 234 234 234 237 237 237 222 222 222 208 208 208 202 202 202 190 190 190 190 190 190 211 211 211 242 242 242 248 248 248 252 252 252 251 251 251 247 247 247 246 246 246 247 247 247 247 247 247 247 247 247 255 255 255 238 238 238 241 241 241 249 249 249 244 244 244 247 247 247 239 239 239 236 236 236 243 243 243 236 236 236 217 217 217 213 213 213 216 216 216 168 168 168 95 95 95 140 140 140 190 190 190 232 232 232 233 233 233 219 219 219 221 221 221 231 231 231 236 236 236 225 225 225 237 237 237 228 228 228 228 228 228 223 223 223 210 210 210 218 218 218 226 226 226 210 210 210 205 205 205 219 219 219 219 219 219 201 201 201 204 204 204 205 205 205 180 180 180 174 172 173 165 163 164 69 67 68 75 73 74 143 141 142 161 159 160 154 152 153 168 166 167 145 143 144 124 122 123 118 116 117 209 207 208 218 216 217 234 232 233 234 232 233 246 244 245 237 237 237 240 240 240 244 244 244 246 246 246 247 247 247 247 247 247 248 248 248 250 250 250 250 250 250 249 249 249 248 248 248 246 246 246 244 244 244 239 239 239 233 233 233 229 229 229 231 231 231 231 231 231 232 232 232 236 236 236 241 241 241 245 245 245 247 247 247 248 248 248 245 245 245 246 246 246 247 247 247 249 249 249 249 249 249 249 249 249 248 248 248 248 248 248 246 246 247 254 254 255 249 249 251 250 250 252 250 250 252 250 250 252 235 235 237 191 191 193 209 209 211 168 168 170 222 222 224 235 235 237 234 234 236 221 221 223 171 171 173 104 103 106 171 169 172 176 174 177 
174 172 175 165 163 166 145 143 146 131 129 132 139 137 140 134 132 135 138 136 139 163 161 164 130 128 131 121 119 122 96 94 97 219 217 220 253 251 254 244 242 244 245 245 245 246 246 246 248 248 248 249 249 249 245 245 245 240 240 240 240 240 240 243 243 243 247 247 247 246 246 246 247 247 247 249 249 249 247 247 247 242 242 242 243 243 243 248 248 248 242 242 242 244 244 244 240 240 240 241 241 241 250 250 250 248 248 248 241 241 241 243 243 243 246 246 246 248 248 248 251 251 251 254 254 254 255 255 255 255 255 255 255 255 255 254 254 254 254 254 253 254 254 252 254 254 252 255 255 253 255 255 253 255 255 253 255 255 253 255 255 253 255 255 253 255 255 253 255 255 253 
234 234 234 229 229 229 229 229 229 232 232 232 237 237 237 244 244 244 249 249 249 250 250 250 249 249 249 249 249 250 251 251 253 248 248 250 254 254 255 255 255 255 247 247 249 246 246 248 255 255 255 251 251 253 250 250 252 249 249 251 249 249 251 250 250 252 249 249 251 247 247 249 245 245 247 241 241 243 241 241 243 237 237 239 228 228 230 215 215 217 208 208 210 210 210 212 216 216 218 223 223 225 233 233 235 230 230 232 221 221 223 227 227 229 240 240 242 228 228 230 202 202 203 210 210 210 212 212 212 218 218 218 227 227 227 234 234 234 236 236 236 237 237 237 239 239 239 238 238 238 247 247 247 239 239 239 227 227 227 223 223 223 210 210 210 202 202 202 213 213 213 232 232 232 243 243 243 251 251 251 249 249 249 246 246 246 246 246 246 247 247 247 247 247 247 250 250 250 243 243 243 245 245 245 239 239 239 246 246 246 247 247 247 226 226 226 230 230 230 229 229 229 224 224 224 233 233 233 243 243 243 239 239 239 231 231 231 226 226 226 219 219 219 213 213 213 227 227 227 224 224 224 210 210 210 220 220 220 244 244 244 240 240 240 214 214 214 225 225 225 235 235 235 226 226 226 229 229 229 227 227 227 213 213 213 216 216 216 220 220 220 203 203 203 207 207 207 213 213 213 189 189 189 150 150 150 142 142 142 128 128 128 86 86 86 112 110 111 76 74 75 126 124 125 175 173 174 182 180 181 168 166 167 164 162 163 142 140 141 109 107 108 96 94 95 159 157 158 208 206 207 225 223 224 229 227 228 230 228 229 225 223 224 240 240 240 242 242 242 245 245 245 247 247 247 247 247 247 247 247 247 248 248 248 249 249 249 252 252 252 251 251 251 249 249 249 247 247 247 244 244 244 239 239 239 233 233 233 229 229 229 229 229 229 228 228 228 229 229 229 232 232 232 237 237 237 242 242 242 244 244 244 245 245 245 242 242 242 243 243 243 245 245 245 247 247 247 248 248 248 248 248 248 248 248 248 248 248 248 250 250 251 255 255 255 247 247 249 247 247 249 249 249 251 246 246 248 221 221 223 167 167 169 151 151 153 107 107 109 211 211 213 229 229 231 224 224 226 234 234 236 165 165 167 82 81 84 159 157 160 150 148 151 
171 169 172 160 158 161 159 157 160 125 123 126 156 154 157 153 151 154 132 130 133 145 143 146 135 133 136 110 108 111 79 77 80 192 190 193 233 231 234 238 236 238 249 249 249 248 248 248 251 251 251 253 253 253 249 249 249 242 242 242 242 242 242 247 247 247 248 248 248 246 246 246 246 246 246 247 247 247 245 245 245 242 242 242 241 241 241 243 243 243 243 243 243 249 249 249 246 246 246 246 246 246 252 252 252 250 250 250 244 244 244 244 244 244 245 245 245 247 247 247 251 251 251 254 254 254 255 255 255 255 255 255 255 255 255 254 254 254 254 254 253 254 254 252 254 254 252 255 255 253 255 255 253 255 255 253 255 255 253 255 255 253 255 255 253 255 255 253 255 255 253 
239 239 239 239 239 239 247 247 247 254 254 254 253 253 253 247 247 247 244 244 244 248 248 248 254 254 254 242 242 243 252 252 254 250 250 252 253 253 255 249 249 251 246 246 248 255 255 255 250 250 252 252 252 254 251 251 253 250 250 252 250 250 252 251 251 253 250 250 252 248 248 250 246 246 248 242 242 244 243 243 245 238 238 240 227 227 229 215 215 217 209 209 211 206 206 208 204 204 206 228 228 230 230 230 232 230 230 232 230 230 232 235 235 237 241 241 243 235 235 237 224 224 225 209 209 209 198 198 198 205 205 205 230 230 230 238 238 238 228 228 228 230 230 230 244 244 244 233 233 233 235 235 235 231 231 231 228 228 228 229 229 229 219 219 219 199 199 199 187 187 187 219 219 219 234 234 234 246 246 246 245 245 245 243 243 243 245 245 245 248 248 248 247 247 247 246 246 246 235 235 235 249 249 249 243 243 243 241 241 241 233 233 233 204 204 204 219 219 219 243 243 243 235 235 235 238 238 238 239 239 239 228 228 228 221 221 221 226 226 226 228 228 228 212 212 212 229 229 229 238 238 238 224 224 224 207 207 207 206 206 206 219 219 219 230 230 230 230 230 230 236 236 236 224 224 224 225 225 225 226 226 226 215 215 215 219 219 219 223 223 223 219 219 219 227 227 227 224 224 224 188 188 188 145 145 145 128 128 128 103 103 103 62 62 62 36 34 35 158 156 157 189 187 188 175 173 174 179 177 178 156 154 155 180 178 179 128 126 127 92 90 91 159 157 158 182 180 181 225 223 224 234 232 233 240 238 239 240 238 239 240 238 239 242 242 242 244 244 244 246 246 246 247 247 247 246 246 246 246 246 246 247 247 247 249 249 249 251 251 251 250 250 250 249 249 249 247 247 247 245 245 245 241 241 241 235 235 235 231 231 231 226 226 226 227 227 227 228 228 228 229 229 229 232 232 232 235 235 235 239 239 239 241 241 241 241 241 241 243 243 243 244 244 244 246 246 246 247 247 247 247 247 247 246 246 246 246 246 246 247 247 248 250 250 252 244 244 246 248 248 250 252 252 254 250 250 252 227 227 229 176 176 178 94 94 96 105 105 107 222 222 224 233 233 235 218 218 220 231 231 233 160 160 162 97 96 99 174 172 175 138 136 139 
168 166 169 164 162 165 122 120 123 121 119 122 167 165 168 162 160 163 149 147 150 139 137 140 148 146 149 100 98 101 80 78 81 178 176 179 252 250 253 252 250 252 249 249 249 247 247 247 248 248 248 251 251 251 247 247 247 240 240 240 241 241 241 247 247 247 250 250 250 247 247 247 244 244 244 242 242 242 240 240 240 238 238 238 236 236 236 235 235 235 240 240 240 250 250 250 251 251 251 249 249 249 253 253 253 251 251 251 246 246 246 247 247 247 248 248 248 249 249 249 252 252 252 253 253 253 254 254 254 254 254 254 252 252 252 252 252 252 254 254 253 254 254 252 254 254 252 255 255 253 255 255 253 255 255 253 255 255 253 255 255 253 255 255 253 255 255 253 255 255 253 
244 244 244 252 252 252 242 242 242 234 234 234 239 239 239 252 252 252 255 255 255 255 255 255 247 247 247 255 255 255 255 255 255 245 245 247 251 251 253 245 245 247 249 249 251 255 255 255 243 243 245 252 252 254 251 251 253 250 250 252 250 250 252 251 251 253 250 250 252 248 248 250 246 246 248 242 242 244 242 242 244 236 236 238 224 224 226 217 217 219 214 214 216 208 208 210 201 201 203 213 213 215 221 221 223 231 231 233 237 237 239 237 237 239 237 237 239 239 239 241 241 241 242 222 222 222 214 214 214 208 208 208 211 211 211 217 217 217 224 224 224 233 233 233 241 241 241 246 246 246 242 242 242 241 241 241 239 239 239 235 235 235 233 233 233 219 219 219 198 198 198 214 214 214 233 233 233 246 246 246 245 245 245 241 241 241 243 243 243 246 246 246 245 245 245 243 243 243 240 240 240 244 244 244 244 244 244 231 231 231 206 206 206 201 201 201 228 228 228 238 238 238 242 242 242 244 244 244 237 237 237 232 232 232 241 241 241 237 237 237 216 216 216 219 219 219 221 221 221 229 229 229 237 237 237 233 233 233 223 223 223 222 222 222 230 230 230 228 228 228 236 236 236 225 225 225 227 227 227 228 228 228 218 218 218 224 224 224 229 229 229 226 226 226 234 234 234 233 233 233 220 220 220 205 205 205 195 195 195 179 179 179 160 160 160 55 53 54 107 105 106 160 158 159 165 163 164 197 195 196 166 164 165 76 74 75 75 73 74 122 120 121 189 187 188 164 162 163 236 234 235 217 215 216 231 229 230 228 226 227 243 241 242 243 243 243 245 245 245 246 246 246 246 246 246 245 245 245 245 245 245 246 246 246 248 248 248 248 248 248 247 247 247 247 247 247 247 247 247 246 246 246 243 243 243 239 239 239 235 235 235 227 227 227 229 229 229 231 231 231 231 231 231 230 230 230 232 232 232 237 237 237 241 241 241 243 243 243 244 244 244 245 245 245 245 245 245 245 245 245 244 244 244 243 243 243 242 242 242 241 241 242 245 245 247 241 241 243 248 248 250 250 250 252 248 248 250 235 235 237 196 196 198 107 107 109 166 166 168 225 225 227 236 236 238 224 224 226 199 199 201 148 148 150 153 152 155 196 194 197 155 153 156 
171 169 172 152 150 153 115 113 116 140 138 141 161 159 162 151 149 152 121 119 122 126 124 127 131 129 132 83 81 84 30 28 31 153 151 154 243 241 244 239 237 239 248 248 248 244 244 244 245 245 245 249 249 249 245 245 245 238 238 238 239 239 239 248 248 248 250 250 250 246 246 246 242 242 242 239 239 239 239 239 239 240 240 240 238 238 238 236 236 236 232 232 232 247 247 247 252 252 252 249 249 249 251 251 251 249 249 249 247 247 247 250 250 250 249 249 249 249 249 249 251 251 251 252 252 252 253 253 253 253 253 253 253 253 253 253 253 253 254 254 253 254 254 252 254 254 252 255 255 253 255 255 253 255 255 253 255 255 253 255 255 253 255 255 253 255 255 253 255 255 253 
248 248 248 246 246 246 252 252 252 255 255 255 255 255 255 252 252 252 248 248 248 250 250 250 254 254 254 255 255 255 246 246 247 247 247 248 255 255 255 252 252 253 241 241 242 255 255 255 245 245 246 251 251 252 250 250 251 249 249 250 249 249 250 250 250 251 249 249 250 247 247 248 245 245 246 242 242 244 241 241 243 234 234 236 223 223 225 220 220 222 221 221 223 216 216 218 206 206 208 189 189 191 214 214 216 235 235 237 234 234 236 230 230 232 235 235 237 242 242 244 244 244 245 239 239 239 245 245 245 222 222 222 184 184 184 185 185 185 223 223 223 242 242 242 231 231 231 240 240 240 237 237 237 242 242 242 236 236 236 223 223 223 229 229 229 236 236 236 224 224 224 218 218 218 237 237 237 251 251 251 248 248 248 241 241 241 242 242 242 243 243 243 241 241 241 244 244 244 250 250 250 235 235 235 242 242 242 221 221 221 185 185 185 213 213 213 248 248 248 236 236 236 233 233 233 241 241 241 244 244 244 230 230 230 220 220 220 224 224 224 228 228 228 231 231 231 229 229 229 229 229 229 233 233 233 234 234 234 232 232 232 229 229 229 228 228 228 219 219 219 232 232 232 228 228 228 234 234 234 234 234 234 222 222 222 228 228 228 234 234 234 233 233 233 232 232 232 227 227 227 228 228 228 230 230 230 219 219 219 204 204 204 202 202 202 106 105 105 90 88 89 85 83 84 127 125 126 186 184 185 149 147 148 80 78 79 213 211 212 196 194 195 159 157 158 152 150 151 227 225 226 235 233 234 228 226 227 240 238 239 239 238 238 243 243 243 245 245 245 246 246 246 246 246 246 245 245 245 244 244 244 246 246 246 247 247 247 244 244 244 244 244 244 245 245 245 247 247 247 247 247 247 246 246 246 242 242 242 239 239 239 231 231 231 234 234 234 236 236 236 234 234 234 232 232 232 233 233 233 238 238 238 243 243 243 245 245 245 245 245 245 246 246 246 245 245 245 244 244 244 242 242 242 241 241 241 239 239 239 241 241 242 245 245 246 241 241 242 244 244 245 238 238 239 232 232 233 226 226 227 197 197 198 157 157 158 224 224 225 208 208 209 230 230 231 230 230 231 160 160 161 131 131 132 205 205 206 200 198 201 175 173 176 
175 173 176 128 126 129 151 149 152 173 171 174 153 151 154 140 138 141 115 113 116 141 139 142 138 136 139 138 136 139 27 25 28 165 163 166 239 237 240 255 253 255 252 252 252 247 247 247 247 247 247 250 250 250 247 247 247 240 240 240 243 243 243 252 252 252 248 248 248 245 245 245 241 241 241 239 239 239 241 241 241 245 245 245 245 245 245 243 243 243 225 225 225 244 244 244 251 251 251 248 248 248 248 248 248 247 247 247 247 247 247 252 252 252 246 246 246 247 247 247 248 248 248 250 250 250 252 252 252 254 254 254 255 255 255 255 255 255 254 254 253 254 254 253 254 254 253 255 255 254 255 255 254 255 255 254 255 255 254 255 255 254 255 255 254 255 255 254 255 255 254 
250 250 250 251 251 251 251 251 251 251 251 251 251 251 251 251 251 251 251 251 251 251 251 251 251 251 251 251 251 251 251 251 251 251 251 251 251 251 251 251 251 251 251 251 251 251 251 251 251 251 251 251 251 251 251 251 251 251 251 251 251 251 251 250 250 250 249 249 249 248 248 248 247 247 248 246 246 247 246 246 248 242 242 244 234 234 236 229 229 231 226 226 228 222 222 224 218 218 220 206 206 208 205 205 207 216 216 218 236 236 238 242 242 244 235 235 237 235 235 237 244 244 245 236 235 235 234 232 233 234 232 233 230 228 229 213 211 212 201 199 200 219 217 218 247 245 246 239 237 238 240 238 239 241 239 240 239 237 238 235 233 234 232 230 231 230 228 229 230 229 229 224 224 224 242 242 242 244 244 244 253 253 253 248 248 248 237 237 237 246 246 246 241 241 241 227 227 227 225 225 225 222 222 222 209 209 209 206 206 206 233 233 233 252 252 252 240 240 240 242 242 242 240 240 240 236 236 236 233 233 233 230 230 230 229 229 229 228 228 228 227 227 227 231 231 231 226 226 226 225 225 225 230 230 230 232 232 232 229 229 229 228 228 228 231 231 231 232 232 232 233 233 233 224 224 224 229 229 229 229 229 229 222 222 222 231 231 231 229 229 229 230 230 230 236 236 236 232 232 232 224 224 224 228 228 228 232 232 232 210 210 210 179 179 179 192 192 192 147 147 147 128 128 128 133 133 133 110 110 110 153 153 153 160 160 160 217 217 217 224 224 224 186 186 186 191 191 191 224 224 224 233 233 233 235 235 235 241 241 241 237 237 237 242 242 242 242 242 242 242 242 242 243 243 243 243 243 243 243 243 243 243 243 243 243 243 243 243 243 243 243 243 243 244 244 244 246 246 246 248 248 248 246 246 246 242 242 242 239 239 239 239 239 239 237 237 237 235 235 235 233 233 233 234 234 234 237 237 237 239 239 239 241 241 241 248 248 248 245 245 245 242 242 242 242 242 242 240 240 240 237 237 237 238 238 238 242 242 242 241 241 241 237 237 237 242 242 242 238 238 238 241 241 241 231 231 231 195 195 195 185 185 185 223 223 223 237 237 237 232 232 232 235 235 235 213 213 213 163 163 163 166 166 166 228 228 229 209 209 210 
203 202 205 173 172 175 144 143 146 157 156 159 162 161 164 166 165 168 108 107 110 134 133 136 159 158 161 156 155 158 112 111 114 19 18 21 164 163 166 234 233 236 248 248 249 249 249 249 248 248 248 246 246 246 246 246 246 247 247 247 247 247 247 246 246 246 245 245 245 252 252 252 249 249 249 242 242 242 237 237 237 240 240 240 249 249 249 251 251 251 248 248 248 227 227 227 241 241 241 252 252 252 252 252 252 250 250 250 252 252 252 252 252 252 248 248 248 249 249 249 244 244 244 242 242 242 247 247 247 250 250 250 250 250 250 252 252 252 255 255 255 254 254 254 254 254 254 254 254 254 255 255 255 255 255 255 255 255 255 255 255 255 255 255 255 255 255 255 255 255 255 255 255 255 
250 250 250 251 251 251 251 251 251 251 251 251 251 251 251 251 251 251 251 251 251 251 251 251 251 251 251 251 251 251 251 251 251 251 251 251 251 251 251 251 251 251 251 251 251 251 251 251 251 251 251 250 250 250 250 250 250 250 250 250 250 250 250 250 250 250 249 249 249 248 248 248 247 247 247 246 246 247 246 246 248 242 242 244 236 236 238 233 233 235 231 231 233 226 226 228 220 220 222 213 213 215 214 214 216 224 224 226 238 238 240 243 243 245 239 239 241 239 239 241 245 245 246 237 235 236 236 234 235 238 236 237 236 234 235 225 223 224 216 214 215 222 220 221 235 233 234 229 227 228 232 230 231 234 232 233 233 231 232 230 228 229 227 225 226 226 224 225 226 224 225 229 229 229 234 234 234 254 254 254 234 234 234 232 232 232 254 254 254 219 219 219 175 175 175 155 155 155 203 203 203 233 233 233 236 236 236 241 241 241 243 243 243 239 239 239 240 240 240 244 244 244 240 240 240 235 235 235 233 233 233 233 233 233 232 232 232 228 228 228 225 225 225 225 225 225 222 222 222 222 222 222 227 227 227 230 230 230 228 228 228 228 228 228 230 230 230 235 235 235 236 236 236 227 227 227 232 232 232 230 230 230 222 222 222 229 229 229 227 227 227 229 229 229 234 234 234 231 231 231 225 225 225 227 227 227 231 231 231 222 222 222 205 205 205 150 150 150 90 90 90 136 136 136 170 170 170 101 101 101 164 164 164 215 215 215 228 228 228 216 216 216 216 216 216 212 212 212 215 215 215 224 224 224 230 230 230 237 237 237 246 246 246 241 241 241 241 241 241 241 241 241 241 241 241 241 241 241 241 241 241 241 241 241 241 241 241 244 244 244 244 244 244 245 245 245 245 245 245 246 246 246 245 245 245 244 244 244 243 243 243 232 232 232 234 234 234 235 235 235 236 236 236 235 235 235 235 235 235 235 235 235 236 236 236 242 242 242 239 239 239 238 238 238 239 239 239 237 237 237 235 235 235 235 235 235 239 239 239 238 238 238 236 236 236 240 240 240 242 242 242 242 242 242 235 235 235 219 219 219 212 212 212 235 235 235 238 238 238 246 246 246 223 223 223 229 229 229 172 172 172 152 152 152 216 216 216 208 208 209 
217 217 219 181 181 183 178 178 180 130 130 132 132 132 134 149 149 151 176 176 178 166 166 168 196 196 198 111 111 113 87 87 89 18 18 20 205 205 207 234 234 236 253 253 254 248 248 248 248 248 248 248 248 248 248 248 248 247 247 247 246 246 246 246 246 246 246 246 246 249 249 249 249 249 249 245 245 245 241 241 241 244 244 244 249 249 249 250 250 250 246 246 246 231 231 231 235 235 235 242 242 242 248 248 248 249 249 249 247 247 247 245 245 245 246 246 246 248 248 248 243 243 243 243 243 243 247 247 247 251 251 251 251 251 251 252 252 252 255 255 255 254 254 254 254 254 254 254 254 254 255 255 255 255 255 255 255 255 255 255 255 255 255 255 255 255 255 255 255 255 255 255 255 255 
250 250 250 251 251 251 251 251 251 251 251 251 251 251 251 251 251 251 251 251 251 251 251 251 251 251 251 251 251 251 251 251 251 251 251 251 251 251 251 251 251 251 251 251 251 251 251 251 251 251 251 248 248 248 249 249 249 249 249 249 249 249 249 249 249 249 249 249 249 248 248 248 248 248 248 247 247 248 246 246 248 242 242 244 239 239 241 239 239 241 238 238 240 230 230 232 221 221 223 219 219 221 225 225 227 232 232 234 238 238 240 241 241 243 242 242 244 243 243 245 243 243 244 239 237 238 241 239 240 243 241 242 243 241 242 241 239 240 235 233 234 229 227 228 225 223 224 233 231 232 233 231 232 234 232 233 235 233 234 235 233 234 233 231 232 231 229 230 229 227 228 237 237 237 216 216 216 218 218 218 247 247 247 255 255 255 238 238 238 172 172 172 76 76 76 154 154 154 216 216 216 242 242 242 243 243 243 255 255 255 247 247 247 231 231 231 246 246 246 244 244 244 239 239 239 235 235 235 234 234 234 234 234 234 232 232 232 227 227 227 222 222 222 228 228 228 225 225 225 225 225 225 228 228 228 229 229 229 226 226 226 223 223 223 223 223 223 233 233 233 235 235 235 227 227 227 234 234 234 233 233 233 224 224 224 230 230 230 228 228 228 226 226 226 231 231 231 233 233 233 231 231 231 231 231 231 231 231 231 230 230 230 227 227 227 189 189 189 206 206 206 204 204 204 199 199 199 188 188 188 199 199 199 179 179 179 230 230 230 232 232 232 232 232 232 213 213 213 213 213 213 236 236 236 234 234 234 227 227 227 246 246 246 240 240 240 240 240 240 239 239 239 239 239 239 238 238 238 238 238 238 237 237 237 237 237 237 242 242 242 242 242 242 243 243 243 242 242 242 241 241 241 242 242 242 243 243 243 244 244 244 232 232 232 234 234 234 236 236 236 235 235 235 233 233 233 233 233 233 235 235 235 237 237 237 240 240 240 237 237 237 237 237 237 240 240 240 240 240 240 238 238 238 238 238 238 241 241 241 238 238 238 238 238 238 236 236 236 238 238 238 232 232 232 228 228 228 230 230 230 216 216 216 235 235 235 230 230 230 227 227 227 234 234 234 210 210 210 100 100 100 197 197 197 202 202 202 187 187 188 
213 213 215 200 200 202 162 162 164 149 149 151 147 147 149 159 159 161 149 149 151 137 137 139 97 97 99 86 86 88 104 104 106 69 69 71 235 235 237 243 243 245 231 231 232 245 245 245 248 248 248 250 250 250 249 249 249 246 246 246 245 245 245 246 246 246 248 248 248 247 247 247 248 248 248 248 248 248 246 246 246 247 247 247 249 249 249 248 248 248 245 245 245 232 232 232 223 223 223 226 226 226 243 243 243 252 252 252 247 247 247 246 246 246 252 252 252 245 245 245 243 243 243 243 243 243 248 248 248 252 252 252 252 252 252 253 253 253 254 254 254 254 254 254 254 254 254 254 254 254 254 254 254 255 255 255 255 255 255 255 255 255 255 255 255 255 255 255 255 255 255 255 255 255 
250 250 250 251 251 251 251 251 251 251 251 251 251 251 251 251 251 251 251 251 251 251 251 251 251 251 251 251 251 251 251 251 251 251 251 251 251 251 251 251 251 251 251 251 251 251 251 251 251 251 251 248 248 248 248 248 248 249 249 249 249 249 249 249 249 249 249 249 249 248 248 248 248 248 248 248 248 249 246 246 248 243 243 245 241 241 243 242 242 244 241 241 243 231 231 233 220 220 222 223 223 225 232 232 234 237 237 239 236 236 238 238 238 240 243 243 245 244 244 246 240 240 241 242 240 241 247 245 246 249 247 248 247 245 246 249 247 248 249 247 248 239 237 238 227 225 226 239 237 238 233 231 232 229 227 228 230 228 229 234 232 233 235 233 234 231 229 230 225 223 224 229 229 229 177 177 177 217 217 217 237 237 237 243 243 243 183 183 183 74 74 74 109 109 109 215 215 215 240 240 240 238 238 238 230 230 230 243 243 243 244 244 244 237 237 237 245 245 245 242 242 242 240 240 240 237 237 237 236 236 236 234 234 234 230 230 230 225 225 225 221 221 221 226 226 226 224 224 224 224 224 224 226 226 226 226 226 226 224 224 224 221 221 221 220 220 220 228 228 228 231 231 231 225 225 225 233 233 233 234 234 234 226 226 226 233 233 233 230 230 230 224 224 224 227 227 227 234 234 234 239 239 239 238 238 238 232 232 232 230 230 230 231 231 231 229 229 229 234 234 234 224 224 224 217 217 217 206 206 206 209 209 209 170 170 170 178 178 178 224 224 224 231 231 231 224 224 224 223 223 223 239 239 239 241 241 241 234 234 234 236 236 236 239 239 239 238 238 238 238 238 238 237 237 237 236 236 236 235 235 235 234 234 234 233 233 233 236 236 236 237 237 237 239 239 239 238 238 238 237 237 237 237 237 237 239 239 239 241 241 241 235 235 235 235 235 235 234 234 234 231 231 231 228 228 228 229 229 229 235 235 235 240 240 240 238 238 238 235 235 235 236 236 236 241 241 241 243 243 243 242 242 242 241 241 241 243 243 243 240 240 240 245 245 245 234 234 234 230 230 230 227 227 227 233 233 233 235 235 235 202 202 202 181 181 181 205 205 205 223 223 223 227 227 227 159 159 159 179 179 179 213 213 213 205 205 205 226 226 227 
230 230 232 228 228 230 182 182 184 154 154 156 104 104 106 131 131 133 165 165 167 130 130 132 85 85 87 153 153 155 137 137 139 66 66 68 208 208 210 228 228 230 245 245 246 242 242 242 247 247 247 250 250 250 250 250 250 246 246 246 244 244 244 246 246 246 249 249 249 247 247 247 249 249 249 250 250 250 249 249 249 248 248 248 248 248 248 247 247 247 246 246 246 240 240 240 222 222 222 221 221 221 244 244 244 255 255 255 248 248 248 245 245 245 254 254 254 244 244 244 243 243 243 244 244 244 248 248 248 252 252 252 253 253 253 253 253 253 253 253 253 253 253 253 253 253 253 254 254 254 254 254 254 254 254 254 255 255 255 255 255 255 255 255 255 255 255 255 255 255 255 255 255 255 
251 251 251 251 251 251 251 251 251 251 251 251 251 251 251 251 251 251 251 251 251 251 251 251 251 251 251 251 251 251 251 251 251 251 251 251 251 251 251 251 251 251 251 251 251 251 251 251 251 251 251 248 248 248 248 248 248 249 249 249 249 249 249 250 250 250 249 249 249 249 249 249 248 248 248 249 249 250 247 247 249 244 244 246 242 242 244 243 243 245 241 241 243 230 230 232 219 219 221 226 226 228 236 236 238 240 240 242 237 237 239 238 238 240 245 245 247 246 246 248 240 240 241 244 242 243 251 249 250 252 250 251 248 246 247 249 247 248 253 251 252 249 247 248 239 237 238 237 235 236 225 223 224 214 212 213 214 212 213 222 220 221 226 224 225 219 217 218 211 209 210 201 201 201 199 199 199 180 180 180 208 208 208 202 202 202 83 83 83 79 79 79 240 240 240 243 243 243 236 236 236 230 230 230 227 227 227 228 228 228 240 240 240 245 245 245 239 239 239 241 241 241 242 242 242 241 241 241 238 238 238 233 233 233 228 228 228 224 224 224 223 223 223 218 218 218 219 219 219 220 220 220 222 222 222 225 225 225 228 228 228 227 227 227 225 225 225 227 227 227 230 230 230 224 224 224 232 232 232 233 233 233 225 225 225 232 232 232 229 229 229 224 224 224 224 224 224 229 229 229 237 237 237 238 238 238 233 233 233 231 231 231 233 233 233 247 247 247 226 226 226 231 231 231 239 239 239 220 220 220 236 236 236 221 221 221 189 189 189 189 189 189 214 214 214 241 241 241 238 238 238 225 225 225 237 237 237 247 247 247 233 233 233 238 238 238 237 237 237 236 236 236 235 235 235 234 234 234 233 233 233 232 232 232 232 232 232 232 232 232 233 233 233 235 235 235 236 236 236 236 236 236 236 236 236 237 237 237 237 237 237 234 234 234 234 234 234 234 234 234 232 232 232 230 230 230 230 230 230 233 233 233 236 236 236 233 233 233 230 230 230 231 231 231 237 237 237 241 241 241 241 241 241 240 240 240 242 242 242 242 242 242 248 248 248 235 235 235 222 222 222 232 232 232 251 251 251 237 237 237 193 193 193 139 139 139 154 154 154 161 161 161 163 163 163 207 207 207 236 236 236 208 208 208 207 207 207 202 202 203 232 232 234 
218 218 220 182 182 184 121 121 123 127 127 129 128 128 130 153 153 155 148 148 150 156 156 158 138 138 140 110 110 112 65 65 67 224 224 226 216 216 218 217 217 218 239 239 239 244 244 244 248 248 248 249 249 249 246 246 246 244 244 244 246 246 246 249 249 249 250 250 250 250 250 250 251 251 251 249 249 249 246 246 246 244 244 244 246 246 246 249 249 249 254 254 254 233 233 233 228 228 228 245 245 245 255 255 255 247 247 247 243 243 243 249 249 249 243 243 243 244 244 244 245 245 245 248 248 248 251 251 251 254 254 254 253 253 253 252 252 252 253 253 253 253 253 253 253 253 253 254 254 254 254 254 254 254 254 254 255 255 255 255 255 255 255 255 255 255 255 255 255 255 255 
251 251 251 251 251 251 251 251 251 251 251 251 251 251 251 251 251 251 251 251 251 251 251 251 251 251 251 251 251 251 251 251 251 251 251 251 251 251 251 251 251 251 251 251 251 251 251 251 251 251 251 249 249 249 250 250 250 250 250 250 250 250 250 250 250 250 250 250 250 249 249 249 249 249 249 248 248 249 248 248 250 245 245 247 243 243 245 242 242 244 240 240 242 231 231 233 221 221 223 227 227 229 235 235 237 240 240 242 240 240 242 242 242 244 247 247 249 248 248 250 245 245 246 246 244 245 252 250 251 253 251 252 248 246 247 247 245 246 251 249 250 252 250 251 249 247 248 240 238 239 228 226 227 217 215 216 216 214 215 222 220 221 225 223 224 219 217 218 211 209 210 213 213 213 175 175 175 216 216 216 154 154 154 89 89 89 173 173 173 233 233 233 236 236 236 244 244 244 233 233 233 236 236 236 232 232 232 218 218 218 226 226 226 244 244 244 243 243 243 242 242 242 241 241 241 238 238 238 235 235 235 230 230 230 226 226 226 222 222 222 220 220 220 222 222 222 224 224 224 224 224 224 223 223 223 226 226 226 230 230 230 230 230 230 227 227 227 231 231 231 233 233 233 225 225 225 232 232 232 231 231 231 222 222 222 228 228 228 226 226 226 226 226 226 224 224 224 224 224 224 229 229 229 233 233 233 234 234 234 236 236 236 239 239 239 230 230 230 250 250 250 230 230 230 220 220 220 238 238 238 234 234 234 210 210 210 220 220 220 199 199 199 183 183 183 212 212 212 246 246 246 236 236 236 228 228 228 239 239 239 241 241 241 237 237 237 237 237 237 236 236 236 235 235 235 234 234 234 233 233 233 232 232 232 232 232 232 232 232 232 230 230 230 229 229 229 230 230 230 233 233 233 235 235 235 236 236 236 235 235 235 234 234 234 236 236 236 238 238 238 239 239 239 239 239 239 237 237 237 235 235 235 233 233 233 232 232 232 229 229 229 229 229 229 235 235 235 240 240 240 242 242 242 242 242 242 243 243 243 243 243 243 242 242 242 231 231 231 209 209 209 228 228 228 246 246 246 210 210 210 182 182 182 177 177 177 160 160 160 118 118 118 125 125 125 176 176 176 210 210 210 234 234 234 211 211 211 204 204 205 
152 152 154 153 153 155 187 187 189 172 172 174 137 137 139 121 121 123 149 149 151 103 103 105 142 142 144 128 128 130 121 121 123 79 79 81 149 149 151 232 232 234 232 232 233 235 235 235 240 240 240 244 244 244 247 247 247 246 246 246 246 246 246 247 247 247 249 249 249 251 251 251 250 250 250 251 251 251 249 249 249 244 244 244 240 240 240 244 244 244 250 250 250 251 251 251 238 238 238 231 231 231 236 236 236 244 244 244 247 247 247 248 248 248 251 251 251 245 245 245 246 246 246 246 246 246 246 246 246 249 249 249 253 253 253 254 254 254 251 251 251 253 253 253 253 253 253 253 253 253 253 253 253 254 254 254 254 254 254 254 254 254 254 254 254 255 255 255 255 255 255 255 255 255 
251 251 251 251 251 251 251 251 251 251 251 251 251 251 251 251 251 251 251 251 251 251 251 251 251 251 251 251 251 251 251 251 251 251 251 251 251 251 251 251 251 251 251 251 251 251 251 251 251 251 251 251 251 251 252 252 252 252 252 252 252 252 252 251 251 251 250 250 250 249 249 249 249 249 249 246 246 247 248 248 250 247 247 249 243 243 245 242 242 244 240 240 242 233 233 235 226 226 228 223 223 225 229 229 231 236 236 238 240 240 242 244 244 246 246 246 248 247 247 249 247 247 248 248 246 247 251 249 250 252 250 251 251 249 250 249 247 248 249 247 248 250 248 249 250 248 249 245 243 244 240 238 239 235 233 234 233 231 232 232 230 231 231 229 230 228 226 227 224 222 223 230 230 230 202 202 202 145 145 145 149 149 149 188 188 188 204 204 204 227 227 227 247 247 247 239 239 239 244 244 244 243 243 243 233 233 233 221 221 221 216 216 216 227 227 227 244 244 244 239 239 239 232 232 232 225 225 225 222 222 222 223 223 223 221 221 221 215 215 215 209 209 209 215 215 215 217 217 217 216 216 216 215 215 215 218 218 218 225 225 225 227 227 227 225 225 225 234 234 234 235 235 235 226 226 226 231 231 231 230 230 230 222 222 222 229 229 229 227 227 227 224 224 224 227 227 227 229 229 229 230 230 230 232 232 232 236 236 236 239 239 239 239 239 239 234 234 234 239 239 239 239 239 239 236 236 236 229 229 229 228 228 228 237 237 237 237 237 237 231 231 231 190 190 190 187 187 187 228 228 228 246 246 246 231 231 231 229 229 229 244 244 244 238 238 238 237 237 237 237 237 237 236 236 236 235 235 235 234 234 234 233 233 233 233 233 233 232 232 232 225 225 225 219 219 219 219 219 219 225 225 225 231 231 231 233 233 233 233 233 233 235 235 235 232 232 232 229 229 229 229 229 229 232 232 232 233 233 233 231 231 231 229 229 229 233 233 233 228 228 228 227 227 227 233 233 233 239 239 239 242 242 242 243 243 243 244 244 244 246 246 246 234 234 234 229 229 229 203 203 203 225 225 225 232 232 232 181 181 181 194 194 194 225 225 225 216 216 216 185 185 185 160 160 160 77 77 77 224 224 224 231 231 231 204 204 204 169 169 170 
150 150 152 199 199 201 179 179 181 157 157 159 131 131 133 151 151 153 154 154 156 143 143 145 105 105 107 119 119 121 123 123 125 118 118 120 113 113 115 228 228 230 239 239 240 233 233 233 236 236 236 240 240 240 244 244 244 246 246 246 247 247 247 248 248 248 248 248 248 249 249 249 250 250 250 251 251 251 250 250 250 244 244 244 238 238 238 241 241 241 249 249 249 246 246 246 242 242 242 231 231 231 220 220 220 224 224 224 239 239 239 248 248 248 249 249 249 247 247 247 248 248 248 247 247 247 245 245 245 247 247 247 253 253 253 254 254 254 250 250 250 252 252 252 253 253 253 253 253 253 253 253 253 253 253 253 254 254 254 254 254 254 254 254 254 255 255 255 255 255 255 255 255 255 
251 251 251 251 251 251 251 251 251 251 251 251 251 251 251 251 251 251 251 251 251 251 251 251 251 251 251 251 251 251 251 251 251 251 251 251 251 251 251 251 251 251 251 251 251 251 251 251 251 251 251 253 253 253 253 253 253 253 253 253 253 253 253 252 252 252 251 251 251 250 250 250 249 249 249 245 245 246 247 247 249 247 247 249 244 244 246 242 242 244 240 240 242 236 236 238 231 231 233 218 218 220 222 222 224 230 230 232 239 239 241 243 243 245 243 243 245 245 245 247 247 247 248 249 247 248 249 247 248 251 249 250 253 251 252 252 250 251 248 246 247 246 244 245 247 245 246 240 238 239 243 241 242 245 243 244 242 240 241 236 234 235 231 229 230 230 228 229 230 228 229 221 221 221 190 190 190 174 174 174 181 181 181 186 186 186 197 197 197 216 216 216 221 221 221 223 223 223 247 247 247 242 242 242 233 233 233 237 237 237 218 218 218 208 208 208 233 233 233 235 235 235 223 223 223 211 211 211 210 210 210 215 215 215 216 216 216 206 206 206 196 196 196 188 188 188 192 192 192 194 194 194 197 197 197 206 206 206 219 219 219 226 226 226 226 226 226 234 234 234 235 235 235 226 226 226 231 231 231 231 231 231 224 224 224 232 232 232 231 231 231 219 219 219 230 230 230 238 238 238 237 237 237 236 236 236 238 238 238 237 237 237 234 234 234 238 238 238 235 235 235 235 235 235 233 233 233 223 223 223 218 218 218 233 233 233 229 229 229 231 231 231 237 237 237 212 212 212 197 197 197 223 223 223 241 241 241 236 236 236 237 237 237 238 238 238 237 237 237 237 237 237 236 236 236 236 236 236 235 235 235 234 234 234 234 234 234 230 230 230 220 220 220 210 210 210 209 209 209 217 217 217 226 226 226 230 230 230 230 230 230 231 231 231 221 221 221 210 210 210 206 206 206 210 210 210 217 217 217 221 221 221 222 222 222 229 229 229 223 223 223 221 221 221 227 227 227 234 234 234 237 237 237 238 238 238 240 240 240 250 250 250 229 229 229 233 233 233 210 210 210 235 235 235 234 234 234 181 181 181 231 231 231 225 225 225 218 218 218 212 212 212 197 197 197 159 159 159 127 127 127 205 205 205 171 171 171 78 78 79 
116 116 118 198 198 200 214 214 216 143 143 145 144 144 146 148 148 150 155 155 157 123 123 125 101 101 103 127 127 129 127 127 129 138 138 140 141 141 143 166 166 168 237 237 238 231 231 231 233 233 233 237 237 237 242 242 242 247 247 247 249 249 249 248 248 248 247 247 247 247 247 247 249 249 249 252 252 252 252 252 252 245 245 245 237 237 237 240 240 240 248 248 248 252 252 252 252 252 252 235 235 235 209 209 209 205 205 205 225 225 225 237 237 237 234 234 234 248 248 248 250 250 250 247 247 247 244 244 244 246 246 246 252 252 252 253 253 253 250 250 250 252 252 252 252 252 252 253 253 253 253 253 253 253 253 253 254 254 254 254 254 254 254 254 254 255 255 255 255 255 255 255 255 255 
250 250 250 251 251 251 251 251 251 251 251 251 251 251 251 251 251 251 251 251 251 251 251 251 251 251 251 251 251 251 251 251 251 251 251 251 251 251 251 251 251 251 251 251 251 251 251 251 251 251 251 252 252 252 252 252 252 251 251 251 251 251 251 250 250 250 250 250 250 249 249 249 249 249 249 248 248 249 247 247 249 246 246 248 244 244 246 242 242 244 239 239 241 237 237 239 236 236 238 232 232 234 230 230 232 232 232 234 237 237 239 241 241 243 241 241 243 244 244 246 249 249 250 250 248 249 250 248 249 250 248 249 250 248 249 250 248 249 250 248 249 250 248 249 250 248 249 250 248 249 243 241 242 238 236 237 239 237 238 245 243 244 246 244 245 241 239 240 234 232 233 231 231 231 179 179 179 186 186 186 204 204 204 211 211 211 194 194 194 217 217 217 224 224 224 231 231 231 231 231 231 235 235 235 241 241 241 236 236 236 220 220 220 202 202 202 191 191 191 210 210 210 198 198 198 209 209 209 228 228 228 230 230 230 232 232 232 228 228 228 211 211 211 225 225 225 227 227 227 224 224 224 213 213 213 202 202 202 202 202 202 217 217 217 232 232 232 233 233 233 230 230 230 231 231 231 235 235 235 237 237 237 233 233 233 229 229 229 228 228 228 229 229 229 231 231 231 234 234 234 237 237 237 239 239 239 240 240 240 240 240 240 240 240 240 237 237 237 239 239 239 239 239 239 236 236 236 231 231 231 228 228 228 229 229 229 231 231 231 227 227 227 233 233 233 230 230 230 211 211 211 191 191 191 191 191 191 213 213 213 237 237 237 236 236 236 233 233 233 238 238 238 225 225 225 217 217 217 222 222 222 224 224 224 238 238 238 230 230 230 217 217 217 216 216 216 194 194 194 207 207 207 217 217 217 220 220 220 213 213 213 222 222 222 181 181 181 204 204 204 200 200 200 197 197 197 202 202 202 223 223 223 221 221 221 222 222 222 219 219 219 224 224 224 234 234 234 236 236 236 231 231 231 232 232 232 239 239 239 236 236 236 236 236 236 241 241 241 241 241 241 227 227 227 211 211 211 210 210 210 220 220 220 229 229 229 209 209 209 227 227 227 223 223 223 198 198 198 171 171 171 84 84 84 83 83 83 171 171 172 180 180 182 
151 151 153 203 203 205 128 128 130 138 138 140 162 162 164 154 154 156 110 110 112 131 131 133 106 106 108 117 117 119 141 141 143 143 143 145 152 152 154 242 242 243 248 248 248 239 239 239 245 245 245 254 254 254 250 250 250 246 246 246 247 247 247 248 248 248 251 251 251 252 252 252 253 253 253 250 250 250 247 247 247 245 245 245 245 245 245 246 246 246 245 245 245 249 249 249 243 243 243 215 215 215 206 206 206 213 213 213 211 211 211 222 222 222 236 236 236 245 245 245 248 248 248 243 243 243 242 242 242 250 250 250 254 254 254 252 252 252 252 252 252 252 252 252 253 253 253 253 253 253 253 253 253 254 254 254 254 254 254 254 254 254 255 255 255 255 255 255 255 255 255 
250 250 250 251 251 251 251 251 251 251 251 251 251 251 251 251 251 251 251 251 251 251 251 251 251 251 251 251 251 251 251 251 251 251 251 251 251 251 251 251 251 251 251 251 251 251 251 251 251 251 251 252 252 252 251 251 251 251 251 251 251 251 251 250 250 250 250 250 250 250 250 250 249 249 249 248 248 249 248 248 250 246 246 248 245 245 247 242 242 244 240 240 242 237 237 239 236 236 238 233 233 235 233 233 235 233 233 235 234 234 236 237 237 239 241 241 243 246 246 248 248 248 249 250 248 249 250 248 249 250 248 249 250 248 249 250 248 249 250 248 249 250 248 249 250 248 249 252 250 251 246 244 245 240 238 239 239 237 238 242 240 241 244 242 243 244 242 243 242 240 241 221 221 221 188 188 188 189 189 189 208 208 208 218 218 218 212 212 212 221 221 221 226 226 226 229 229 229 227 227 227 229 229 229 235 235 235 236 236 236 227 227 227 212 212 212 200 200 200 190 190 190 206 206 206 229 229 229 230 230 230 220 220 220 230 230 230 239 239 239 228 228 228 227 227 227 228 228 228 225 225 225 218 218 218 211 211 211 213 213 213 223 223 223 233 233 233 234 234 234 231 231 231 231 231 231 235 235 235 237 237 237 234 234 234 232 232 232 231 231 231 232 232 232 234 234 234 236 236 236 239 239 239 241 241 241 241 241 241 241 241 241 240 240 240 239 239 239 240 240 240 240 240 240 239 239 239 236 236 236 233 233 233 232 232 232 232 232 232 232 232 232 238 238 238 239 239 239 231 231 231 219 219 219 217 217 217 226 226 226 237 237 237 236 236 236 236 236 236 234 234 234 196 196 196 157 157 157 146 146 146 155 155 155 182 182 182 228 228 228 216 216 216 190 190 190 159 159 159 155 155 155 184 184 184 214 214 214 213 213 213 162 162 162 153 153 153 183 183 183 217 217 217 226 226 226 204 204 204 221 221 221 217 217 217 222 222 222 219 219 219 223 223 223 234 234 234 238 238 238 235 235 235 236 236 236 242 242 242 241 241 241 236 236 236 241 241 241 245 245 245 230 230 230 208 208 208 211 211 211 231 231 231 232 232 232 219 219 219 229 229 229 225 225 225 209 209 209 205 205 205 141 141 141 129 129 129 169 169 170 
174 174 176 131 131 133 92 92 94 165 165 167 126 126 128 139 139 141 141 141 143 146 146 148 112 112 114 122 122 124 110 110 112 125 125 127 130 130 132 142 142 144 246 246 247 246 246 246 243 243 243 246 246 246 248 248 248 244 244 244 247 247 247 252 252 252 251 251 251 247 247 247 249 249 249 250 250 250 250 250 250 248 248 248 247 247 247 249 249 249 250 250 250 247 247 247 248 248 248 244 244 244 219 219 219 211 211 211 213 213 213 209 209 209 222 222 222 233 233 233 240 240 240 241 241 241 236 236 236 237 237 237 246 246 246 251 251 251 250 250 250 252 252 252 252 252 252 253 253 253 253 253 253 253 253 253 253 253 253 254 254 254 254 254 254 255 255 255 255 255 255 255 255 255 
250 250 250 251 251 251 251 251 251 251 251 251 251 251 251 251 251 251 251 251 251 251 251 251 251 251 251 251 251 251 251 251 251 251 251 251 251 251 251 251 251 251 251 251 251 251 251 251 251 251 251 251 251 251 251 251 251 251 251 251 251 251 251 250 250 250 250 250 250 250 250 250 250 250 250 248 248 249 248 248 250 247 247 249 245 245 247 242 242 244 240 240 242 238 238 240 236 236 238 234 234 236 237 237 239 234 234 236 229 229 231 231 231 233 241 241 243 247 247 249 246 246 247 250 248 249 250 248 249 250 248 249 250 248 249 250 248 249 250 248 249 250 248 249 250 248 249 252 250 251 248 246 247 243 241 242 238 236 237 236 234 235 238 236 237 243 241 242 247 245 246 218 218 218 194 194 194 182 182 182 210 210 210 223 223 223 218 218 218 214 214 214 234 234 234 226 226 226 223 223 223 223 223 223 229 229 229 236 236 236 236 236 236 226 226 226 216 216 216 190 190 190 208 208 208 231 231 231 234 234 234 222 222 222 223 223 223 229 229 229 225 225 225 230 230 230 230 230 230 229 229 229 227 227 227 224 224 224 225 225 225 228 228 228 231 231 231 235 235 235 232 232 232 232 232 232 236 236 236 238 238 238 236 236 236 235 235 235 237 237 237 236 236 236 238 238 238 240 240 240 241 241 241 242 242 242 243 243 243 242 242 242 242 242 242 242 242 242 241 241 241 241 241 241 242 242 242 242 242 242 240 240 240 237 237 237 235 235 235 236 236 236 238 238 238 241 241 241 241 241 241 239 239 239 237 237 237 235 235 235 235 235 235 236 236 236 227 227 227 221 221 221 194 194 194 168 168 168 153 153 153 137 137 137 140 140 140 167 167 167 136 136 136 105 105 105 109 109 109 101 101 101 112 112 112 183 183 183 221 221 221 214 214 214 201 201 201 178 178 178 197 197 197 223 223 223 211 211 211 233 233 233 230 230 230 224 224 224 220 220 220 223 223 223 234 234 234 241 241 241 241 241 241 242 242 242 245 245 245 246 246 246 238 238 238 242 242 242 250 250 250 234 234 234 210 210 210 215 215 215 241 241 241 230 230 230 226 226 226 225 225 225 220 220 220 204 204 204 211 211 211 169 169 169 141 141 141 189 189 190 
150 150 152 187 187 189 171 171 173 148 148 150 111 111 113 152 152 154 132 132 134 103 103 105 107 107 109 121 121 123 115 115 117 130 130 132 129 129 131 185 185 187 237 237 238 249 249 249 252 252 252 253 253 253 248 248 248 245 245 245 248 248 248 250 250 250 248 248 248 247 247 247 248 248 248 249 249 249 249 249 249 249 249 249 249 249 249 250 250 250 251 251 251 250 250 250 249 249 249 248 248 248 229 229 229 224 224 224 223 223 223 218 218 218 233 233 233 237 237 237 241 241 241 239 239 239 233 233 233 236 236 236 246 246 246 252 252 252 252 252 252 252 252 252 252 252 252 252 252 252 253 253 253 253 253 253 253 253 253 253 253 253 254 254 254 255 255 255 255 255 255 255 255 255 
250 250 250 251 251 251 251 251 251 251 251 251 251 251 251 251 251 251 251 251 251 251 251 251 251 251 251 251 251 251 251 251 251 251 251 251 251 251 251 251 251 251 251 251 251 251 251 251 251 251 251 251 251 251 251 251 251 251 251 251 251 251 251 250 250 250 250 250 250 250 250 250 250 250 250 249 249 250 248 248 250 247 247 249 245 245 247 243 243 245 240 240 242 238 238 240 237 237 239 235 235 237 240 240 242 235 235 237 225 225 227 227 227 229 241 241 243 248 248 250 245 245 246 250 248 249 250 248 249 250 248 249 250 248 249 250 248 249 250 248 249 250 248 249 250 248 249 250 248 249 249 247 248 245 243 244 239 237 238 233 231 232 233 231 232 238 236 237 244 242 243 240 240 240 211 211 211 175 175 175 202 202 202 210 210 210 197 197 197 185 185 185 229 229 229 217 217 217 219 219 219 219 219 219 221 221 221 227 227 227 234 234 234 232 232 232 225 225 225 208 208 208 196 196 196 203 203 203 228 228 228 237 237 237 227 227 227 216 216 216 213 213 213 225 225 225 229 229 229 233 233 233 235 235 235 233 233 233 230 230 230 228 228 228 227 227 227 236 236 236 234 234 234 234 234 234 238 238 238 240 240 240 239 239 239 239 239 239 242 242 242 241 241 241 242 242 242 243 243 243 244 244 244 244 244 244 244 244 244 244 244 244 243 243 243 243 243 243 242 242 242 242 242 242 245 245 245 247 247 247 246 246 246 241 241 241 237 237 237 242 242 242 239 239 239 238 238 238 239 239 239 242 242 242 242 242 242 240 240 240 236 236 236 242 242 242 224 224 224 222 222 222 220 220 220 227 227 227 223 223 223 190 190 190 171 171 171 179 179 179 164 164 164 169 169 169 190 190 190 176 176 176 133 133 133 201 201 201 230 230 230 240 240 240 240 240 240 207 207 207 196 196 196 219 219 219 215 215 215 212 212 212 221 221 221 229 229 229 225 225 225 226 226 226 235 235 235 244 244 244 246 246 246 246 246 246 247 247 247 248 248 248 243 243 243 246 246 246 250 250 250 239 239 239 223 223 223 225 225 225 241 241 241 228 228 228 229 229 229 225 225 225 226 226 226 204 204 204 205 205 205 174 174 174 144 144 144 200 200 201 
171 171 173 178 178 180 157 157 159 134 134 136 132 132 134 130 130 132 126 126 128 118 118 120 130 130 132 123 123 125 94 94 96 95 95 97 99 99 101 158 158 160 226 226 227 248 248 248 250 250 250 249 249 249 248 248 248 251 251 251 249 249 249 244 244 244 246 246 246 249 249 249 249 249 249 249 249 249 249 249 249 248 248 248 248 248 248 248 248 248 248 248 248 248 248 248 247 247 247 248 248 248 236 236 236 234 234 234 234 234 234 228 228 228 245 245 245 244 244 244 243 243 243 239 239 239 233 233 233 235 235 235 244 244 244 251 251 251 252 252 252 252 252 252 252 252 252 252 252 252 252 252 252 253 253 253 253 253 253 253 253 253 253 253 253 254 254 254 254 254 254 254 254 254 
250 250 250 251 251 251 251 251 251 251 251 251 251 251 251 251 251 251 251 251 251 251 251 251 251 251 251 251 251 251 251 251 251 251 251 251 251 251 251 251 251 251 251 251 251 251 251 251 251 251 251 250 250 250 250 250 250 250 250 250 250 250 250 251 251 251 251 251 251 251 251 251 251 251 251 249 249 250 249 249 251 247 247 249 246 246 248 243 243 245 241 241 243 238 238 240 237 237 239 236 236 238 240 240 242 236 236 238 226 226 228 227 227 229 241 241 243 248 248 250 245 245 246 251 249 250 251 249 250 251 249 250 251 249 250 251 249 250 251 249 250 251 249 250 251 249 250 250 248 249 251 249 250 250 248 249 244 242 243 237 235 236 233 231 232 234 232 233 238 236 237 243 243 243 222 222 222 171 171 171 168 168 168 166 166 166 159 159 159 149 149 149 191 191 191 206 206 206 215 215 215 218 218 218 214 214 214 216 216 216 226 226 226 229 229 229 225 225 225 217 217 217 193 193 193 182 182 182 204 204 204 231 231 231 233 233 233 219 219 219 213 213 213 214 214 214 222 222 222 232 232 232 236 236 236 234 234 234 230 230 230 228 228 228 228 228 228 237 237 237 236 236 236 237 237 237 241 241 241 242 242 242 241 241 241 243 243 243 246 246 246 245 245 245 245 245 245 246 246 246 246 246 246 246 246 246 246 246 246 246 246 246 245 245 245 244 244 244 243 243 243 243 243 243 246 246 246 248 248 248 248 248 248 244 244 244 240 240 240 244 244 244 243 243 243 242 242 242 242 242 242 244 244 244 244 244 244 242 242 242 240 240 240 247 247 247 236 236 236 238 238 238 235 235 235 239 239 239 245 245 245 233 233 233 231 231 231 218 218 218 229 229 229 242 242 242 216 216 216 202 202 202 155 155 155 225 225 225 229 229 229 223 223 223 236 236 236 245 245 245 225 225 225 224 224 224 209 209 209 181 181 181 239 239 239 236 236 236 232 232 232 232 232 232 239 239 239 246 246 246 249 249 249 248 248 248 247 247 247 247 247 247 249 249 249 250 250 250 248 248 248 245 245 245 241 241 241 238 238 238 236 236 236 230 230 230 231 231 231 230 230 230 239 239 239 220 220 220 215 215 215 193 193 193 186 186 186 181 181 182 
172 172 174 177 177 179 101 101 103 157 157 159 146 146 148 136 136 138 124 124 126 129 129 131 109 109 111 147 147 149 113 113 115 95 95 97 84 84 86 38 38 40 177 177 178 246 246 246 246 246 246 240 240 240 244 244 244 253 253 253 247 247 247 242 242 242 253 253 253 248 248 248 248 248 248 247 247 247 247 247 247 248 248 248 248 248 248 247 247 247 247 247 247 243 243 243 244 244 244 245 245 245 233 233 233 234 234 234 237 237 237 231 231 231 246 246 246 245 245 245 244 244 244 239 239 239 233 233 233 233 233 233 238 238 238 245 245 245 248 248 248 251 251 251 251 251 251 252 252 252 252 252 252 252 252 252 253 253 253 253 253 253 253 253 253 254 254 254 254 254 254 254 254 254 
250 250 250 251 251 251 251 251 251 251 251 251 251 251 251 251 251 251 251 251 251 251 251 251 251 251 251 251 251 251 251 251 251 251 251 251 251 251 251 251 251 251 251 251 251 251 251 251 251 251 251 250 250 250 250 250 250 250 250 250 250 250 250 251 251 251 251 251 251 251 251 251 251 251 251 249 249 250 249 249 251 248 248 250 246 246 248 243 243 245 241 241 243 239 239 241 237 237 239 236 236 238 239 239 241 236 236 238 230 230 232 232 232 234 241 241 243 247 247 249 246 246 247 251 249 250 251 249 250 251 249 250 251 249 250 251 249 250 251 249 250 251 249 250 251 249 250 252 250 251 253 251 252 253 251 252 250 248 249 245 243 244 240 238 239 235 233 234 233 231 232 232 232 232 236 236 236 197 197 197 167 167 167 162 162 162 165 165 165 163 163 163 185 185 185 206 206 206 221 221 221 226 226 226 218 218 218 217 217 217 226 226 226 230 230 230 225 225 225 216 216 216 212 212 212 190 190 190 178 178 178 198 198 198 220 220 220 217 217 217 207 207 207 208 208 208 215 215 215 225 225 225 230 230 230 231 231 231 231 231 231 232 232 232 234 234 234 238 238 238 238 238 238 241 241 241 245 245 245 245 245 245 244 244 244 245 245 245 249 249 249 248 248 248 247 247 247 247 247 247 247 247 247 247 247 247 247 247 247 247 247 247 247 247 247 245 245 245 245 245 245 246 246 246 247 247 247 248 248 248 248 248 248 245 245 245 243 243 243 240 240 240 243 243 243 246 246 246 248 248 248 248 248 248 245 245 245 241 241 241 239 239 239 244 244 244 238 238 238 243 243 243 236 236 236 235 235 235 242 242 242 239 239 239 246 246 246 246 246 246 245 245 245 246 246 246 210 210 210 204 204 204 158 158 158 218 218 218 244 244 244 250 250 250 238 238 238 251 251 251 241 241 241 232 232 232 200 200 200 150 150 150 233 233 233 242 242 242 240 240 240 239 239 239 242 242 242 247 247 247 249 249 249 249 249 249 248 248 248 248 248 248 253 253 253 253 253 253 248 248 248 249 249 249 253 253 253 247 247 247 235 235 235 233 233 233 229 229 229 228 228 228 233 233 233 224 224 224 220 220 220 198 198 198 223 223 223 182 182 183 
134 134 136 180 180 182 146 146 148 141 141 143 110 110 112 140 140 142 134 134 136 139 139 141 133 133 135 135 135 137 99 99 101 75 75 77 58 58 60 19 19 21 152 152 153 246 246 246 254 254 254 247 247 247 244 244 244 252 252 252 244 244 244 240 240 240 255 255 255 244 244 244 243 243 243 243 243 243 245 245 245 247 247 247 249 249 249 248 248 248 248 248 248 245 245 245 248 248 248 247 247 247 229 229 229 230 230 230 238 238 238 234 234 234 244 244 244 247 247 247 247 247 247 244 244 244 239 239 239 235 235 235 237 237 237 243 243 243 248 248 248 251 251 251 251 251 251 251 251 251 252 252 252 252 252 252 252 252 252 252 252 252 253 253 253 253 253 253 253 253 253 253 253 253 
250 250 250 251 251 251 251 251 251 251 251 251 251 251 251 251 251 251 251 251 251 251 251 251 251 251 251 251 251 251 251 251 251 251 251 251 251 251 251 251 251 251 251 251 251 251 251 251 251 251 251 249 249 249 250 250 250 250 250 250 250 250 250 251 251 251 251 251 251 251 251 251 252 252 252 250 250 251 249 249 251 248 248 250 246 246 248 244 244 246 241 241 243 239 239 241 238 238 240 237 237 239 236 236 238 235 235 237 236 236 238 238 238 240 242 242 244 245 245 247 248 248 249 251 249 250 251 249 250 251 249 250 251 249 250 251 249 250 251 249 250 251 249 250 251 249 250 254 252 253 252 250 251 250 248 249 251 249 250 251 249 250 246 244 245 238 236 237 230 228 229 232 232 232 243 243 243 236 236 236 213 213 213 208 208 208 190 190 190 191 191 191 206 206 206 210 210 210 227 227 227 233 233 233 224 224 224 223 223 223 232 232 232 232 232 232 222 222 222 220 220 220 231 231 231 208 208 208 179 179 179 186 186 186 205 205 205 206 206 206 202 202 202 216 216 216 216 216 216 217 217 217 220 220 220 225 225 225 230 230 230 235 235 235 238 238 238 239 239 239 240 240 240 244 244 244 248 248 248 248 248 248 245 245 245 246 246 246 250 250 250 249 249 249 248 248 248 248 248 248 248 248 248 248 248 248 248 248 248 249 249 249 249 249 249 247 247 247 248 248 248 249 249 249 249 249 249 248 248 248 247 247 247 247 247 247 248 248 248 241 241 241 243 243 243 247 247 247 249 249 249 249 249 249 247 247 247 244 244 244 242 242 242 244 244 244 237 237 237 244 244 244 242 242 242 246 246 246 251 251 251 241 241 241 241 241 241 245 245 245 239 239 239 240 240 240 245 245 245 238 238 238 180 180 180 178 178 178 220 220 220 252 252 252 241 241 241 239 239 239 246 246 246 247 247 247 215 215 215 150 150 150 198 198 198 244 244 244 245 245 245 245 245 245 246 246 246 247 247 247 250 250 250 251 251 251 251 251 251 252 252 252 253 253 253 253 253 253 250 250 250 251 251 251 253 253 253 250 250 250 243 243 243 239 239 239 234 234 234 230 230 230 221 221 221 223 223 223 224 224 224 187 187 187 231 231 231 214 214 215 
166 166 168 144 144 146 155 155 157 130 130 132 108 108 110 105 105 107 143 143 145 120 120 122 156 156 158 133 133 135 116 116 118 94 94 96 47 47 49 47 47 49 90 90 91 207 207 207 246 246 246 254 254 254 243 243 243 248 248 248 246 246 246 240 240 240 249 249 249 244 244 244 242 242 242 242 242 242 243 243 243 246 246 246 247 247 247 247 247 247 245 245 245 244 244 244 251 251 251 248 248 248 223 223 223 224 224 224 240 240 240 237 237 237 243 243 243 245 245 245 248 248 248 249 249 249 245 245 245 239 239 239 237 237 237 242 242 242 250 250 250 251 251 251 251 251 251 251 251 251 251 251 251 252 252 252 252 252 252 252 252 252 252 252 252 252 252 252 252 252 252 253 253 253 
250 250 250 251 251 251 251 251 251 251 251 251 251 251 251 251 251 251 251 251 251 251 251 251 251 251 251 251 251 251 251 251 251 251 251 251 251 251 251 251 251 251 251 251 251 251 251 251 251 251 251 249 249 249 249 249 249 250 250 250 250 250 250 251 251 251 251 251 251 252 252 252 252 252 252 250 250 251 249 249 250 248 248 249 246 246 247 244 244 245 241 241 242 239 239 240 238 238 239 237 237 238 234 234 235 235 235 236 239 239 240 242 242 243 242 242 243 244 244 245 249 249 250 252 250 251 252 250 251 252 250 251 252 250 251 252 250 251 252 250 251 252 250 251 252 250 251 253 251 252 248 246 247 246 244 245 248 246 247 252 250 251 249 247 248 239 237 238 229 227 228 219 219 219 216 216 216 233 233 233 233 233 233 224 224 224 168 168 168 163 163 163 187 187 187 209 209 209 226 226 226 231 231 231 222 222 222 223 223 223 233 233 233 229 229 229 213 213 213 227 227 227 234 234 234 217 217 217 200 200 200 205 205 205 207 207 207 204 204 204 212 212 212 229 229 229 221 221 221 213 213 213 213 213 213 220 220 220 229 229 229 236 236 236 238 238 238 239 239 239 241 241 241 246 246 246 250 250 250 250 250 250 246 246 246 247 247 247 250 250 250 249 249 249 248 248 248 248 248 248 248 248 248 248 248 248 249 249 249 249 249 249 250 250 250 248 248 248 250 250 250 252 252 252 251 251 251 248 248 248 247 247 247 249 249 249 251 251 251 250 250 250 248 248 248 247 247 247 248 248 248 250 250 250 252 252 252 253 253 253 252 252 252 252 252 252 249 249 249 255 255 255 250 250 250 248 248 248 252 252 252 247 247 247 254 254 254 247 247 247 254 254 254 238 238 238 246 246 246 241 241 241 225 225 225 196 196 196 239 239 239 238 238 238 255 255 255 239 239 239 241 241 241 249 249 249 248 248 248 216 216 216 242 242 242 244 244 244 247 247 247 248 248 248 247 247 247 247 247 247 250 250 250 252 252 252 253 253 253 255 255 255 252 252 252 251 251 251 254 254 254 253 253 253 249 249 249 249 249 249 253 253 253 247 247 247 246 246 246 244 244 244 224 224 224 234 234 234 241 241 241 188 188 188 236 236 236 233 233 234 
232 232 234 213 213 215 209 209 211 170 170 172 163 163 165 146 146 148 145 145 147 125 125 127 117 117 119 121 121 123 109 109 111 98 98 100 53 53 55 65 65 67 105 105 106 144 144 144 215 215 215 245 245 245 235 235 235 244 244 244 251 251 251 244 244 244 244 244 244 246 246 246 244 244 244 242 242 242 243 243 243 244 244 244 244 244 244 243 243 243 240 240 240 236 236 236 246 246 246 242 242 242 214 214 214 217 217 217 239 239 239 238 238 238 241 241 241 238 238 238 243 243 243 247 247 247 245 245 245 237 237 237 233 233 233 239 239 239 247 247 247 251 251 251 251 251 251 251 251 251 251 251 251 252 252 252 252 252 252 252 252 252 252 252 252 252 252 252 252 252 252 252 252 252 
251 251 251 251 251 251 251 251 251 251 251 251 251 251 251 251 251 251 251 251 251 251 251 251 251 251 251 251 251 251 251 251 251 251 251 251 251 251 251 251 251 251 251 251 251 251 251 251 251 251 251 250 250 250 250 250 250 251 251 251 251 251 251 251 251 251 251 251 251 250 250 250 250 250 250 249 249 249 249 249 249 248 248 248 247 247 247 245 245 245 243 243 243 241 241 241 240 240 240 239 239 239 238 238 238 236 236 236 236 236 236 238 238 238 242 242 242 247 247 247 250 250 250 252 250 251 252 250 251 252 250 251 252 250 251 251 249 250 251 249 250 251 249 250 251 249 250 250 248 249 250 248 249 250 248 249 250 248 249 249 247 248 245 243 244 239 237 238 235 233 234 224 224 224 237 237 237 221 221 221 219 219 219 199 199 199 199 199 199 142 142 142 171 171 171 193 193 193 207 207 207 218 218 218 219 219 219 223 223 223 225 225 225 214 214 214 198 198 198 235 235 235 231 231 231 223 223 223 217 217 217 217 217 217 217 217 217 212 212 212 206 206 206 228 228 228 229 229 229 231 231 231 231 231 231 231 231 231 232 232 232 234 234 234 236 236 236 245 245 245 246 246 246 247 247 247 248 248 248 249 249 249 249 249 249 249 249 249 249 249 249 249 249 249 249 249 249 249 249 249 249 249 249 250 250 250 250 250 250 250 250 250 250 250 250 251 251 251 251 251 251 251 251 251 251 251 251 251 251 251 251 251 251 251 251 251 251 251 251 250 250 250 250 250 250 251 251 251 252 252 252 253 253 253 253 253 253 254 254 254 254 254 254 253 253 253 253 253 253 253 253 253 253 253 253 253 253 253 253 253 253 253 253 253 253 253 253 250 250 250 250 250 250 248 248 248 246 246 246 247 247 247 246 246 246 238 238 238 229 229 229 244 244 244 245 245 245 246 246 246 246 246 246 244 244 244 243 243 243 243 243 243 244 244 244 251 251 251 251 251 251 252 252 252 253 253 253 253 253 253 253 253 253 253 253 253 252 252 252 255 255 255 255 255 255 254 254 254 254 254 254 254 254 254 254 254 254 253 253 253 253 253 253 250 250 250 247 247 247 238 238 238 232 232 232 225 225 225 210 210 210 207 207 207 222 222 222 236 236 237 
232 232 234 229 229 231 196 196 198 129 129 131 166 166 168 144 144 146 147 147 149 127 127 129 153 153 155 156 156 158 180 180 182 157 157 159 76 76 78 67 67 69 93 93 94 65 64 64 177 175 176 212 210 211 242 240 241 251 249 250 245 243 244 248 246 247 238 236 237 251 249 250 241 239 240 236 234 235 241 239 240 247 245 246 245 243 244 242 240 241 241 239 240 241 239 240 241 239 240 236 234 235 228 226 227 225 223 224 228 226 227 233 231 232 234 232 233 239 237 238 248 246 247 237 235 236 230 228 229 222 220 221 220 218 219 236 234 235 236 235 235 245 245 244 248 248 247 250 250 249 251 251 250 251 251 250 250 250 249 251 251 250 252 252 251 254 254 253 254 254 253 254 254 253 
251 251 251 250 250 250 250 250 250 250 250 250 250 250 250 250 250 250 250 250 250 250 250 250 250 250 250 251 251 251 251 251 251 251 251 251 251 251 251 251 251 251 251 251 251 251 251 251 251 251 251 250 250 250 250 250 250 251 251 251 251 251 251 251 251 251 251 251 251 250 250 250 250 250 250 249 249 249 249 249 249 248 248 248 247 247 247 245 245 245 243 243 243 241 241 241 240 240 240 240 240 240 238 238 238 237 237 237 236 236 236 238 238 238 242 242 242 247 247 247 249 249 249 252 250 251 252 250 251 251 249 250 251 249 250 251 249 250 251 249 250 251 249 250 251 249 250 248 246 247 248 246 247 249 247 248 251 249 250 253 251 252 252 250 251 249 247 248 246 244 245 240 240 240 224 224 224 197 197 197 188 188 188 185 185 185 194 194 194 197 197 197 187 187 187 172 172 172 189 189 189 207 207 207 218 218 218 226 226 226 227 227 227 218 218 218 206 206 206 223 223 223 231 231 231 229 229 229 228 228 228 233 233 233 227 227 227 208 208 208 194 194 194 219 219 219 224 224 224 230 230 230 236 236 236 238 238 238 239 239 239 239 239 239 240 240 240 246 246 246 246 246 246 247 247 247 248 248 248 249 249 249 249 249 249 249 249 249 249 249 249 249 249 249 249 249 249 249 249 249 250 250 250 250 250 250 250 250 250 250 250 250 251 251 251 251 251 251 251 251 251 251 251 251 251 251 251 251 251 251 251 251 251 251 251 251 251 251 251 250 250 250 251 251 251 251 251 251 252 252 252 253 253 253 253 253 253 254 254 254 254 254 254 253 253 253 253 253 253 253 253 253 253 253 253 253 253 253 253 253 253 253 253 253 253 253 253 252 252 252 253 253 253 251 251 251 248 248 248 248 248 248 248 248 248 242 242 242 234 234 234 241 241 241 243 243 243 245 245 245 246 246 246 245 245 245 245 245 245 246 246 246 247 247 247 251 251 251 251 251 251 252 252 252 253 253 253 253 253 253 253 253 253 253 253 253 253 253 253 255 255 255 255 255 255 254 254 254 254 254 254 254 254 254 254 254 254 253 253 253 253 253 253 253 253 253 255 255 255 250 250 250 243 243 243 234 234 234 219 219 219 218 218 218 233 233 233 241 241 242 
237 237 239 234 234 236 211 211 213 159 159 161 150 150 152 119 119 121 153 153 155 157 157 159 137 137 139 140 140 142 132 132 134 127 127 129 186 186 188 144 144 146 75 75 76 102 100 101 83 81 82 104 102 103 191 189 190 223 221 222 233 231 232 239 237 238 254 252 253 247 245 246 239 237 238 235 233 234 239 237 238 244 242 243 244 242 243 243 241 242 244 242 243 241 239 240 242 240 241 236 234 235 225 223 224 218 216 217 221 219 220 229 227 228 234 232 233 234 232 233 236 234 235 220 218 219 213 211 212 211 209 210 217 215 216 235 233 234 235 234 234 243 243 242 245 245 243 248 248 246 250 250 248 250 250 248 250 250 248 251 251 249 253 253 251 254 254 252 254 254 252 254 254 252 
250 250 250 250 250 250 250 250 250 250 250 250 250 250 250 250 250 250 250 250 250 250 250 250 250 250 250 251 251 251 251 251 251 251 251 251 251 251 251 251 251 251 251 251 251 251 251 251 251 251 251 250 250 250 250 250 250 251 251 251 251 251 251 251 251 251 251 251 251 250 250 250 250 250 250 249 249 249 248 248 248 248 248 248 246 246 246 245 245 245 243 243 243 241 241 241 240 240 240 240 240 240 239 239 239 237 237 237 237 237 237 238 238 238 242 242 242 246 246 246 248 248 248 251 249 250 251 249 250 251 249 250 251 249 250 251 249 250 251 249 250 251 249 250 251 249 250 251 249 250 250 248 249 250 248 249 250 248 249 250 248 249 249 247 248 246 244 245 244 242 243 254 254 254 232 232 232 213 213 213 173 173 173 147 147 147 138 138 138 205 205 205 187 187 187 197 197 197 206 206 206 217 217 217 225 225 225 226 226 226 219 219 219 210 210 210 204 204 204 216 216 216 230 230 230 225 225 225 222 222 222 237 237 237 234 234 234 210 210 210 197 197 197 212 212 212 216 216 216 223 223 223 229 229 229 233 233 233 235 235 235 238 238 238 239 239 239 246 246 246 247 247 247 248 248 248 249 249 249 249 249 249 250 250 250 249 249 249 249 249 249 249 249 249 249 249 249 250 250 250 250 250 250 250 250 250 250 250 250 251 251 251 251 251 251 251 251 251 251 251 251 251 251 251 251 251 251 251 251 251 251 251 251 251 251 251 251 251 251 251 251 251 251 251 251 252 252 252 252 252 252 253 253 253 254 254 254 254 254 254 254 254 254 254 254 254 254 254 254 254 254 254 254 254 254 254 254 254 254 254 254 254 254 254 254 254 254 253 253 253 255 255 255 255 255 255 251 251 251 250 250 250 249 249 249 247 247 247 242 242 242 240 240 240 242 242 242 245 245 245 246 246 246 246 246 246 247 247 247 248 248 248 250 250 250 251 251 251 252 252 252 252 252 252 253 253 253 253 253 253 253 253 253 253 253 253 253 253 253 255 255 255 255 255 255 254 254 254 254 254 254 254 254 254 254 254 254 253 253 253 253 253 253 251 251 251 255 255 255 255 255 255 249 249 249 240 240 240 225 225 225 224 224 224 239 239 239 242 242 243 
242 242 244 243 243 245 223 223 225 202 202 204 161 161 163 113 113 115 140 140 142 137 137 139 154 154 156 151 151 153 204 204 206 125 125 127 100 100 102 126 126 128 105 105 106 121 119 120 95 93 94 98 96 97 84 82 83 196 194 195 233 231 232 248 246 247 235 233 234 245 243 244 241 239 240 239 237 238 242 240 241 244 242 243 242 240 241 241 239 240 241 239 240 243 241 242 244 242 243 238 236 237 224 222 223 214 212 213 216 214 215 224 222 223 230 228 229 229 227 228 227 225 226 211 209 210 211 209 210 216 214 215 225 223 224 242 240 241 240 239 239 239 239 238 242 242 240 246 246 244 248 248 246 249 249 247 251 251 249 252 252 250 254 254 252 254 254 252 254 254 252 254 254 252 
250 250 250 250 250 250 250 250 250 250 250 250 250 250 250 250 250 250 250 250 250 250 250 250 250 250 250 251 251 251 251 251 251 251 251 251 251 251 251 251 251 251 251 251 251 251 251 251 251 251 251 250 250 250 250 250 250 251 251 251 251 251 251 251 251 251 251 251 251 250 250 250 250 250 250 248 248 248 248 248 248 247 247 247 246 246 246 244 244 244 242 242 242 241 241 241 240 240 240 241 241 241 239 239 239 238 238 238 237 237 237 239 239 239 241 241 241 245 245 245 247 247 247 250 248 249 250 248 249 250 248 249 251 249 250 251 249 250 251 249 250 251 249 250 251 249 250 254 252 253 252 250 251 250 248 249 249 247 248 249 247 248 247 245 246 245 243 244 243 241 242 231 231 231 223 223 223 226 226 226 184 184 184 149 149 149 128 128 128 193 193 193 203 203 203 215 215 215 215 215 215 218 218 218 222 222 222 222 222 222 219 219 219 220 220 220 224 224 224 224 224 224 231 231 231 215 215 215 206 206 206 228 228 228 237 237 237 226 226 226 223 223 223 219 219 219 220 220 220 221 221 221 222 222 222 224 224 224 230 230 230 236 236 236 241 241 241 246 246 246 247 247 247 248 248 248 249 249 249 250 250 250 250 250 250 250 250 250 250 250 250 249 249 249 250 250 250 250 250 250 250 250 250 250 250 250 251 251 251 251 251 251 251 251 251 252 252 252 252 252 252 252 252 252 252 252 252 252 252 252 252 252 252 252 252 252 252 252 252 252 252 252 252 252 252 252 252 252 253 253 253 253 253 253 254 254 254 254 254 254 254 254 254 254 254 254 254 254 254 254 254 254 254 254 254 254 254 254 254 254 254 254 254 254 254 254 254 253 253 253 255 255 255 255 255 255 253 253 253 250 250 250 251 251 251 250 250 250 248 248 248 241 241 241 243 243 243 246 246 246 247 247 247 247 247 247 248 248 248 249 249 249 251 251 251 251 251 251 252 252 252 253 253 253 253 253 253 254 254 254 254 254 254 253 253 253 253 253 253 255 255 255 255 255 255 254 254 254 254 254 254 254 254 254 254 254 254 253 253 253 253 253 253 249 249 249 254 254 254 253 253 253 250 250 250 245 245 245 233 233 233 230 230 230 240 240 240 240 240 241 
241 241 243 249 249 251 226 226 228 233 233 235 204 204 206 151 151 153 122 122 124 129 129 131 140 140 142 164 164 166 210 210 212 182 182 184 155 155 157 98 98 100 76 76 77 160 158 159 142 140 141 115 113 114 119 117 118 129 127 128 199 197 198 230 228 229 242 240 241 238 236 237 237 235 236 237 235 236 241 239 240 244 242 243 243 241 242 239 237 238 236 234 235 239 237 238 240 238 239 234 232 233 223 221 222 214 212 213 212 210 211 212 210 211 212 210 211 195 193 194 199 197 198 192 190 191 200 198 199 209 207 208 214 212 213 227 225 226 224 223 223 235 235 234 239 239 237 243 243 241 247 247 245 249 249 247 251 251 249 253 253 251 255 255 253 254 254 252 254 254 252 254 254 252 
249 249 249 249 249 249 249 249 249 249 249 249 249 249 249 249 249 249 249 249 249 249 249 249 249 249 249 251 251 251 251 251 251 251 251 251 251 251 251 251 251 251 251 251 251 251 251 251 251 251 251 250 250 250 250 250 250 251 251 251 251 251 251 251 251 251 251 251 251 250 250 250 250 250 250 248 248 248 248 248 248 247 247 247 246 246 246 244 244 244 242 242 242 240 240 240 239 239 239 240 240 240 239 239 239 238 238 238 238 238 238 239 239 239 242 242 242 245 245 245 246 246 246 249 247 248 249 247 248 250 248 249 250 248 249 251 249 250 251 249 250 251 249 250 252 250 251 251 249 250 250 248 249 250 248 249 251 249 250 252 250 251 253 251 252 252 250 251 250 248 249 233 233 233 223 223 223 227 227 227 213 213 213 206 206 206 185 185 185 175 175 175 201 201 201 218 218 218 214 214 214 212 212 212 214 214 214 214 214 214 214 214 214 218 218 218 225 225 225 229 229 229 227 227 227 211 211 211 207 207 207 227 227 227 240 240 240 238 238 238 238 238 238 230 230 230 230 230 230 231 231 231 231 231 231 232 232 232 236 236 236 242 242 242 247 247 247 247 247 247 247 247 247 248 248 248 249 249 249 250 250 250 250 250 250 250 250 250 250 250 250 250 250 250 250 250 250 250 250 250 251 251 251 251 251 251 251 251 251 251 251 251 252 252 252 253 253 253 253 253 253 253 253 253 253 253 253 253 253 253 253 253 253 253 253 253 253 253 253 253 253 253 253 253 253 253 253 253 253 253 253 253 253 253 254 254 254 254 254 254 254 254 254 254 254 254 254 254 254 254 254 254 254 254 254 254 254 254 254 254 254 254 254 254 254 254 254 253 253 253 255 255 255 255 255 255 253 253 253 251 251 251 251 251 251 251 251 251 249 249 249 244 244 244 246 246 246 248 248 248 248 248 248 248 248 248 248 248 248 249 249 249 250 250 250 252 252 252 252 252 252 253 253 253 254 254 254 254 254 254 254 254 254 254 254 254 254 254 254 255 255 255 255 255 255 254 254 254 254 254 254 254 254 254 254 254 254 253 253 253 253 253 253 253 253 253 255 255 255 254 254 254 253 253 253 255 255 255 247 247 247 239 239 239 243 243 243 243 243 244 
232 232 234 248 248 250 230 230 232 241 241 243 232 232 234 202 202 204 144 144 146 117 117 119 136 136 138 176 176 178 209 209 211 218 218 220 204 204 206 144 144 146 81 81 82 122 120 121 212 210 211 175 173 174 103 101 102 139 137 138 143 141 142 186 184 185 226 224 225 235 233 234 235 233 234 235 233 234 236 234 235 239 237 238 241 239 240 240 238 239 237 235 236 232 230 231 231 229 230 226 224 225 220 218 219 215 213 214 210 208 209 201 199 200 191 189 190 189 187 188 197 195 196 197 195 196 208 206 207 214 212 213 216 214 215 232 230 231 235 234 234 234 234 233 237 237 235 242 242 240 246 246 244 248 248 246 250 250 248 253 253 251 255 255 253 254 254 252 254 254 252 254 254 252 
249 249 249 249 249 249 249 249 249 249 249 249 249 249 249 249 249 249 249 249 249 249 249 249 249 249 249 251 251 251 251 251 251 251 251 251 251 251 251 251 251 251 251 251 251 251 251 251 251 251 251 250 250 250 250 250 250 251 251 251 251 251 251 251 251 251 251 251 251 250 250 250 250 250 250 248 248 248 247 247 247 247 247 247 245 245 245 244 244 244 242 242 242 240 240 240 239 239 239 239 239 239 238 238 238 238 238 238 238 238 238 240 240 240 242 242 242 245 245 245 247 247 247 249 247 248 249 247 248 249 247 248 250 248 249 250 248 249 251 249 250 251 249 250 252 250 251 252 250 251 251 249 250 250 248 249 250 248 249 250 248 249 248 246 247 245 243 244 242 240 241 248 248 248 240 240 240 231 231 231 237 237 237 246 246 246 222 222 222 157 157 157 185 185 185 211 211 211 210 210 210 210 210 210 212 212 212 214 214 214 215 215 215 213 213 213 212 212 212 218 218 218 210 210 210 210 210 210 221 221 221 231 231 231 236 236 236 233 233 233 227 227 227 231 231 231 235 235 235 240 240 240 244 244 244 245 245 245 246 246 246 246 246 246 247 247 247 247 247 247 248 248 248 249 249 249 250 250 250 250 250 250 251 251 251 250 250 250 250 250 250 250 250 250 250 250 250 251 251 251 251 251 251 251 251 251 251 251 251 252 252 252 252 252 252 253 253 253 253 253 253 253 253 253 253 253 253 253 253 253 253 253 253 253 253 253 253 253 253 253 253 253 253 253 253 254 254 254 254 254 254 254 254 254 254 254 254 254 254 254 254 254 254 255 255 255 255 255 255 255 255 255 255 255 255 255 255 255 255 255 255 255 255 255 255 255 255 252 252 252 255 255 255 255 255 255 253 253 253 252 252 252 253 253 253 251 251 251 247 247 247 246 246 246 248 248 248 250 250 250 250 250 250 249 249 249 248 248 248 248 248 248 249 249 249 252 252 252 253 253 253 253 253 253 254 254 254 254 254 254 254 254 254 254 254 254 254 254 254 255 255 255 255 255 255 254 254 254 254 254 254 254 254 254 254 254 254 253 253 253 253 253 253 255 255 255 255 255 255 253 253 253 252 252 252 255 255 255 254 254 254 245 245 245 245 245 245 250 250 251 
229 229 231 244 244 246 238 238 240 236 236 238 228 228 230 231 231 233 197 197 199 145 145 147 117 117 119 116 116 118 190 190 192 209 209 211 189 189 191 192 192 194 106 106 107 112 110 111 193 191 192 179 177 178 214 212 213 158 156 157 132 130 131 133 131 132 169 167 168 229 227 228 235 233 234 239 237 238 236 234 235 233 231 232 233 231 232 234 232 233 234 232 233 231 229 230 229 227 228 225 223 224 222 220 221 222 220 221 217 215 216 203 201 202 189 187 188 177 175 176 184 182 183 181 179 180 190 188 189 193 191 192 196 194 195 221 219 220 232 231 231 234 234 233 237 237 235 242 242 240 246 246 244 248 248 246 250 250 248 253 253 251 255 255 253 254 254 252 254 254 252 254 254 252 
249 249 249 249 249 249 249 249 249 249 249 249 249 249 249 249 249 249 249 249 249 249 249 249 249 249 249 251 251 251 251 251 251 251 251 251 251 251 251 251 251 251 251 251 251 251 251 251 251 251 251 250 250 250 250 250 250 251 251 251 251 251 251 251 251 251 251 251 251 250 250 250 250 250 250 247 247 247 247 247 247 246 246 246 245 245 245 243 243 243 241 241 241 240 240 240 239 239 239 238 238 238 237 237 237 238 238 238 238 238 238 240 240 240 243 243 243 246 246 246 247 247 247 248 246 247 248 246 247 249 247 248 249 247 248 250 248 249 251 249 250 251 249 250 252 250 251 254 252 253 253 251 252 251 249 250 249 247 248 246 244 245 241 239 240 235 233 234 230 228 229 232 232 232 232 232 232 212 212 212 225 225 225 241 241 241 220 220 220 175 175 175 192 192 192 195 195 195 201 201 201 206 206 206 211 211 211 221 221 221 230 230 230 228 228 228 219 219 219 211 211 211 192 192 192 206 206 206 231 231 231 231 231 231 230 230 230 233 233 233 223 223 223 234 234 234 238 238 238 244 244 244 247 247 247 248 248 248 247 247 247 246 246 246 245 245 245 247 247 247 248 248 248 249 249 249 250 250 250 250 250 250 251 251 251 251 251 251 251 251 251 250 250 250 251 251 251 251 251 251 251 251 251 251 251 251 252 252 252 252 252 252 252 252 252 254 254 254 254 254 254 254 254 254 254 254 254 254 254 254 254 254 254 254 254 254 254 254 254 254 254 254 254 254 254 254 254 254 254 254 254 254 254 254 254 254 254 254 254 254 254 254 254 255 255 255 255 255 255 255 255 255 255 255 255 255 255 255 255 255 255 255 255 255 255 255 255 253 253 253 255 255 255 254 254 254 253 253 253 254 254 254 255 255 255 251 251 251 244 244 244 247 247 247 248 248 248 250 250 250 250 250 250 249 249 249 249 249 249 249 249 249 251 251 251 252 252 252 253 253 253 254 254 254 254 254 254 255 255 255 255 255 255 254 254 254 254 254 254 255 255 255 255 255 255 254 254 254 254 254 254 254 254 254 254 254 254 253 253 253 253 253 253 252 252 252 255 255 255 253 253 253 251 251 251 255 255 255 254 254 254 246 246 246 247 247 247 249 249 250 
241 241 243 240 240 242 238 238 240 235 235 237 224 224 226 232 232 234 229 229 231 164 164 166 114 114 116 122 122 124 141 141 143 146 146 148 183 183 185 161 161 163 133 133 134 71 69 70 167 165 166 211 209 210 206 204 205 217 215 216 182 180 181 157 155 156 129 127 128 170 168 169 198 196 197 226 224 225 234 232 233 228 226 227 223 221 222 224 222 223 227 225 226 231 229 230 230 228 229 226 224 225 222 220 221 222 220 221 220 218 219 212 210 211 202 200 201 187 185 186 191 189 190 185 183 184 192 190 191 194 192 193 198 196 197 226 224 225 240 239 239 236 236 235 239 239 237 243 243 241 246 246 244 248 248 246 250 250 248 252 252 250 254 254 252 254 254 252 254 254 252 254 254 252 
248 248 248 249 249 249 249 249 249 249 249 249 249 249 249 249 249 249 249 249 249 249 249 249 249 249 249 251 251 251 251 251 251 251 251 251 251 251 251 251 251 251 251 251 251 251 251 251 251 251 251 250 250 250 250 250 250 251 251 251 251 251 251 251 251 251 251 251 251 250 250 250 250 250 250 247 247 247 247 247 247 246 246 246 245 245 245 243 243 243 241 241 241 240 240 240 239 239 239 237 237 237 237 237 237 237 237 237 239 239 239 241 241 241 243 243 243 246 246 246 248 248 248 248 246 247 248 246 247 249 247 248 249 247 248 250 248 249 251 249 250 252 250 251 252 250 251 251 249 250 250 248 249 250 248 249 250 248 249 249 247 248 245 243 244 239 237 238 235 233 234 234 234 234 228 228 228 188 188 188 200 200 200 223 223 223 205 205 205 193 193 193 182 182 182 212 212 212 216 216 216 214 214 214 211 211 211 217 217 217 227 227 227 221 221 221 206 206 206 218 218 218 187 187 187 205 205 205 236 236 236 229 229 229 230 230 230 244 244 244 237 237 237 244 244 244 245 245 245 246 246 246 246 246 246 245 245 245 245 245 245 246 246 246 248 248 248 247 247 247 248 248 248 249 249 249 250 250 250 251 251 251 251 251 251 251 251 251 251 251 251 251 251 251 251 251 251 251 251 251 251 251 251 252 252 252 252 252 252 252 252 252 252 252 252 254 254 254 254 254 254 254 254 254 254 254 254 254 254 254 254 254 254 254 254 254 254 254 254 254 254 254 254 254 254 254 254 254 254 254 254 254 254 254 254 254 254 254 254 254 254 254 254 255 255 255 255 255 255 255 255 255 255 255 255 255 255 255 255 255 255 255 255 255 255 255 255 254 254 254 255 255 255 254 254 254 254 254 254 255 255 255 255 255 255 251 251 251 242 242 242 246 246 246 248 248 248 250 250 250 251 251 251 250 250 250 250 250 250 251 251 251 252 252 252 252 252 252 253 253 253 254 254 254 254 254 254 255 255 255 255 255 255 254 254 254 254 254 254 255 255 255 255 255 255 254 254 254 254 254 254 254 254 254 254 254 254 253 253 253 253 253 253 251 251 251 255 255 255 255 255 255 253 253 253 255 255 255 253 253 253 248 248 248 251 251 251 241 241 242 
255 255 255 240 240 242 230 230 232 240 240 242 232 232 234 225 225 227 229 229 231 231 231 233 194 194 196 107 107 109 144 144 146 157 157 159 142 142 144 105 105 107 99 99 100 72 70 71 88 86 87 169 167 168 216 214 215 227 225 226 218 216 217 203 201 202 175 173 174 84 82 83 136 134 135 195 193 194 223 221 222 223 221 222 218 216 217 220 218 219 225 223 224 226 224 225 225 223 224 221 219 220 215 213 214 214 212 213 216 214 215 214 212 213 210 208 209 184 182 183 186 184 185 179 177 178 188 186 187 191 189 190 194 192 193 219 217 218 232 231 231 237 237 236 240 240 238 244 244 242 247 247 245 248 248 246 250 250 248 251 251 249 253 253 251 254 254 252 254 254 252 254 254 252 
250 250 250 254 254 254 247 247 247 246 246 246 252 252 252 255 255 255 252 252 252 251 251 251 253 253 253 251 251 251 251 251 251 251 251 251 251 251 251 251 251 251 251 251 251 251 251 251 251 251 251 251 251 251 251 251 251 251 251 251 251 251 251 250 250 250 250 250 250 250 250 250 250 250 250 250 250 250 249 249 249 247 247 247 245 245 245 242 242 242 240 240 240 238 238 238 237 237 237 240 240 240 234 234 234 233 233 233 239 239 239 244 244 244 244 244 244 245 245 245 249 249 249 250 248 249 250 248 249 250 248 249 250 248 249 251 249 250 251 249 250 251 249 250 251 249 250 247 245 246 254 252 253 252 250 251 243 241 242 241 239 240 248 246 247 251 249 250 249 247 248 245 245 245 244 244 244 245 245 245 238 238 238 228 228 228 229 229 229 227 227 227 215 215 215 173 173 173 184 184 184 225 225 225 228 228 228 223 223 223 209 209 209 228 228 228 224 224 224 229 229 229 208 208 208 233 233 233 248 248 248 238 238 238 243 243 243 245 245 245 239 239 239 246 246 246 246 246 246 245 245 245 245 245 245 245 245 245 245 245 245 246 246 246 246 246 246 247 247 247 247 247 247 248 248 248 248 248 248 249 249 249 250 250 250 251 251 251 251 251 251 251 251 251 251 251 251 251 251 251 252 252 252 253 253 253 253 253 253 254 254 254 254 254 254 254 254 254 254 254 254 254 254 254 254 254 254 254 254 254 254 254 254 254 254 254 254 254 254 254 254 254 254 254 254 254 254 254 254 254 254 254 254 254 254 254 254 254 254 254 254 254 254 255 255 255 255 255 255 255 255 255 255 255 255 255 255 255 255 255 255 255 255 255 255 255 255 254 254 254 254 254 254 254 254 254 254 254 254 254 254 254 254 254 254 254 254 254 254 254 254 249 249 249 249 249 249 250 250 250 252 252 252 254 254 254 254 254 254 252 252 252 250 250 250 254 254 254 254 254 254 254 254 254 254 254 254 254 254 254 254 254 254 254 254 254 254 254 254 255 255 255 255 255 255 255 255 255 254 254 254 254 254 254 253 253 253 253 253 253 253 253 253 253 253 253 253 253 253 253 253 253 253 253 253 253 253 253 253 253 253 253 253 253 253 253 253 244 244 245 
246 246 248 243 243 245 238 238 240 240 240 242 241 241 243 230 230 232 215 215 217 220 220 222 229 229 231 195 195 197 153 153 155 156 156 158 165 165 167 138 138 140 106 106 107 85 83 84 53 51 52 106 104 105 154 152 153 148 146 147 227 225 226 220 218 219 200 198 199 170 168 169 112 110 111 107 105 106 181 179 180 221 219 220 208 206 207 214 212 213 234 232 233 229 227 228 219 217 218 226 224 225 215 213 214 210 208 209 207 205 206 189 187 188 209 207 208 180 178 179 182 180 181 175 173 174 174 172 173 193 191 192 209 207 208 214 212 213 218 217 217 218 218 217 228 228 226 240 240 238 247 247 245 249 249 247 249 249 247 250 250 248 252 252 250 254 254 252 254 254 252 254 254 252 
250 250 250 251 251 251 249 249 249 249 249 249 251 251 251 252 252 252 250 250 250 250 250 250 252 252 252 251 251 251 251 251 251 251 251 251 251 251 251 251 251 251 251 251 251 251 251 251 251 251 251 251 251 251 251 251 251 251 251 251 251 251 251 250 250 250 250 250 250 250 250 250 250 250 250 249 249 249 248 248 248 247 247 247 244 244 244 242 242 242 239 239 239 238 238 238 237 237 237 239 239 239 234 234 234 234 234 234 239 239 239 244 244 244 244 244 244 246 246 246 249 249 249 250 248 249 250 248 249 250 248 249 251 249 250 251 249 250 251 249 250 251 249 250 252 250 251 248 246 247 253 251 252 250 248 249 241 239 240 239 237 238 246 244 245 251 249 250 249 247 248 251 251 251 246 246 246 241 241 241 231 231 231 220 220 220 220 220 220 217 217 217 203 203 203 162 162 162 187 187 187 231 231 231 236 236 236 237 237 237 222 222 222 230 230 230 224 224 224 232 232 232 213 213 213 236 236 236 250 250 250 241 241 241 246 246 246 246 246 246 242 242 242 246 246 246 246 246 246 245 245 245 245 245 245 245 245 245 245 245 245 246 246 246 246 246 246 247 247 247 247 247 247 248 248 248 248 248 248 249 249 249 250 250 250 250 250 250 251 251 251 251 251 251 251 251 251 251 251 251 252 252 252 253 253 253 253 253 253 254 254 254 254 254 254 254 254 254 254 254 254 254 254 254 254 254 254 254 254 254 254 254 254 254 254 254 254 254 254 254 254 254 254 254 254 254 254 254 254 254 254 254 254 254 254 254 254 254 254 254 254 254 254 254 254 254 254 254 254 254 254 254 254 254 254 254 254 254 255 255 255 255 255 255 255 255 255 254 254 254 254 254 254 254 254 254 254 254 254 254 254 254 254 254 254 254 254 254 254 254 254 251 251 251 251 251 251 251 251 251 253 253 253 254 254 254 253 253 253 250 250 250 248 248 248 254 254 254 254 254 254 254 254 254 254 254 254 254 254 254 254 254 254 254 254 254 254 254 254 255 255 255 255 255 255 254 254 254 254 254 254 254 254 254 253 253 253 253 253 253 253 253 253 253 253 253 253 253 253 253 253 253 253 253 253 253 253 253 253 253 253 253 253 253 253 253 253 249 249 250 
250 250 252 247 247 249 241 241 243 237 237 239 234 234 236 229 229 231 224 224 226 232 232 234 229 229 231 225 225 227 220 220 222 199 199 201 161 161 163 141 141 143 148 148 149 85 83 84 99 97 98 64 62 63 63 61 62 59 57 58 172 170 171 220 218 219 227 225 226 221 219 220 179 177 178 143 141 142 149 147 148 178 176 177 207 205 206 223 221 222 217 215 216 217 215 216 220 218 219 237 235 236 223 221 222 214 212 213 169 167 168 180 178 179 186 184 185 203 201 202 211 209 210 212 210 211 212 210 211 220 218 219 225 223 224 225 223 224 226 225 225 224 224 223 231 231 229 240 240 238 246 246 244 249 249 247 249 249 247 251 251 249 252 252 250 254 254 252 254 254 252 254 254 252 
250 250 250 247 247 247 251 251 251 252 252 252 250 250 250 249 249 249 251 251 251 251 251 251 250 250 250 251 251 251 251 251 251 251 251 251 251 251 251 251 251 251 251 251 251 251 251 251 251 251 251 251 251 251 251 251 251 251 251 251 251 251 251 250 250 250 250 250 250 250 250 250 250 250 250 248 248 248 247 247 247 246 246 246 243 243 243 241 241 241 239 239 239 237 237 237 236 236 236 237 237 237 235 235 235 235 235 235 240 240 240 244 244 244 245 245 245 247 247 247 250 250 250 250 248 249 250 248 249 251 249 250 251 249 250 251 249 250 251 249 250 252 250 251 252 250 251 250 248 249 252 250 251 248 246 247 240 238 239 238 236 237 245 243 244 251 249 250 250 248 249 254 254 254 245 245 245 238 238 238 228 228 228 218 218 218 218 218 218 211 211 211 193 193 193 157 157 157 194 194 194 228 228 228 229 229 229 235 235 235 227 227 227 228 228 228 226 226 226 235 235 235 220 220 220 241 241 241 251 251 251 244 244 244 248 248 248 247 247 247 246 246 246 247 247 247 246 246 246 246 246 246 245 245 245 245 245 245 246 246 246 246 246 246 247 247 247 248 248 248 248 248 248 248 248 248 249 249 249 249 249 249 250 250 250 250 250 250 251 251 251 251 251 251 251 251 251 251 251 251 252 252 252 253 253 253 253 253 253 254 254 254 254 254 254 254 254 254 254 254 254 254 254 254 254 254 254 254 254 254 254 254 254 254 254 254 254 254 254 254 254 254 254 254 254 254 254 254 254 254 254 254 254 254 254 254 254 254 254 254 254 254 254 252 252 252 252 252 252 253 253 253 253 253 253 254 254 254 254 254 254 255 255 255 255 255 255 254 254 254 254 254 254 254 254 254 254 254 254 254 254 254 254 254 254 254 254 254 254 254 254 254 254 254 253 253 253 253 253 253 253 253 253 253 253 253 252 252 252 249 249 249 246 246 246 254 254 254 254 254 254 254 254 254 254 254 254 254 254 254 254 254 254 254 254 254 254 254 254 254 254 254 254 254 254 254 254 254 254 254 254 253 253 253 253 253 253 253 253 253 253 253 253 253 253 253 253 253 253 253 253 253 253 253 253 253 253 253 253 253 253 253 253 253 253 253 253 251 251 252 
250 250 252 249 249 251 245 245 247 237 237 239 230 230 232 232 232 234 237 237 239 214 214 216 215 215 217 221 221 223 221 221 223 207 207 209 184 184 186 151 151 153 119 119 120 121 119 120 122 120 121 57 55 56 145 143 144 193 191 192 150 148 149 143 141 142 199 197 198 209 207 208 209 207 208 184 182 183 148 146 147 148 146 147 182 180 181 200 198 199 192 190 191 213 211 212 226 224 225 227 225 226 227 225 226 206 204 205 174 172 173 210 208 209 217 215 216 218 216 217 228 226 227 235 233 234 235 233 234 232 230 231 231 229 230 230 228 229 231 230 230 232 232 231 235 235 233 240 240 238 245 245 243 248 248 246 250 250 248 252 252 250 252 252 250 254 254 252 254 254 252 254 254 252 
250 250 250 247 247 247 250 250 250 251 251 251 248 248 248 250 250 250 254 254 254 253 253 253 247 247 247 251 251 251 251 251 251 251 251 251 251 251 251 251 251 251 251 251 251 251 251 251 251 251 251 251 251 251 251 251 251 251 251 251 251 251 251 250 250 250 250 250 250 250 250 250 250 250 250 247 247 247 246 246 246 245 245 245 243 243 243 241 241 241 239 239 239 237 237 237 236 236 236 236 236 236 236 236 236 237 237 237 241 241 241 244 244 244 246 246 246 248 248 248 250 250 250 250 248 249 251 249 250 251 249 250 251 249 250 251 249 250 252 250 251 252 250 251 252 250 251 251 249 250 252 250 251 249 247 248 243 241 242 242 240 241 247 245 246 250 248 249 249 247 248 251 251 251 243 243 243 237 237 237 231 231 231 224 224 224 222 222 222 207 207 207 183 183 183 176 176 176 215 215 215 232 232 232 222 222 222 226 226 226 225 225 225 225 225 225 230 230 230 238 238 238 227 227 227 245 245 245 250 250 250 245 245 245 250 250 250 247 247 247 249 249 249 247 247 247 247 247 247 246 246 246 246 246 246 246 246 246 246 246 246 247 247 247 247 247 247 248 248 248 248 248 248 249 249 249 249 249 249 250 250 250 250 250 250 250 250 250 251 251 251 251 251 251 251 251 251 251 251 251 252 252 252 253 253 253 253 253 253 254 254 254 254 254 254 254 254 254 254 254 254 254 254 254 254 254 254 254 254 254 254 254 254 254 254 254 254 254 254 254 254 254 254 254 254 254 254 254 254 254 254 254 254 254 254 254 254 254 254 254 254 254 254 251 251 251 251 251 251 252 252 252 253 253 253 253 253 253 254 254 254 255 255 255 255 255 255 254 254 254 254 254 254 254 254 254 254 254 254 254 254 254 254 254 254 254 254 254 254 254 254 255 255 255 254 254 254 253 253 253 253 253 253 253 253 253 252 252 252 249 249 249 247 247 247 253 253 253 253 253 253 253 253 253 253 253 253 253 253 253 253 253 253 253 253 253 253 253 253 254 254 254 254 254 254 253 253 253 253 253 253 253 253 253 253 253 253 253 253 253 253 253 253 253 253 253 253 253 253 253 253 253 253 253 253 253 253 253 253 253 253 253 253 253 253 253 253 250 250 251 
247 247 249 247 247 249 249 249 251 242 242 244 234 234 236 237 237 239 246 246 248 231 231 233 231 231 233 231 231 233 224 224 226 229 229 231 240 240 242 198 198 200 122 122 123 128 126 127 98 96 97 65 63 64 160 158 159 208 206 207 168 166 167 180 178 179 166 164 165 181 179 180 194 192 193 197 195 196 174 172 173 162 160 161 165 163 164 164 162 163 170 168 169 212 210 211 234 232 233 217 215 216 230 228 229 187 185 186 208 206 207 224 222 223 237 235 236 228 226 227 230 228 229 237 235 236 237 235 236 230 228 229 232 230 231 238 236 237 239 238 238 240 240 239 240 240 238 241 241 239 244 244 242 248 248 246 251 251 249 252 252 250 252 252 250 254 254 252 254 254 252 254 254 252 
250 250 250 249 249 249 249 249 249 248 248 248 248 248 248 252 252 252 255 255 255 251 251 251 244 244 244 251 251 251 251 251 251 251 251 251 251 251 251 251 251 251 251 251 251 251 251 251 251 251 251 251 251 251 251 251 251 251 251 251 251 251 251 250 250 250 250 250 250 250 250 250 250 250 250 247 247 247 246 246 246 244 244 244 243 243 243 241 241 241 239 239 239 237 237 237 237 237 237 235 235 235 237 237 237 240 240 240 242 242 242 244 244 244 247 247 247 249 249 249 250 250 250 251 249 250 251 249 250 251 249 250 252 250 251 252 250 251 252 250 251 252 250 251 253 251 252 250 248 249 251 249 250 251 249 250 249 247 248 249 247 248 250 248 249 250 248 249 248 246 247 247 247 247 241 241 241 239 239 239 236 236 236 229 229 229 220 220 220 196 196 196 165 165 165 181 181 181 221 221 221 236 236 236 231 231 231 232 232 232 233 233 233 227 227 227 231 231 231 239 239 239 234 234 234 248 248 248 249 249 249 246 246 246 250 250 250 245 245 245 250 250 250 248 248 248 248 248 248 247 247 247 247 247 247 247 247 247 247 247 247 248 248 248 248 248 248 249 249 249 249 249 249 249 249 249 250 250 250 250 250 250 250 250 250 250 250 250 250 250 250 251 251 251 251 251 251 251 251 251 252 252 252 253 253 253 253 253 253 254 254 254 254 254 254 254 254 254 254 254 254 254 254 254 254 254 254 254 254 254 254 254 254 254 254 254 254 254 254 254 254 254 254 254 254 254 254 254 254 254 254 254 254 254 254 254 254 254 254 254 254 254 254 251 251 251 251 251 251 252 252 252 253 253 253 253 253 253 254 254 254 255 255 255 255 255 255 254 254 254 254 254 254 254 254 254 254 254 254 254 254 254 254 254 254 254 254 254 254 254 254 254 254 254 253 253 253 252 252 252 252 252 252 253 253 253 253 253 253 252 252 252 250 250 250 253 253 253 253 253 253 253 253 253 253 253 253 253 253 253 253 253 253 253 253 253 253 253 253 253 253 253 253 253 253 253 253 253 253 253 253 253 253 253 253 253 253 253 253 253 253 253 253 253 253 253 253 253 253 253 253 253 253 253 253 253 253 253 253 253 253 253 253 253 253 253 253 251 251 252 
246 246 248 246 246 248 250 250 252 248 248 250 240 240 242 238 238 240 243 243 245 231 231 233 214 214 216 214 214 216 224 224 226 225 225 227 222 222 224 198 198 200 161 161 162 140 138 139 131 129 130 63 61 62 116 114 115 164 162 163 166 164 165 162 160 161 180 178 179 196 194 195 188 186 187 189 187 188 183 181 182 187 185 186 178 176 177 153 151 152 164 162 163 169 167 168 205 203 204 219 217 218 222 220 221 191 189 190 235 233 234 225 223 224 235 233 234 238 236 237 232 230 231 238 236 237 243 241 242 238 236 237 242 240 241 250 248 249 247 246 246 245 245 244 243 243 241 242 242 240 244 244 242 247 247 245 250 250 248 252 252 250 252 252 250 254 254 252 254 254 252 254 254 252 
250 250 250 252 252 252 247 247 247 246 246 246 250 250 250 252 252 252 248 248 248 243 243 243 241 241 241 251 251 251 251 251 251 251 251 251 251 251 251 251 251 251 251 251 251 251 251 251 251 251 251 251 251 251 251 251 251 251 251 251 251 251 251 250 250 250 250 250 250 250 250 250 250 250 250 247 247 247 246 246 246 245 245 245 243 243 243 241 241 241 240 240 240 238 238 238 238 238 238 235 235 235 240 240 240 243 243 243 243 243 243 244 244 244 247 247 247 249 249 249 248 248 248 251 249 250 251 249 250 252 250 251 252 250 251 252 250 251 252 250 251 253 251 252 253 251 252 251 249 250 251 249 250 251 249 250 252 250 251 253 251 252 252 250 251 250 248 249 247 245 246 245 245 245 241 241 241 240 240 240 238 238 238 228 228 228 216 216 216 187 187 187 152 152 152 144 144 144 187 187 187 217 217 217 236 236 236 236 236 236 242 242 242 232 232 232 232 232 232 241 241 241 240 240 240 251 251 251 247 247 247 246 246 246 250 250 250 244 244 244 252 252 252 249 249 249 248 248 248 248 248 248 247 247 247 247 247 247 248 248 248 248 248 248 249 249 249 250 250 250 250 250 250 250 250 250 250 250 250 250 250 250 250 250 250 250 250 250 250 250 250 251 251 251 251 251 251 251 251 251 252 252 252 253 253 253 253 253 253 254 254 254 254 254 254 254 254 254 254 254 254 254 254 254 254 254 254 254 254 254 254 254 254 254 254 254 254 254 254 254 254 254 254 254 254 254 254 254 254 254 254 254 254 254 254 254 254 254 254 254 254 254 254 252 252 252 252 252 252 253 253 253 253 253 253 254 254 254 254 254 254 255 255 255 255 255 255 254 254 254 254 254 254 254 254 254 254 254 254 254 254 254 254 254 254 254 254 254 254 254 254 254 254 254 252 252 252 251 251 251 252 252 252 253 253 253 254 254 254 253 253 253 252 252 252 253 253 253 253 253 253 253 253 253 253 253 253 253 253 253 253 253 253 253 253 253 253 253 253 252 252 252 252 252 252 252 252 252 252 252 252 253 253 253 253 253 253 253 253 253 253 253 253 253 253 253 253 253 253 253 253 253 253 253 253 253 253 253 253 253 253 253 253 253 253 253 253 254 254 255 
250 250 252 248 248 250 250 250 252 249 249 251 242 242 244 236 236 238 234 234 236 238 238 240 219 219 221 215 215 217 225 225 227 228 228 230 222 222 224 212 212 214 203 203 204 115 113 114 135 133 134 43 41 42 89 87 88 133 131 132 200 198 199 172 170 171 204 202 203 189 187 188 187 185 186 192 190 191 178 176 177 186 184 185 184 182 183 154 152 153 167 165 166 151 149 150 188 186 187 230 228 229 202 200 201 214 212 213 238 236 237 234 232 233 240 238 239 238 236 237 227 225 226 237 235 236 249 247 248 243 241 242 246 244 245 251 249 250 241 240 240 246 246 245 246 246 244 245 245 243 244 244 242 245 245 243 248 248 246 251 251 249 253 253 251 254 254 252 254 254 252 254 254 252 
250 250 250 252 252 252 246 246 246 248 248 248 253 253 253 247 247 247 234 234 234 231 231 231 238 238 238 251 251 251 251 251 251 251 251 251 251 251 251 251 251 251 251 251 251 251 251 251 251 251 251 251 251 251 251 251 251 251 251 251 251 251 251 250 250 250 250 250 250 250 250 250 250 250 250 247 247 247 247 247 247 245 245 245 244 244 244 242 242 242 241 241 241 240 240 240 239 239 239 235 235 235 242 242 242 245 245 245 244 244 244 244 244 244 247 247 247 249 249 249 247 247 247 251 249 250 252 250 251 252 250 251 252 250 251 252 250 251 253 251 252 253 251 252 253 251 252 252 250 251 250 248 249 249 247 248 251 249 250 252 250 251 252 250 251 249 247 248 248 246 247 245 245 245 241 241 241 241 241 241 240 240 240 232 232 232 223 223 223 199 199 199 167 167 167 136 136 136 168 168 168 203 203 203 235 235 235 228 228 228 239 239 239 236 236 236 236 236 236 243 243 243 245 245 245 254 254 254 247 247 247 248 248 248 251 251 251 244 244 244 254 254 254 249 249 249 249 249 249 248 248 248 248 248 248 248 248 248 248 248 248 249 249 249 249 249 249 251 251 251 251 251 251 250 250 250 250 250 250 250 250 250 250 250 250 250 250 250 250 250 250 251 251 251 251 251 251 251 251 251 252 252 252 253 253 253 253 253 253 254 254 254 254 254 254 254 254 254 254 254 254 254 254 254 254 254 254 254 254 254 254 254 254 254 254 254 254 254 254 254 254 254 254 254 254 254 254 254 254 254 254 254 254 254 254 254 254 254 254 254 254 254 254 254 254 254 254 254 254 254 254 254 254 254 254 254 254 254 255 255 255 255 255 255 255 255 255 254 254 254 254 254 254 254 254 254 254 254 254 254 254 254 254 254 254 254 254 254 254 254 254 255 255 255 253 253 253 252 252 252 252 252 252 253 253 253 254 254 254 253 253 253 252 252 252 252 252 252 252 252 252 252 252 252 252 252 252 252 252 252 252 252 252 252 252 252 252 252 252 251 251 251 251 251 251 252 252 252 252 252 252 253 253 253 253 253 253 253 253 253 253 253 253 253 253 253 253 253 253 253 253 253 253 253 253 253 253 253 253 253 253 253 253 253 253 253 253 253 253 254 
253 253 255 251 251 253 247 247 249 245 245 247 243 243 245 237 237 239 230 230 232 227 227 229 228 228 230 217 217 219 212 212 214 225 225 227 232 232 234 222 222 224 210 210 211 229 227 228 123 121 122 36 34 35 120 118 119 99 97 98 112 110 111 143 141 142 190 188 189 177 175 176 185 183 184 194 192 193 171 169 170 176 174 175 178 176 177 146 144 145 165 163 164 161 159 160 186 184 185 197 195 196 174 172 173 223 221 222 230 228 229 233 231 232 234 232 233 233 231 232 220 218 219 234 232 233 249 247 248 240 238 239 243 241 242 250 248 249 238 237 237 245 245 244 246 246 244 247 247 245 246 246 244 244 244 242 245 245 243 249 249 247 253 253 251 254 254 252 254 254 252 254 254 252 
250 250 250 252 252 252 246 246 246 250 250 250 255 255 255 243 243 243 222 222 222 221 221 221 236 236 236 251 251 251 251 251 251 251 251 251 251 251 251 251 251 251 251 251 251 251 251 251 251 251 251 251 251 251 251 251 251 251 251 251 251 251 251 250 250 250 250 250 250 250 250 250 250 250 250 248 248 248 247 247 247 246 246 246 244 244 244 243 243 243 241 241 241 240 240 240 240 240 240 236 236 236 243 243 243 247 247 247 244 244 244 243 243 243 247 247 247 248 248 248 246 246 246 252 251 251 252 250 251 252 250 251 252 250 251 253 251 252 253 251 252 253 251 252 253 251 252 254 252 253 250 248 249 247 245 246 248 246 247 250 248 249 250 248 249 249 247 248 249 248 248 244 244 244 240 240 240 242 242 242 242 242 242 239 239 239 236 236 236 220 220 220 193 193 193 177 177 177 192 192 192 214 214 214 239 239 239 219 219 219 233 233 233 238 238 238 241 241 241 244 244 244 249 249 249 255 255 255 247 247 247 249 249 249 252 252 252 244 244 244 255 255 255 249 249 249 249 249 249 248 248 248 248 248 248 248 248 248 248 248 248 249 249 249 249 249 249 251 251 251 251 251 251 251 251 251 251 251 251 250 250 250 250 250 250 250 250 250 250 250 250 251 251 251 251 251 251 251 251 251 252 252 252 253 253 253 253 253 253 254 254 254 254 254 254 254 254 254 254 254 254 254 254 254 254 254 254 254 254 254 254 254 254 254 254 254 254 254 254 254 254 254 254 254 254 254 254 254 254 254 254 254 254 254 254 254 254 254 254 254 254 254 254 255 255 255 255 255 255 255 255 255 255 255 255 255 255 255 255 255 255 255 255 255 255 255 255 254 254 254 254 254 254 254 254 254 254 254 254 254 254 254 254 254 254 254 254 254 254 254 254 255 255 255 254 254 254 252 252 252 252 252 252 253 253 253 253 253 253 253 253 253 252 252 252 252 252 252 252 252 252 252 252 252 252 252 252 252 252 252 252 252 252 252 252 252 252 252 252 251 251 251 251 251 251 252 252 252 252 252 252 252 252 252 253 253 253 253 253 253 253 253 253 253 253 253 253 253 253 253 253 253 253 253 253 253 253 253 253 253 253 253 253 253 253 253 253 248 248 249 
253 253 254 252 252 253 244 244 245 241 241 242 243 243 244 239 239 240 232 232 233 219 219 220 231 231 232 226 226 227 221 221 222 230 230 231 227 227 228 219 219 220 226 226 227 215 213 215 236 234 235 139 137 138 123 121 122 168 166 167 115 113 114 119 117 118 173 171 172 207 205 206 192 190 191 184 182 183 161 159 160 176 174 175 179 177 178 140 138 139 156 154 155 114 112 113 140 138 139 113 111 112 146 144 145 223 221 222 245 243 244 243 241 242 239 237 238 238 236 237 222 220 221 237 235 236 251 249 250 240 238 239 245 243 244 255 254 255 249 248 248 244 244 243 247 247 246 248 248 247 247 247 246 243 243 242 244 244 243 249 249 248 254 254 253 254 254 253 254 254 253 254 254 253 
250 250 251 252 252 253 245 245 246 250 250 251 249 249 250 248 248 249 194 194 195 241 241 242 244 244 245 250 250 250 250 250 250 250 250 250 250 250 250 250 250 250 249 249 249 249 249 249 249 249 249 251 251 251 251 251 251 251 251 251 251 251 251 250 250 250 250 250 250 250 250 250 250 250 250 244 244 245 246 246 247 245 245 246 243 243 244 241 241 242 241 241 242 241 241 242 239 239 240 244 244 245 244 244 245 245 245 246 246 246 247 248 248 249 249 249 250 250 250 251 250 250 251 248 248 248 251 251 251 254 254 254 253 253 253 251 251 251 248 248 248 249 249 249 250 250 250 252 252 252 251 251 251 250 250 250 249 249 249 248 248 248 247 247 247 247 247 247 246 246 246 244 244 244 245 245 245 244 244 244 241 241 241 241 241 241 238 238 238 231 231 231 222 222 222 199 199 199 208 208 208 214 214 214 227 227 227 228 228 228 217 217 217 233 233 233 242 242 242 246 246 246 248 248 248 249 249 249 249 249 249 248 248 248 248 248 248 250 250 250 251 251 251 251 251 251 251 251 251 251 251 251 251 251 251 251 251 251 251 251 251 251 251 251 251 251 251 251 251 251 251 251 251 251 251 251 251 251 251 251 251 251 250 250 250 249 249 249 249 249 249 250 250 250 250 250 250 251 251 251 252 252 252 253 253 253 253 253 253 254 254 254 254 254 254 253 253 253 253 253 253 253 253 253 253 253 253 253 253 253 253 253 253 253 253 253 253 253 253 253 253 253 253 253 253 253 253 253 253 253 253 253 253 253 253 253 253 253 253 253 253 253 253 253 253 253 253 253 253 253 253 253 253 253 253 253 253 253 253 253 253 253 253 253 253 253 253 254 254 254 254 254 254 254 254 254 253 253 253 253 253 253 252 252 252 252 252 252 252 252 252 252 252 252 252 252 252 252 252 252 252 252 252 252 252 252 252 252 252 252 252 252 252 252 252 253 253 253 253 253 253 253 253 253 253 253 253 253 253 253 253 253 253 253 253 253 253 253 253 253 253 253 253 253 253 253 253 253 253 253 253 253 253 253 253 253 253 253 253 253 253 253 253 253 253 253 253 253 253 253 253 253 253 253 253 253 253 253 253 253 253 253 253 253 253 253 253 253 253 253 
255 255 255 255 255 255 248 248 248 238 238 238 233 233 233 236 236 236 242 242 242 229 229 229 223 223 223 220 220 220 225 225 225 230 230 230 231 231 231 231 231 231 232 232 233 219 219 220 233 233 234 210 210 211 199 199 200 206 206 207 156 156 157 104 104 105 117 117 118 184 184 185 209 209 210 206 206 207 198 198 199 187 187 188 180 180 181 180 180 181 158 158 159 108 108 108 119 119 119 172 172 172 163 163 163 209 209 209 229 229 229 238 238 238 231 231 231 234 234 234 218 218 218 232 232 232 248 248 248 239 239 239 245 245 245 255 255 255 247 247 247 246 246 246 250 250 250 250 250 250 244 244 244 240 240 240 244 244 244 249 249 249 252 252 252 251 251 251 252 252 252 253 253 253 
249 249 251 252 252 254 249 249 251 247 247 249 248 248 250 242 242 244 204 204 206 244 244 246 246 246 247 250 250 250 250 250 250 250 250 250 250 250 250 249 249 249 249 249 249 249 249 249 249 249 249 251 251 251 251 251 251 251 251 251 251 251 251 250 250 250 250 250 250 250 250 250 250 250 250 245 245 246 246 246 248 246 246 248 243 243 245 241 241 243 240 240 242 239 239 241 239 239 241 244 244 246 244 244 246 245 245 247 246 246 248 248 248 250 249 249 251 250 250 252 250 250 251 250 250 250 251 251 251 252 252 252 252 252 252 251 251 251 251 251 251 252 252 252 253 253 253 250 250 250 250 250 250 250 250 250 249 249 249 249 249 249 247 247 247 246 246 246 245 245 245 244 244 244 245 245 245 243 243 243 241 241 241 241 241 241 240 240 240 233 233 233 225 225 225 200 200 200 212 212 212 215 215 215 227 227 227 230 230 230 228 228 228 242 242 242 245 245 245 246 246 246 248 248 248 249 249 249 249 249 249 249 249 249 248 248 248 250 250 250 251 251 251 251 251 251 251 251 251 251 251 251 251 251 251 251 251 251 251 251 251 251 251 251 251 251 251 251 251 251 251 251 251 251 251 251 251 251 251 251 251 251 250 250 250 249 249 249 249 249 249 250 250 250 250 250 250 251 251 251 252 252 252 252 252 252 253 253 253 254 254 254 254 254 254 253 253 253 253 253 253 253 253 253 253 253 253 253 253 253 253 253 253 253 253 253 253 253 253 253 253 253 253 253 253 253 253 253 253 253 253 253 253 253 253 253 253 253 253 253 253 253 253 253 253 253 253 253 253 253 253 253 253 253 253 253 253 253 253 253 253 253 253 253 253 253 253 254 254 254 254 254 254 254 254 254 253 253 253 253 253 253 253 253 253 252 252 252 252 252 252 252 252 252 252 252 252 252 252 252 252 252 252 252 252 252 252 252 252 252 252 252 252 252 252 253 253 253 253 253 253 253 253 253 253 253 253 253 253 253 253 253 253 253 253 253 253 253 253 253 253 253 253 253 253 253 253 253 253 253 253 253 253 253 253 253 253 253 253 253 253 253 253 253 253 253 253 253 253 253 253 253 253 253 253 253 253 253 253 253 253 253 253 253 253 253 253 252 252 252 
254 254 254 255 255 255 251 251 251 243 243 243 238 238 238 238 238 238 240 240 240 238 238 238 231 231 231 226 226 226 227 227 227 229 229 229 229 229 229 228 228 228 229 229 229 222 222 223 235 235 237 223 223 225 210 210 212 217 217 219 195 195 197 136 136 138 92 92 94 71 71 73 131 131 133 183 183 185 203 203 205 196 196 198 195 195 197 203 203 205 189 189 190 157 157 157 134 134 134 138 138 138 173 173 173 212 212 212 213 213 213 229 229 229 240 240 240 236 236 236 221 221 221 233 233 233 246 246 246 238 238 238 244 244 244 255 255 255 245 245 245 247 247 247 249 249 249 250 250 250 246 246 246 241 241 241 241 241 241 247 247 247 254 254 254 253 253 253 253 253 253 253 253 253 
249 249 251 248 248 250 250 250 252 239 239 241 244 244 246 231 231 233 217 217 219 247 247 249 249 249 250 249 249 249 249 249 249 249 249 249 249 249 249 249 249 249 249 249 249 249 249 249 249 249 249 251 251 251 251 251 251 251 251 251 250 250 250 250 250 250 250 250 250 249 249 249 249 249 249 246 246 247 246 246 248 246 246 248 243 243 245 240 240 242 237 237 239 237 237 239 239 239 241 244 244 246 244 244 246 245 245 247 246 246 248 248 248 250 249 249 251 250 250 252 250 250 251 252 252 252 251 251 251 250 250 250 251 251 251 253 253 253 254 254 254 253 253 253 253 253 253 247 247 247 248 248 248 249 249 249 250 250 250 249 249 249 248 248 248 246 246 246 244 244 244 244 244 244 245 245 245 243 243 243 241 241 241 242 242 242 242 242 242 238 238 238 231 231 231 203 203 203 210 210 210 204 204 204 220 220 220 229 229 229 236 236 236 245 245 245 242 242 242 245 245 245 247 247 247 249 249 249 250 250 250 249 249 249 249 249 249 250 250 250 251 251 251 251 251 251 251 251 251 251 251 251 251 251 251 251 251 251 251 251 251 251 251 251 251 251 251 251 251 251 251 251 251 251 251 251 251 251 251 251 251 251 250 250 250 249 249 249 249 249 249 250 250 250 250 250 250 251 251 251 251 251 251 252 252 252 252 252 252 253 253 253 253 253 253 253 253 253 253 253 253 254 254 254 254 254 254 254 254 254 254 254 254 254 254 254 254 254 254 253 253 253 253 253 253 253 253 253 253 253 253 253 253 253 253 253 253 253 253 253 253 253 253 253 253 253 253 253 253 253 253 253 253 253 253 253 253 253 253 253 253 253 253 253 253 253 253 254 254 254 254 254 254 254 254 254 253 253 253 253 253 253 253 253 253 253 253 253 252 252 252 253 253 253 253 253 253 253 253 253 253 253 253 253 253 253 253 253 253 253 253 253 253 253 253 253 253 253 253 253 253 253 253 253 253 253 253 253 253 253 253 253 253 253 253 253 253 253 253 253 253 253 253 253 253 253 253 253 253 253 253 253 253 253 253 253 253 253 253 253 253 253 253 253 253 253 253 253 253 253 253 253 253 253 253 253 253 253 253 253 253 253 253 253 253 253 253 250 250 250 
253 253 253 255 255 255 253 253 253 249 249 249 244 244 244 241 241 241 239 239 239 245 245 245 236 236 236 230 230 230 229 229 229 229 229 229 227 227 227 227 227 227 228 228 228 232 232 233 229 229 231 221 221 223 212 212 214 216 216 218 221 221 223 185 185 187 130 130 132 70 70 72 73 73 75 98 98 100 110 110 112 101 101 103 118 118 120 166 166 168 201 201 202 198 198 198 160 160 160 122 122 122 170 170 170 199 199 199 195 195 195 219 219 219 235 235 235 237 237 237 225 225 225 233 233 233 242 242 242 237 237 237 243 243 243 252 252 252 245 245 245 249 249 249 248 248 248 249 249 249 249 249 249 242 242 242 236 236 236 243 243 243 255 255 255 254 254 254 254 254 254 253 253 253 
248 248 250 238 238 240 244 244 246 227 227 229 235 235 237 217 217 219 228 228 230 247 247 249 249 249 250 248 248 248 248 248 248 249 249 249 249 249 249 249 249 249 249 249 249 249 249 249 250 250 250 251 251 251 251 251 251 250 250 250 250 250 250 250 250 250 249 249 249 249 249 249 249 249 249 247 247 248 246 246 248 245 245 247 243 243 245 239 239 241 234 234 236 235 235 237 239 239 241 244 244 246 244 244 246 245 245 247 246 246 248 248 248 250 249 249 251 250 250 252 250 250 251 252 252 252 250 250 250 250 250 250 252 252 252 254 254 254 254 254 254 251 251 251 247 247 247 245 245 245 246 246 246 248 248 248 250 250 250 250 250 250 248 248 248 245 245 245 243 243 243 244 244 244 245 245 245 243 243 243 241 241 241 243 243 243 245 245 245 241 241 241 235 235 235 216 216 216 207 207 207 188 188 188 214 214 214 227 227 227 237 237 237 241 241 241 241 241 241 244 244 244 247 247 247 249 249 249 250 250 250 250 250 250 249 249 249 250 250 250 251 251 251 251 251 251 251 251 251 251 251 251 251 251 251 251 251 251 251 251 251 251 251 251 251 251 251 251 251 251 251 251 251 251 251 251 251 251 251 251 251 251 250 250 250 249 249 249 249 249 249 250 250 250 250 250 250 250 250 250 251 251 251 251 251 251 251 251 251 252 252 252 252 252 252 253 253 253 253 253 253 253 253 253 253 253 253 254 254 254 254 254 254 254 254 254 254 254 254 253 253 253 253 253 253 253 253 253 253 253 253 253 253 253 253 253 253 253 253 253 253 253 253 253 253 253 253 253 253 253 253 253 253 253 253 253 253 253 253 253 253 253 253 253 253 253 253 253 253 253 253 253 253 253 253 253 253 253 253 253 253 253 253 253 253 253 253 253 253 253 253 253 253 253 253 253 253 253 253 253 253 253 253 253 253 253 253 253 253 253 253 253 253 253 253 253 253 253 253 253 253 253 253 253 253 253 253 253 253 253 253 253 253 253 253 253 253 253 253 253 253 253 253 253 253 253 253 253 253 253 253 253 253 253 253 253 253 253 253 253 253 253 253 253 253 253 253 253 253 253 253 253 253 253 253 253 253 253 253 253 253 253 253 253 253 253 253 251 251 251 
252 252 252 253 253 253 254 254 254 253 253 253 250 250 250 245 245 245 242 242 242 245 245 245 237 237 237 230 230 230 229 229 229 228 228 228 227 227 227 228 228 228 231 231 231 236 236 237 223 223 225 215 215 217 216 216 218 216 216 218 212 212 214 204 204 206 197 197 199 116 116 118 55 55 57 81 81 83 131 131 133 129 129 131 112 112 114 115 115 117 144 144 145 188 188 188 173 173 173 148 148 148 154 154 154 174 174 174 190 190 190 220 220 220 225 225 225 235 235 235 227 227 227 232 232 232 239 239 239 237 237 237 243 243 243 251 251 251 246 246 246 251 251 251 247 247 247 249 249 249 252 252 252 243 243 243 233 233 233 240 240 240 255 255 255 254 254 254 254 254 254 253 253 253 
245 245 247 227 227 229 234 234 236 219 219 221 227 227 229 208 208 210 232 232 234 244 244 246 248 248 249 247 247 247 248 248 248 248 248 248 248 248 248 249 249 249 249 249 249 250 250 250 250 250 250 250 250 250 250 250 250 250 250 250 250 250 250 249 249 249 249 249 249 249 249 249 249 249 249 248 248 249 246 246 248 245 245 247 243 243 245 238 238 240 232 232 234 233 233 235 240 240 242 244 244 246 244 244 246 245 245 247 246 246 248 248 248 250 249 249 251 250 250 252 250 250 251 251 251 251 250 250 250 251 251 251 253 253 253 254 254 254 252 252 252 246 246 246 241 241 241 245 245 245 246 246 246 248 248 248 250 250 250 250 250 250 248 248 248 245 245 245 243 243 243 245 245 245 245 245 245 243 243 243 242 242 242 244 244 244 246 246 246 243 243 243 237 237 237 234 234 234 210 210 210 179 179 179 216 216 216 228 228 228 237 237 237 237 237 237 243 243 243 243 243 243 246 246 246 249 249 249 250 250 250 250 250 250 250 250 250 250 250 250 251 251 251 252 252 252 252 252 252 252 252 252 252 252 252 252 252 252 252 252 252 252 252 252 252 252 252 251 251 251 251 251 251 251 251 251 251 251 251 251 251 251 250 250 250 249 249 249 249 249 249 250 250 250 250 250 250 250 250 250 250 250 250 250 250 250 251 251 251 251 251 251 251 251 251 252 252 252 252 252 252 252 252 252 253 253 253 253 253 253 254 254 254 254 254 254 254 254 254 253 253 253 253 253 253 253 253 253 253 253 253 253 253 253 253 253 253 253 253 253 253 253 253 253 253 253 253 253 253 253 253 253 253 253 253 253 253 253 253 253 253 253 253 253 253 253 253 253 253 253 253 253 253 253 253 253 253 253 253 253 253 253 253 253 253 253 253 253 253 253 253 253 253 253 253 253 253 253 253 253 253 253 253 253 253 253 253 253 253 253 253 253 253 253 253 253 253 253 253 253 253 253 253 253 253 253 253 253 253 253 253 253 253 253 253 253 253 253 253 253 253 253 253 253 253 253 253 253 253 253 253 253 253 253 253 253 253 253 253 253 253 253 253 253 253 253 253 253 253 253 253 253 253 253 253 253 253 253 253 253 253 253 253 253 253 253 253 254 254 254 
253 253 253 252 252 252 252 252 252 253 253 253 252 252 252 249 249 249 247 247 247 245 245 245 238 238 238 232 232 232 229 229 229 228 228 228 226 226 226 228 228 228 232 232 232 228 228 229 228 228 230 219 219 221 222 222 224 226 226 228 203 203 205 192 192 194 214 214 216 163 163 165 58 58 60 81 81 83 145 145 147 158 158 160 149 149 151 131 131 133 146 146 147 161 161 161 170 170 170 193 193 193 151 151 151 166 166 166 188 188 188 220 220 220 226 226 226 232 232 232 229 229 229 232 232 232 236 236 236 238 238 238 246 246 246 251 251 251 248 248 248 251 251 251 247 247 247 249 249 249 253 253 253 245 245 245 233 233 233 238 238 238 252 252 252 251 251 251 251 251 251 251 251 251 
243 243 245 224 224 226 227 227 229 219 219 221 223 223 225 208 208 210 231 231 233 241 241 243 246 246 247 247 247 247 247 247 247 247 247 247 248 248 248 249 249 249 249 249 249 250 250 250 250 250 250 250 250 250 250 250 250 250 250 250 249 249 249 249 249 249 249 249 249 248 248 248 248 248 248 248 248 249 245 245 247 244 244 246 243 243 245 237 237 239 230 230 232 232 232 234 241 241 243 244 244 246 244 244 246 245 245 247 246 246 248 248 248 250 249 249 251 250 250 252 250 250 251 251 251 251 251 251 251 252 252 252 253 253 253 253 253 253 249 249 249 243 243 243 239 239 239 247 247 247 248 248 248 249 249 249 250 250 250 249 249 249 248 248 248 246 246 246 244 244 244 244 244 244 245 245 245 244 244 244 243 243 243 245 245 245 247 247 247 243 243 243 236 236 236 238 238 238 216 216 216 183 183 183 219 219 219 223 223 223 233 233 233 231 231 231 242 242 242 242 242 242 245 245 245 249 249 249 251 251 251 251 251 251 250 250 250 250 250 250 251 251 251 252 252 252 252 252 252 252 252 252 252 252 252 252 252 252 252 252 252 252 252 252 252 252 252 251 251 251 251 251 251 251 251 251 251 251 251 251 251 251 250 250 250 249 249 249 249 249 249 249 249 249 249 249 249 249 249 249 249 249 249 250 250 250 250 250 250 250 250 250 250 250 250 250 250 250 250 250 250 251 251 251 251 251 251 252 252 252 253 253 253 253 253 253 253 253 253 253 253 253 253 253 253 253 253 253 253 253 253 253 253 253 253 253 253 253 253 253 253 253 253 253 253 253 253 253 253 253 253 253 253 253 253 253 253 253 253 253 253 253 253 253 253 253 253 252 252 252 253 253 253 253 253 253 253 253 253 253 253 253 254 254 254 254 254 254 254 254 254 254 254 254 254 254 254 254 254 254 254 254 254 254 254 254 254 254 254 254 254 254 254 254 254 253 253 253 253 253 253 253 253 253 253 253 253 253 253 253 253 253 253 253 253 253 253 253 253 253 253 253 253 253 253 253 253 253 253 253 253 253 253 253 253 253 253 253 253 253 253 253 253 253 253 253 253 253 253 253 253 253 253 253 253 253 253 253 253 253 253 253 253 253 253 253 253 255 255 255 
253 253 253 251 251 251 251 251 251 251 251 251 252 252 252 252 252 252 251 251 251 248 248 248 242 242 242 236 236 236 232 232 232 229 229 229 225 225 225 225 225 225 228 228 228 223 223 224 232 232 234 217 217 219 210 210 212 221 221 223 209 209 211 194 194 196 206 206 208 170 170 172 66 66 68 99 99 101 145 145 147 153 153 155 171 171 173 153 153 155 152 152 153 173 173 173 182 182 182 224 224 224 172 172 172 176 176 176 179 179 179 205 205 205 223 223 223 230 230 230 233 233 233 234 234 234 235 235 235 241 241 241 248 248 248 250 250 250 249 249 249 250 250 250 248 248 248 250 250 250 252 252 252 246 246 246 237 237 237 237 237 237 244 244 244 246 246 246 247 247 247 249 249 249 
240 240 242 229 229 231 226 226 228 227 227 229 226 226 228 215 215 217 230 230 232 239 239 241 246 246 247 246 246 246 246 246 246 247 247 247 248 248 248 248 248 248 249 249 249 250 250 250 250 250 250 250 250 250 250 250 250 249 249 249 249 249 249 249 249 249 248 248 248 248 248 248 248 248 248 247 247 248 243 243 245 243 243 245 243 243 245 236 236 238 228 228 230 232 232 234 242 242 244 244 244 246 244 244 246 245 245 247 246 246 248 248 248 250 249 249 251 250 250 252 250 250 251 252 252 252 253 253 253 253 253 253 252 252 252 249 249 249 247 247 247 245 245 245 245 245 245 250 250 250 250 250 250 250 250 250 249 249 249 249 249 249 247 247 247 246 246 246 245 245 245 244 244 244 246 246 246 246 246 246 245 245 245 246 246 246 247 247 247 241 241 241 234 234 234 228 228 228 228 228 228 200 200 200 226 226 226 215 215 215 232 232 232 232 232 232 241 241 241 242 242 242 245 245 245 249 249 249 251 251 251 251 251 251 251 251 251 251 251 251 251 251 251 252 252 252 252 252 252 252 252 252 252 252 252 252 252 252 252 252 252 252 252 252 252 252 252 251 251 251 251 251 251 251 251 251 251 251 251 251 251 251 250 250 250 249 249 249 249 249 249 249 249 249 249 249 249 249 249 249 249 249 249 249 249 249 249 249 249 249 249 249 249 249 249 248 248 248 249 249 249 249 249 249 250 250 250 251 251 251 251 251 251 252 252 252 252 252 252 253 253 253 253 253 253 253 253 253 253 253 253 253 253 253 253 253 253 253 253 253 253 253 253 253 253 253 253 253 253 253 253 253 253 253 253 253 253 253 253 253 253 253 253 253 253 253 253 252 252 252 252 252 252 253 253 253 253 253 253 253 253 253 254 254 254 254 254 254 254 254 254 254 254 254 254 254 254 254 254 254 254 254 254 254 254 254 254 254 254 254 254 254 254 254 254 253 253 253 253 253 253 253 253 253 253 253 253 253 253 253 253 253 253 253 253 253 253 253 253 253 253 253 253 253 253 253 253 253 253 253 253 253 253 253 253 253 253 253 253 253 253 253 253 253 253 253 253 253 253 253 253 253 253 253 253 253 253 253 253 253 253 253 253 253 253 253 253 253 253 253 
253 253 253 253 253 253 252 252 252 251 251 251 251 251 251 252 252 252 252 252 252 250 250 250 245 245 245 240 240 240 236 236 236 231 231 231 225 225 225 225 225 225 227 227 227 228 228 229 222 222 224 213 213 215 207 207 209 208 208 210 211 211 213 208 208 210 201 201 203 205 205 207 95 95 97 129 129 131 150 150 152 144 144 146 186 186 188 188 188 190 199 199 200 204 204 204 207 207 207 220 220 220 193 193 193 188 188 188 181 181 181 204 204 204 219 219 219 230 230 230 237 237 237 236 236 236 236 236 236 244 244 244 250 250 250 248 248 248 248 248 248 248 248 248 250 250 250 251 251 251 251 251 251 247 247 247 242 242 242 238 238 238 236 236 236 240 240 240 242 242 242 246 246 246 
239 239 241 235 235 237 229 229 231 236 236 238 231 231 233 222 222 224 230 230 232 238 238 240 246 246 247 246 246 246 246 246 246 247 247 247 247 247 247 248 248 248 249 249 249 250 250 250 250 250 250 250 250 250 249 249 249 249 249 249 249 249 249 249 249 249 248 248 248 248 248 248 248 248 248 247 247 248 242 242 244 242 242 244 243 243 245 236 236 238 228 228 230 232 232 234 243 243 245 244 244 246 244 244 246 245 245 247 246 246 248 248 248 250 249 249 251 250 250 252 250 250 251 253 253 253 254 254 254 254 254 254 250 250 250 247 247 247 246 246 246 249 249 249 252 252 252 252 252 252 251 251 251 250 250 250 249 249 249 248 248 248 247 247 247 247 247 247 246 246 246 244 244 244 246 246 246 246 246 246 246 246 246 247 247 247 246 246 246 240 240 240 232 232 232 220 220 220 241 241 241 221 221 221 235 235 235 213 213 213 238 238 238 240 240 240 244 244 244 241 241 241 245 245 245 249 249 249 251 251 251 251 251 251 251 251 251 251 251 251 251 251 251 252 252 252 252 252 252 252 252 252 252 252 252 252 252 252 252 252 252 252 252 252 252 252 252 251 251 251 251 251 251 251 251 251 251 251 251 251 251 251 250 250 250 249 249 249 249 249 249 249 249 249 249 249 249 249 249 249 249 249 249 249 249 249 249 249 249 248 248 248 248 248 248 247 247 247 248 248 248 248 248 248 249 249 249 250 250 250 251 251 251 251 251 251 252 252 252 253 253 253 253 253 253 253 253 253 253 253 253 253 253 253 253 253 253 253 253 253 253 253 253 253 253 253 253 253 253 253 253 253 253 253 253 253 253 253 253 253 253 253 253 253 253 253 253 252 252 252 252 252 252 252 252 252 253 253 253 253 253 253 254 254 254 254 254 254 254 254 254 254 254 254 254 254 254 254 254 254 254 254 254 254 254 254 254 254 254 254 254 254 254 254 254 253 253 253 253 253 253 253 253 253 253 253 253 253 253 253 253 253 253 253 253 253 253 253 253 253 253 253 253 253 253 253 253 253 253 253 253 253 253 253 253 253 253 253 253 253 253 253 253 253 253 253 253 253 253 253 253 253 253 253 253 253 253 253 253 253 253 253 253 253 253 253 253 251 251 251 
253 253 253 254 254 254 254 254 254 252 252 252 251 251 251 251 251 251 252 252 252 250 250 250 245 245 245 241 241 241 239 239 239 233 233 233 228 228 228 227 227 227 229 229 229 232 232 233 209 209 211 219 219 221 227 227 229 205 205 207 201 201 203 207 207 209 192 192 194 186 186 188 71 71 73 122 122 124 158 158 160 152 152 154 191 191 193 196 196 198 218 218 219 214 214 214 221 221 221 199 199 199 198 198 198 193 193 193 196 196 196 222 222 222 222 222 222 231 231 231 240 240 240 239 239 239 237 237 237 246 246 246 250 250 250 246 246 246 246 246 246 246 246 246 251 251 251 252 252 252 250 250 250 248 248 248 245 245 245 239 239 239 231 231 231 236 236 236 239 239 239 244 244 244 
237 237 239 238 238 240 238 238 240 236 236 238 232 232 234 226 226 228 227 227 229 236 236 238 247 247 248 246 246 246 247 247 247 248 248 248 248 248 248 249 249 249 249 249 249 248 248 248 248 248 248 248 248 248 248 248 248 247 247 247 247 247 247 247 247 247 247 247 247 246 246 246 246 246 246 247 247 248 247 247 249 245 245 247 240 240 242 235 235 237 234 234 236 240 240 242 246 246 248 243 243 245 245 245 247 247 247 249 248 248 250 247 247 249 247 247 249 249 249 251 250 250 251 250 250 250 250 250 250 251 251 251 252 252 252 252 252 252 252 252 252 252 252 252 252 252 252 251 251 251 250 250 250 249 249 249 249 249 249 250 250 250 249 249 249 247 247 247 245 245 245 248 248 248 247 247 247 247 247 247 247 247 247 246 246 246 243 243 243 238 238 238 234 234 234 229 229 229 228 228 228 227 227 227 228 228 228 231 231 231 236 236 236 241 241 241 244 244 244 250 250 250 250 250 250 250 250 250 251 251 251 252 252 252 252 252 252 253 253 253 253 253 253 251 251 251 251 251 251 251 251 251 251 251 251 251 251 251 251 251 251 251 251 251 251 251 251 248 248 248 249 249 249 249 249 249 249 249 249 249 249 249 249 249 249 248 248 248 247 247 247 250 250 250 249 249 249 247 247 247 246 246 246 245 245 245 245 245 245 246 246 246 247 247 247 249 249 249 249 249 249 249 249 249 249 249 249 250 250 250 251 251 251 252 252 252 253 253 253 254 254 254 254 254 254 254 254 254 254 254 254 254 254 254 254 254 254 254 254 254 254 254 254 253 253 253 253 253 253 253 253 253 253 253 253 253 253 253 253 253 253 253 253 253 253 253 253 253 253 253 253 253 253 253 253 253 253 253 253 253 253 253 253 253 253 253 253 253 253 253 253 252 252 252 252 252 252 253 253 253 253 253 253 253 253 253 254 254 254 254 254 254 254 254 254 253 253 253 253 253 253 253 253 253 253 253 253 253 253 253 253 253 253 253 253 253 253 253 253 253 253 253 253 253 253 253 253 253 253 253 253 253 253 253 253 253 253 253 253 253 253 253 253 253 253 253 253 253 253 253 253 253 253 253 253 253 253 253 253 253 253 253 253 253 253 253 253 252 252 252 
252 252 252 252 252 252 252 252 252 252 252 252 251 251 251 250 250 250 250 250 250 248 248 248 247 247 247 244 244 244 241 241 241 238 238 238 234 234 234 228 228 228 224 224 224 228 228 229 220 220 222 214 214 216 213 213 215 212 212 214 206 206 208 200 200 202 198 198 200 149 149 151 68 68 70 126 126 128 170 170 172 186 186 188 194 194 196 205 205 207 217 217 218 223 223 223 210 210 210 202 202 202 203 203 203 199 199 199 196 196 196 211 211 211 232 232 232 237 237 237 240 240 240 243 243 243 246 246 246 248 248 248 248 248 248 247 247 247 246 246 246 251 251 251 251 251 251 251 251 251 250 250 250 248 248 248 246 246 246 244 244 244 242 242 242 236 236 236 238 238 238 242 242 242 
236 236 238 233 233 235 236 236 238 237 237 239 232 232 234 226 226 228 226 226 228 236 236 238 247 247 248 246 246 246 247 247 247 248 248 248 248 248 248 249 249 249 249 249 249 248 248 248 248 248 248 248 248 248 248 248 248 247 247 247 247 247 247 247 247 247 247 247 247 246 246 246 246 246 246 246 246 247 246 246 248 245 245 247 241 241 243 236 236 238 234 234 236 236 236 238 238 238 240 242 242 244 244 244 246 247 247 249 248 248 250 249 249 251 250 250 252 251 251 253 253 253 254 250 250 250 250 250 250 251 251 251 252 252 252 252 252 252 252 252 252 252 252 252 252 252 252 251 251 251 250 250 250 249 249 249 249 249 249 250 250 250 250 250 250 248 248 248 246 246 246 248 248 248 247 247 247 246 246 246 245 245 245 243 243 243 239 239 239 234 234 234 230 230 230 229 229 229 229 229 229 228 228 228 229 229 229 232 232 232 236 236 236 241 241 241 244 244 244 249 249 249 250 250 250 250 250 250 251 251 251 251 251 251 252 252 252 253 253 253 253 253 253 251 251 251 251 251 251 251 251 251 251 251 251 251 251 251 251 251 251 251 251 251 251 251 251 249 249 249 249 249 249 250 250 250 250 250 250 250 250 250 249 249 249 248 248 248 248 248 248 249 249 249 248 248 248 247 247 247 246 246 246 246 246 246 246 246 246 247 247 247 248 248 248 251 251 251 251 251 251 250 250 250 250 250 250 250 250 250 250 250 250 251 251 251 251 251 251 254 254 254 254 254 254 254 254 254 254 254 254 254 254 254 254 254 254 254 254 254 254 254 254 253 253 253 253 253 253 253 253 253 253 253 253 253 253 253 253 253 253 253 253 253 253 253 253 253 253 253 253 253 253 253 253 253 253 253 253 253 253 253 253 253 253 253 253 253 253 253 253 252 252 252 252 252 252 253 253 253 253 253 253 253 253 253 254 254 254 254 254 254 254 254 254 253 253 253 253 253 253 253 253 253 253 253 253 253 253 253 253 253 253 253 253 253 253 253 253 253 253 253 253 253 253 253 253 253 253 253 253 253 253 253 253 253 253 253 253 253 253 253 253 253 253 253 253 253 253 253 253 253 253 253 253 253 253 253 253 253 253 253 253 253 253 253 253 252 252 252 
252 252 252 252 252 252 252 252 252 252 252 252 251 251 251 250 250 250 250 250 250 249 249 249 247 247 247 246 246 246 244 244 244 241 241 241 236 236 236 230 230 230 225 225 225 226 226 227 221 221 223 218 218 220 216 216 218 212 212 214 205 205 207 202 202 204 202 202 204 118 118 120 51 51 53 141 141 143 167 167 169 195 195 197 201 201 203 193 193 195 200 200 201 192 192 192 194 194 194 201 201 201 209 209 209 209 209 209 209 209 209 223 223 223 239 239 239 239 239 239 241 241 241 244 244 244 246 246 246 248 248 248 248 248 248 247 247 247 247 247 247 249 249 249 249 249 249 250 250 250 250 250 250 249 249 249 247 247 247 245 245 245 244 244 244 244 244 244 244 244 244 245 245 245 
236 236 238 230 230 232 233 233 235 234 234 236 230 230 232 225 225 227 228 228 230 237 237 239 246 246 247 246 246 246 246 246 246 247 247 247 248 248 248 248 248 248 248 248 248 248 248 248 248 248 248 248 248 248 248 248 248 247 247 247 247 247 247 247 247 247 247 247 247 246 246 246 246 246 246 246 246 247 246 246 248 245 245 247 242 242 244 239 239 241 235 235 237 231 231 233 230 230 232 239 239 241 241 241 243 244 244 246 247 247 249 248 248 250 249 249 251 251 251 253 253 253 254 250 250 250 250 250 250 251 251 251 252 252 252 252 252 252 252 252 252 252 252 252 252 252 252 250 250 250 249 249 249 248 248 248 249 249 249 250 250 250 250 250 250 249 249 249 247 247 247 250 250 250 249 249 249 246 246 246 244 244 244 242 242 242 238 238 238 233 233 233 229 229 229 231 231 231 230 230 230 230 230 230 230 230 230 233 233 233 237 237 237 241 241 241 244 244 244 249 249 249 249 249 249 250 250 250 250 250 250 251 251 251 252 252 252 252 252 252 252 252 252 251 251 251 251 251 251 251 251 251 251 251 251 251 251 251 251 251 251 251 251 251 251 251 251 250 250 250 250 250 250 251 251 251 251 251 251 250 250 250 249 249 249 249 249 249 248 248 248 248 248 248 247 247 247 247 247 247 246 246 246 246 246 246 247 247 247 249 249 249 249 249 249 251 251 251 250 250 250 250 250 250 250 250 250 250 250 250 251 251 251 251 251 251 252 252 252 254 254 254 254 254 254 254 254 254 254 254 254 254 254 254 254 254 254 254 254 254 254 254 254 253 253 253 253 253 253 253 253 253 253 253 253 253 253 253 253 253 253 253 253 253 253 253 253 253 253 253 253 253 253 253 253 253 253 253 253 253 253 253 253 253 253 253 253 253 253 253 253 252 252 252 252 252 252 253 253 253 253 253 253 253 253 253 254 254 254 254 254 254 254 254 254 253 253 253 253 253 253 253 253 253 253 253 253 253 253 253 253 253 253 253 253 253 253 253 253 253 253 253 253 253 253 253 253 253 253 253 253 253 253 253 253 253 253 253 253 253 253 253 253 253 253 253 253 253 253 253 253 253 253 253 253 253 253 253 253 253 253 253 253 253 253 253 253 252 252 252 
252 252 252 252 252 252 252 252 252 252 252 252 251 251 251 250 250 250 250 250 250 249 249 249 249 249 249 248 248 248 247 247 247 245 245 245 239 239 239 232 232 232 227 227 227 228 228 229 225 225 227 222 222 224 219 219 221 212 212 214 204 204 206 201 201 203 203 203 205 147 147 149 88 88 90 119 119 121 178 178 180 204 204 206 206 206 208 200 200 202 204 204 205 191 191 191 203 203 203 216 216 216 221 221 221 220 220 220 223 223 223 232 232 232 242 242 242 242 242 242 243 243 243 245 245 245 246 246 246 247 247 247 248 248 248 248 248 248 248 248 248 247 247 247 248 248 248 249 249 249 249 249 249 249 249 249 248 248 248 247 247 247 246 246 246 246 246 246 242 242 242 239 239 239 
235 235 237 232 232 234 232 232 234 229 229 231 224 224 226 225 225 227 232 232 234 241 241 243 245 245 246 246 246 246 246 246 246 247 247 247 248 248 248 248 248 248 248 248 248 248 248 248 247 247 247 248 248 248 248 248 248 247 247 247 247 247 247 247 247 247 247 247 247 246 246 246 246 246 246 247 247 248 245 245 247 243 243 245 241 241 243 239 239 241 236 236 238 232 232 234 228 228 230 235 235 237 238 238 240 241 241 243 243 243 245 244 244 246 245 245 247 247 247 249 249 249 250 250 250 250 250 250 250 251 251 251 252 252 252 252 252 252 252 252 252 252 252 252 252 252 252 250 250 250 249 249 249 248 248 248 249 249 249 251 251 251 251 251 251 250 250 250 248 248 248 252 252 252 250 250 250 247 247 247 244 244 244 242 242 242 239 239 239 235 235 235 232 232 232 232 232 232 232 232 232 232 232 232 232 232 232 235 235 235 238 238 238 242 242 242 244 244 244 248 248 248 248 248 248 249 249 249 250 250 250 250 250 250 251 251 251 251 251 251 252 252 252 251 251 251 251 251 251 251 251 251 251 251 251 251 251 251 251 251 251 251 251 251 251 251 251 251 251 251 251 251 251 251 251 251 251 251 251 250 250 250 249 249 249 248 248 248 248 248 248 247 247 247 246 246 246 246 246 246 246 246 246 246 246 246 248 248 248 249 249 249 251 251 251 249 249 249 249 249 249 249 249 249 249 249 249 250 250 250 251 251 251 252 252 252 253 253 253 253 253 253 253 253 253 253 253 253 253 253 253 253 253 253 253 253 253 253 253 253 253 253 253 253 253 253 253 253 253 253 253 253 253 253 253 253 253 253 253 253 253 253 253 253 253 253 253 253 253 253 253 253 253 253 253 253 253 253 253 253 253 253 253 253 253 253 253 253 253 253 253 252 252 252 252 252 252 253 253 253 253 253 253 253 253 253 254 254 254 254 254 254 254 254 254 253 253 253 253 253 253 253 253 253 253 253 253 253 253 253 253 253 253 253 253 253 253 253 253 253 253 253 253 253 253 253 253 253 253 253 253 253 253 253 253 253 253 253 253 253 253 253 253 253 253 253 253 253 253 253 253 253 253 253 253 253 253 253 253 253 253 253 253 253 253 253 253 252 252 252 
252 252 252 252 252 252 252 252 252 252 252 252 251 251 251 250 250 250 250 250 250 250 250 250 250 250 250 251 251 251 251 251 251 249 249 249 243 243 243 236 236 236 231 231 231 234 234 235 228 228 230 223 223 225 220 220 222 214 214 216 206 206 208 201 201 203 201 201 203 195 195 197 146 146 148 65 65 67 193 193 195 213 213 215 211 211 213 218 218 220 216 216 217 211 211 211 222 222 222 229 229 229 226 226 226 224 224 224 231 231 231 238 238 238 240 240 240 245 245 245 245 245 245 246 246 246 246 246 246 247 247 247 248 248 248 249 249 249 249 249 249 248 248 248 248 248 248 249 249 249 249 249 249 249 249 249 248 248 248 246 246 246 246 246 246 244 244 244 239 239 239 235 235 235 
234 234 236 238 238 240 233 233 235 224 224 226 219 219 221 225 225 227 238 238 240 244 244 246 244 244 245 245 245 245 246 246 246 247 247 247 247 247 247 248 248 248 248 248 248 247 247 247 247 247 247 248 248 248 248 248 248 247 247 247 247 247 247 247 247 247 247 247 247 246 246 246 246 246 246 247 247 248 245 245 247 241 241 243 239 239 241 238 238 240 236 236 238 235 235 237 233 233 235 236 236 238 238 238 240 241 241 243 242 242 244 243 243 245 243 243 245 245 245 247 247 247 248 250 250 250 250 250 250 251 251 251 252 252 252 252 252 252 252 252 252 252 252 252 252 252 252 250 250 250 249 249 249 249 249 249 250 250 250 251 251 251 251 251 251 250 250 250 248 248 248 249 249 249 246 246 246 243 243 243 241 241 241 240 240 240 239 239 239 237 237 237 235 235 235 234 234 234 234 234 234 234 234 234 235 235 235 236 236 236 239 239 239 242 242 242 244 244 244 248 248 248 248 248 248 248 248 248 249 249 249 250 250 250 250 250 250 251 251 251 251 251 251 250 250 250 250 250 250 250 250 250 250 250 250 250 250 250 250 250 250 250 250 250 250 250 250 251 251 251 251 251 251 251 251 251 251 251 251 250 250 250 249 249 249 248 248 248 247 247 247 246 246 246 245 245 245 245 245 245 245 245 245 246 246 246 247 247 247 249 249 249 250 250 250 250 250 250 249 249 249 249 249 249 248 248 248 249 249 249 249 249 249 250 250 250 250 250 250 253 253 253 253 253 253 253 253 253 253 253 253 253 253 253 253 253 253 253 253 253 253 253 253 253 253 253 253 253 253 253 253 253 253 253 253 253 253 253 253 253 253 253 253 253 253 253 253 253 253 253 253 253 253 253 253 253 253 253 253 253 253 253 253 253 253 253 253 253 253 253 253 252 252 252 252 252 252 253 253 253 253 253 253 253 253 253 254 254 254 254 254 254 254 254 254 253 253 253 253 253 253 253 253 253 253 253 253 253 253 253 253 253 253 253 253 253 253 253 253 253 253 253 253 253 253 253 253 253 253 253 253 253 253 253 253 253 253 253 253 253 253 253 253 253 253 253 253 253 253 253 253 253 253 253 253 253 253 253 253 253 253 253 253 253 253 253 253 252 252 252 
252 252 252 252 252 252 252 252 252 252 252 252 251 251 251 250 250 250 250 250 250 250 250 250 250 250 250 252 252 252 253 253 253 252 252 252 247 247 247 241 241 241 236 236 236 237 237 238 228 228 230 220 220 222 220 220 222 219 219 221 214 214 216 206 206 208 202 202 204 201 201 203 167 167 169 63 63 65 177 177 179 213 213 215 219 219 221 222 222 224 214 214 215 212 212 212 221 221 221 224 224 224 223 223 223 228 228 228 239 239 239 243 243 243 239 239 239 246 246 246 246 246 246 246 246 246 247 247 247 247 247 247 248 248 248 248 248 248 249 249 249 249 249 249 249 249 249 250 250 250 250 250 250 249 249 249 247 247 247 245 245 245 244 244 244 247 247 247 243 243 243 238 238 238 
231 231 233 241 241 243 236 236 238 226 226 228 220 220 222 227 227 229 241 241 243 246 246 248 243 243 244 245 245 245 245 245 245 246 246 246 247 247 247 247 247 247 247 247 247 247 247 247 247 247 247 248 248 248 248 248 248 247 247 247 247 247 247 247 247 247 247 247 247 246 246 246 246 246 246 247 247 248 244 244 246 241 241 243 238 238 240 235 235 237 235 235 237 236 236 238 237 237 239 238 238 240 240 240 242 243 243 245 244 244 246 244 244 246 245 245 247 247 247 249 248 248 249 250 250 250 250 250 250 251 251 251 252 252 252 252 252 252 252 252 252 252 252 252 252 252 252 251 251 251 250 250 250 249 249 249 250 250 250 251 251 251 251 251 251 250 250 250 248 248 248 244 244 244 241 241 241 238 238 238 236 236 236 236 236 236 236 236 236 235 235 235 234 234 234 236 236 236 236 236 236 236 236 236 237 237 237 238 238 238 240 240 240 242 242 242 244 244 244 247 247 247 247 247 247 248 248 248 248 248 248 249 249 249 250 250 250 250 250 250 250 250 250 250 250 250 250 250 250 250 250 250 250 250 250 250 250 250 250 250 250 250 250 250 250 250 250 250 250 250 250 250 250 250 250 250 250 250 250 249 249 249 248 248 248 246 246 246 246 246 246 245 245 245 244 244 244 244 244 244 244 244 244 245 245 245 246 246 246 248 248 248 249 249 249 251 251 251 250 250 250 249 249 249 248 248 248 246 246 246 246 246 246 246 246 246 245 245 245 253 253 253 253 253 253 253 253 253 253 253 253 253 253 253 253 253 253 253 253 253 253 253 253 253 253 253 253 253 253 253 253 253 253 253 253 253 253 253 253 253 253 253 253 253 253 253 253 253 253 253 253 253 253 253 253 253 253 253 253 253 253 253 253 253 253 253 253 253 253 253 253 252 252 252 252 252 252 253 253 253 253 253 253 253 253 253 254 254 254 254 254 254 254 254 254 253 253 253 253 253 253 253 253 253 253 253 253 253 253 253 253 253 253 253 253 253 253 253 253 253 253 253 253 253 253 253 253 253 253 253 253 253 253 253 253 253 253 253 253 253 253 253 253 253 253 253 253 253 253 253 253 253 253 253 253 253 253 253 253 253 253 253 253 253 253 253 253 252 252 252 
252 252 252 252 252 252 252 252 252 252 252 252 251 251 251 250 250 250 250 250 250 249 249 249 250 250 250 251 251 251 253 253 253 253 253 253 250 250 250 245 245 245 241 241 241 237 237 238 227 227 229 219 219 221 221 221 223 225 225 227 222 222 224 215 215 217 209 209 211 206 206 208 184 184 186 137 137 139 139 139 141 199 199 201 224 224 226 218 218 220 217 217 218 211 211 211 218 218 218 223 223 223 228 228 228 237 237 237 246 246 246 244 244 244 237 237 237 246 246 246 246 246 246 247 247 247 248 248 248 248 248 248 248 248 248 247 247 247 247 247 247 249 249 249 250 250 250 250 250 250 250 250 250 249 249 249 247 247 247 245 245 245 244 244 244 247 247 247 245 245 245 242 242 242 
227 227 229 238 238 240 239 239 241 234 234 236 226 226 228 229 229 231 241 241 243 246 246 248 243 243 244 245 245 245 245 245 245 246 246 246 247 247 247 247 247 247 247 247 247 247 247 247 246 246 246 248 248 248 248 248 248 247 247 247 247 247 247 247 247 247 247 247 247 246 246 246 246 246 246 244 244 245 244 244 246 242 242 244 238 238 240 233 233 235 232 232 234 234 234 236 237 237 239 236 236 238 239 239 241 242 242 244 244 244 246 245 245 247 246 246 248 248 248 250 250 250 251 250 250 250 250 250 250 251 251 251 252 252 252 252 252 252 252 252 252 252 252 252 252 252 252 252 252 252 251 251 251 250 250 250 251 251 251 251 251 251 251 251 251 249 249 249 247 247 247 242 242 242 239 239 239 235 235 235 233 233 233 233 233 233 234 234 234 234 234 234 234 234 234 237 237 237 237 237 237 237 237 237 238 238 238 239 239 239 241 241 241 242 242 242 243 243 243 246 246 246 247 247 247 247 247 247 248 248 248 249 249 249 249 249 249 250 250 250 250 250 250 250 250 250 250 250 250 250 250 250 250 250 250 250 250 250 250 250 250 250 250 250 250 250 250 250 250 250 250 250 250 249 249 249 249 249 249 248 248 248 246 246 246 245 245 245 244 244 244 244 244 244 244 244 244 243 243 243 243 243 243 243 243 243 245 245 245 246 246 246 247 247 247 247 247 247 247 247 247 246 246 246 246 246 246 245 245 245 246 246 246 246 246 246 246 246 246 252 252 252 252 252 252 252 252 252 252 252 252 252 252 252 252 252 252 252 252 252 252 252 252 253 253 253 253 253 253 253 253 253 253 253 253 253 253 253 253 253 253 253 253 253 253 253 253 253 253 253 253 253 253 253 253 253 253 253 253 253 253 253 253 253 253 253 253 253 253 253 253 252 252 252 252 252 252 253 253 253 253 253 253 253 253 253 254 254 254 254 254 254 254 254 254 253 253 253 253 253 253 253 253 253 253 253 253 253 253 253 253 253 253 253 253 253 253 253 253 253 253 253 253 253 253 253 253 253 253 253 253 253 253 253 253 253 253 253 253 253 253 253 253 253 253 253 253 253 253 253 253 253 253 253 253 253 253 253 253 253 253 253 253 253 253 253 253 252 252 252 
252 252 252 252 252 252 252 252 252 252 252 252 251 251 251 250 250 250 250 250 250 249 249 249 249 249 249 250 250 250 252 252 252 253 253 253 252 252 252 249 249 249 246 246 246 241 241 242 232 232 234 226 226 228 227 227 229 229 229 231 225 225 227 219 219 221 216 216 218 217 217 219 213 213 215 191 191 193 126 126 128 193 193 195 224 224 226 218 218 220 223 223 224 218 218 218 223 223 223 229 229 229 236 236 236 242 242 242 245 245 245 243 243 243 240 240 240 245 245 245 246 246 246 247 247 247 248 248 248 248 248 248 247 247 247 245 245 245 244 244 244 248 248 248 248 248 248 249 249 249 249 249 249 249 249 249 248 248 248 246 246 246 246 246 246 242 242 242 244 244 244 245 245 245 
224 224 226 234 234 236 241 241 243 241 241 243 233 233 235 231 231 233 239 239 241 245 245 247 243 243 244 245 245 246 245 245 245 246 246 246 247 247 247 247 247 247 247 247 247 247 247 247 246 246 246 248 248 248 248 248 248 247 247 247 247 247 247 247 247 247 247 247 247 246 246 246 246 246 247 241 241 242 243 243 245 243 243 245 239 239 241 232 232 234 229 229 231 231 231 233 234 234 236 232 232 234 235 235 237 239 239 241 242 242 244 243 243 245 245 245 247 248 248 250 250 250 251 250 250 250 250 250 250 251 251 251 252 252 252 252 252 252 252 252 252 252 252 252 252 252 252 253 253 253 252 252 252 251 251 251 251 251 251 251 251 251 251 251 251 249 249 249 247 247 247 244 244 244 241 241 241 236 236 236 234 234 234 234 234 234 234 234 234 235 235 235 234 234 234 238 238 238 238 238 238 238 238 238 239 239 239 240 240 240 241 241 241 243 243 243 243 243 243 246 246 246 246 246 246 247 247 247 248 248 248 248 248 248 249 249 249 249 249 249 250 250 250 250 250 250 250 250 250 250 250 250 250 250 250 250 250 250 250 250 250 250 250 250 250 250 250 249 249 249 249 249 249 249 249 249 248 248 248 247 247 247 246 246 246 244 244 244 243 243 243 244 244 244 243 243 243 242 242 242 242 242 242 242 242 242 243 243 243 245 245 245 246 246 246 241 241 241 241 241 241 242 242 242 244 244 244 245 245 245 248 248 248 250 250 250 251 251 251 252 252 252 252 252 252 252 252 252 252 252 252 252 252 252 252 252 252 252 252 252 252 252 252 253 253 253 253 253 253 253 253 253 253 253 253 253 253 253 253 253 253 253 253 253 253 253 253 253 253 253 253 253 253 253 253 253 253 253 253 253 253 253 253 253 253 253 253 253 253 253 253 252 252 252 252 252 252 253 253 253 253 253 253 253 253 253 254 254 254 254 254 254 254 254 254 253 253 253 253 253 253 253 253 253 253 253 253 253 253 253 253 253 253 253 253 253 253 253 253 253 253 253 253 253 253 253 253 253 253 253 253 253 253 253 253 253 253 253 253 253 253 253 253 253 253 253 253 253 253 253 253 253 253 253 253 253 253 253 253 253 253 253 253 253 253 253 253 252 252 252 
252 252 252 252 252 252 252 252 252 252 252 252 251 251 251 250 250 250 250 250 250 249 249 249 248 248 248 249 249 249 251 251 251 253 253 253 253 253 253 251 251 251 249 249 249 246 246 247 240 240 241 235 235 236 233 233 234 230 230 231 224 224 225 219 219 220 217 217 218 204 204 205 224 224 225 186 186 187 142 142 143 202 202 203 223 223 224 218 218 219 219 219 220 221 221 221 223 223 223 228 228 228 235 235 235 239 239 239 241 241 241 245 245 245 250 250 250 244 244 244 245 245 245 248 248 248 249 249 249 249 249 249 247 247 247 244 244 244 243 243 243 246 246 246 247 247 247 248 248 248 249 249 249 249 249 249 249 249 249 248 248 248 247 247 247 240 240 240 244 244 244 248 248 248 
214 214 216 235 235 237 234 234 236 235 235 237 237 237 239 239 239 241 240 240 242 243 243 245 246 246 248 245 245 246 245 245 246 246 246 247 247 247 248 247 247 248 247 247 248 247 247 248 246 246 247 247 247 248 247 247 248 246 246 247 246 246 247 245 245 246 244 244 245 244 244 245 244 244 245 242 242 244 244 244 246 243 243 245 237 237 239 228 228 230 224 224 226 225 225 227 228 228 230 228 228 230 232 232 234 239 239 241 244 244 246 245 245 247 244 244 246 246 246 248 249 249 250 250 250 250 250 250 250 251 251 251 252 252 252 252 252 252 252 252 252 252 252 252 252 252 252 251 251 251 251 251 251 251 251 251 253 253 253 254 254 254 253 253 253 250 250 250 247 247 247 241 241 241 240 240 240 238 238 238 236 236 236 235 235 235 234 234 234 235 235 235 235 235 235 236 236 236 237 237 237 239 239 239 241 241 241 242 242 242 242 242 242 242 242 242 241 241 241 245 245 245 244 244 244 246 246 246 250 250 250 251 251 251 248 248 248 248 248 248 251 251 251 250 250 250 250 250 250 250 250 250 250 250 250 249 249 249 249 249 249 249 249 249 249 249 249 246 246 246 248 248 248 248 248 248 245 245 245 242 242 242 239 239 239 239 239 239 241 241 241 242 242 242 242 242 242 241 241 241 241 241 241 241 241 241 242 242 242 242 242 242 243 243 243 242 242 242 242 242 242 242 242 242 243 243 243 244 244 244 245 245 245 245 245 245 245 245 245 248 248 248 249 249 249 250 250 250 252 252 252 253 253 253 253 253 253 253 253 253 253 253 253 255 255 255 253 253 253 251 251 251 250 250 250 249 249 249 250 250 250 251 251 251 252 252 252 249 249 249 251 251 251 253 253 253 254 254 254 254 254 254 253 253 253 251 251 251 250 250 250 253 253 253 253 253 253 253 253 253 253 253 253 253 253 253 253 253 253 253 253 253 253 253 253 253 253 253 253 253 253 253 253 253 253 253 253 253 253 253 253 253 253 253 253 253 253 253 253 252 252 252 252 252 252 252 252 252 252 252 252 252 252 252 252 252 252 252 252 252 252 252 252 253 253 253 253 253 253 253 253 253 253 253 253 253 253 253 253 253 253 253 253 253 253 253 253 251 251 251 
253 253 253 254 254 254 254 254 254 253 253 253 251 251 251 251 251 251 251 251 251 252 252 252 252 252 252 252 252 252 251 251 251 250 250 250 250 250 250 251 251 251 252 252 252 250 250 250 244 244 244 238 238 238 236 236 236 235 235 235 232 232 232 225 225 225 218 218 218 217 217 217 214 214 214 143 143 143 175 175 175 205 205 205 228 228 228 212 212 212 224 224 224 228 228 228 231 231 231 236 236 236 241 241 241 244 244 244 246 246 246 247 247 247 247 247 247 248 248 248 248 248 248 248 248 248 247 247 247 247 247 247 246 246 246 246 246 246 246 246 246 246 246 246 251 251 251 252 252 252 249 249 249 250 250 250 255 255 255 251 251 251 242 242 242 243 243 243 244 244 244 246 246 246 
224 224 226 231 231 233 230 230 232 230 230 232 233 233 235 238 238 240 241 241 243 244 244 246 247 247 249 245 245 247 245 245 247 246 246 248 247 247 249 247 247 249 247 247 249 247 247 249 246 246 248 247 247 249 247 247 249 246 246 248 246 246 248 245 245 247 244 244 246 244 244 246 244 244 246 241 241 243 242 242 244 241 241 243 235 235 237 227 227 229 223 223 225 224 224 226 227 227 229 229 229 231 231 231 233 236 236 238 240 240 242 242 242 244 244 244 246 247 247 249 250 250 251 250 250 250 250 250 250 251 251 251 252 252 252 252 252 252 252 252 252 252 252 252 252 252 252 251 251 251 251 251 251 251 251 251 252 252 252 253 253 253 253 253 253 250 250 250 247 247 247 241 241 241 240 240 240 238 238 238 237 237 237 235 235 235 234 234 234 233 233 233 233 233 233 235 235 235 236 236 236 238 238 238 240 240 240 241 241 241 242 242 242 242 242 242 242 242 242 244 244 244 243 243 243 245 245 245 249 249 249 250 250 250 248 248 248 249 249 249 251 251 251 250 250 250 250 250 250 250 250 250 250 250 250 249 249 249 249 249 249 249 249 249 248 248 248 247 247 247 248 248 248 248 248 248 245 245 245 241 241 241 239 239 239 239 239 239 240 240 240 241 241 241 241 241 241 241 241 241 241 241 241 241 241 241 242 242 242 242 242 242 243 243 243 242 242 242 242 242 242 243 243 243 243 243 243 244 244 244 244 244 244 245 245 245 245 245 245 247 247 247 248 248 248 249 249 249 251 251 251 252 252 252 252 252 252 253 253 253 253 253 253 252 252 252 250 250 250 249 249 249 248 248 248 248 248 248 249 249 249 250 250 250 251 251 251 252 252 252 253 253 253 253 253 253 253 253 253 253 253 253 253 253 253 253 253 253 253 253 253 253 253 253 253 253 253 253 253 253 253 253 253 253 253 253 253 253 253 253 253 253 253 253 253 253 253 253 253 253 253 253 253 253 253 253 253 253 253 253 253 253 253 253 253 253 253 253 253 252 252 252 252 252 252 252 252 252 252 252 252 252 252 252 252 252 252 252 252 252 252 252 252 253 253 253 253 253 253 253 253 253 253 253 253 253 253 253 253 253 253 253 253 253 253 253 253 252 252 252 
252 252 252 253 253 253 254 254 254 254 254 254 253 253 253 251 251 251 250 250 250 254 254 254 254 254 254 253 253 253 251 251 251 250 250 250 250 250 250 250 250 250 251 251 251 250 250 250 246 246 246 240 240 240 237 237 237 235 235 235 231 231 231 226 226 226 221 221 221 219 219 219 218 218 218 171 171 171 162 162 162 204 204 204 228 228 228 224 224 224 225 225 225 229 229 229 232 232 232 237 237 237 241 241 241 245 245 245 247 247 247 247 247 247 247 247 247 249 249 249 248 248 248 248 248 248 248 248 248 247 247 247 247 247 247 247 247 247 246 246 246 244 244 244 247 247 247 248 248 248 247 247 247 248 248 248 250 250 250 248 248 248 244 244 244 239 239 239 239 239 239 243 243 243 
228 228 230 227 227 229 226 226 228 226 226 228 229 229 231 236 236 238 243 243 245 246 246 248 246 246 248 245 245 247 245 245 247 246 246 248 247 247 249 247 247 249 247 247 249 247 247 249 246 246 248 247 247 249 247 247 249 246 246 248 246 246 248 245 245 247 244 244 246 244 244 246 244 244 246 240 240 242 240 240 242 238 238 240 232 232 234 226 226 228 223 223 225 223 223 225 225 225 227 227 227 229 229 229 231 232 232 234 235 235 237 239 239 241 243 243 245 248 248 250 251 251 252 250 250 250 250 250 250 251 251 251 252 252 252 252 252 252 252 252 252 252 252 252 252 252 252 251 251 251 250 250 250 250 250 250 252 252 252 253 253 253 252 252 252 250 250 250 247 247 247 242 242 242 241 241 241 240 240 240 238 238 238 235 235 235 233 233 233 231 231 231 229 229 229 234 234 234 235 235 235 237 237 237 239 239 239 240 240 240 241 241 241 242 242 242 242 242 242 242 242 242 241 241 241 243 243 243 248 248 248 250 250 250 249 249 249 249 249 249 252 252 252 250 250 250 250 250 250 249 249 249 249 249 249 249 249 249 248 248 248 248 248 248 248 248 248 247 247 247 248 248 248 247 247 247 244 244 244 241 241 241 239 239 239 238 238 238 238 238 238 241 241 241 240 240 240 240 240 240 240 240 240 241 241 241 241 241 241 242 242 242 243 243 243 243 243 243 243 243 243 243 243 243 243 243 243 244 244 244 244 244 244 244 244 244 244 244 244 246 246 246 247 247 247 248 248 248 249 249 249 250 250 250 251 251 251 251 251 251 251 251 251 249 249 249 248 248 248 247 247 247 246 246 246 246 246 246 247 247 247 249 249 249 250 250 250 255 255 255 254 254 254 253 253 253 252 252 252 252 252 252 253 253 253 254 254 254 255 255 255 253 253 253 253 253 253 253 253 253 253 253 253 253 253 253 253 253 253 253 253 253 253 253 253 253 253 253 253 253 253 253 253 253 253 253 253 253 253 253 253 253 253 253 253 253 253 253 253 252 252 252 252 252 252 252 252 252 252 252 252 252 252 252 252 252 252 252 252 252 252 252 252 253 253 253 253 253 253 253 253 253 253 253 253 253 253 253 253 253 253 253 253 253 253 253 253 254 254 254 
252 252 252 251 251 251 253 253 253 255 255 255 255 255 255 251 251 251 248 248 248 255 255 255 254 254 254 253 253 253 252 252 252 251 251 251 251 251 251 251 251 251 251 251 251 250 250 250 248 248 248 244 244 244 239 239 239 235 235 235 231 231 231 228 228 228 226 226 226 220 220 220 222 222 222 203 203 203 152 152 152 203 203 203 228 228 228 235 235 235 226 226 226 232 232 232 234 234 234 238 238 238 242 242 242 246 246 246 248 248 248 248 248 248 248 248 248 249 249 249 249 249 249 249 249 249 248 248 248 248 248 248 248 248 248 248 248 248 248 248 248 242 242 242 242 242 242 244 244 244 248 248 248 247 247 247 244 244 244 244 244 244 246 246 246 237 237 237 238 238 238 241 241 241 
222 222 224 226 226 228 226 226 228 225 225 227 228 228 230 235 235 237 243 243 245 246 246 248 244 244 246 245 245 247 245 245 247 246 246 248 247 247 249 247 247 249 247 247 249 247 247 249 246 246 248 247 247 249 247 247 249 246 246 248 246 246 248 245 245 247 244 244 246 244 244 246 244 244 246 241 241 243 239 239 241 235 235 237 230 230 232 226 226 228 224 224 226 224 224 226 224 224 226 222 222 224 226 226 228 231 231 233 234 234 236 238 238 240 244 244 246 248 248 250 248 248 249 250 250 250 250 250 250 251 251 251 252 252 252 252 252 252 252 252 252 252 252 252 252 252 252 251 251 251 250 250 250 250 250 250 250 250 250 251 251 251 251 251 251 249 249 249 247 247 247 242 242 242 242 242 242 241 241 241 239 239 239 236 236 236 232 232 232 229 229 229 227 227 227 233 233 233 234 234 234 235 235 235 237 237 237 239 239 239 241 241 241 242 242 242 242 242 242 241 241 241 239 239 239 240 240 240 246 246 246 249 249 249 249 249 249 250 250 250 252 252 252 249 249 249 249 249 249 249 249 249 248 248 248 248 248 248 248 248 248 247 247 247 247 247 247 247 247 247 247 247 247 246 246 246 243 243 243 241 241 241 238 238 238 237 237 237 237 237 237 240 240 240 239 239 239 239 239 239 239 239 239 240 240 240 241 241 241 242 242 242 242 242 242 244 244 244 244 244 244 244 244 244 244 244 244 243 243 243 243 243 243 243 243 243 243 243 243 245 245 245 246 246 246 247 247 247 248 248 248 249 249 249 250 250 250 250 250 250 250 250 250 249 249 249 249 249 249 248 248 248 247 247 247 246 246 246 246 246 246 247 247 247 247 247 247 254 254 254 254 254 254 254 254 254 253 253 253 253 253 253 254 254 254 254 254 254 254 254 254 252 252 252 252 252 252 252 252 252 252 252 252 252 252 252 252 252 252 252 252 252 252 252 252 253 253 253 253 253 253 253 253 253 253 253 253 253 253 253 253 253 253 253 253 253 253 253 253 252 252 252 252 252 252 252 252 252 252 252 252 252 252 252 252 252 252 252 252 252 252 252 252 253 253 253 253 253 253 253 253 253 253 253 253 253 253 253 253 253 253 253 253 253 253 253 253 255 255 255 
252 252 252 250 250 250 252 252 252 255 255 255 255 255 255 251 251 251 246 246 246 250 250 250 250 250 250 251 251 251 252 252 252 254 254 254 253 253 253 252 252 252 250 250 250 250 250 250 250 250 250 247 247 247 242 242 242 235 235 235 231 231 231 230 230 230 231 231 231 221 221 221 223 223 223 222 222 222 163 163 163 202 202 202 230 230 230 235 235 235 231 231 231 234 234 234 236 236 236 240 240 240 243 243 243 246 246 246 248 248 248 249 249 249 249 249 249 249 249 249 249 249 249 249 249 249 249 249 249 249 249 249 249 249 249 249 249 249 249 249 249 244 244 244 241 241 241 244 244 244 251 251 251 249 249 249 241 241 241 240 240 240 246 246 246 241 241 241 241 241 241 242 242 242 
215 215 217 224 224 226 227 227 229 227 227 229 228 228 230 234 234 236 243 243 245 245 245 247 242 242 244 245 245 247 245 245 247 246 246 248 247 247 249 247 247 249 247 247 249 247 247 249 246 246 248 247 247 249 247 247 249 246 246 248 246 246 248 245 245 247 244 244 246 244 244 246 244 244 246 242 242 244 239 239 241 233 233 235 229 229 231 226 226 228 225 225 227 225 225 227 224 224 226 215 215 217 225 225 227 234 234 236 237 237 239 240 240 242 245 245 247 247 247 249 246 246 247 250 250 250 250 250 250 251 251 251 252 252 252 252 252 252 252 252 252 252 252 252 252 252 252 251 251 251 250 250 250 249 249 249 249 249 249 250 250 250 250 250 250 249 249 249 247 247 247 243 243 243 242 242 242 242 242 242 240 240 240 237 237 237 233 233 233 230 230 230 228 228 228 231 231 231 232 232 232 234 234 234 235 235 235 238 238 238 240 240 240 242 242 242 243 243 243 242 242 242 239 239 239 239 239 239 244 244 244 248 248 248 248 248 248 249 249 249 250 250 250 248 248 248 248 248 248 248 248 248 248 248 248 247 247 247 247 247 247 247 247 247 247 247 247 247 247 247 246 246 246 244 244 244 242 242 242 241 241 241 239 239 239 237 237 237 236 236 236 238 238 238 238 238 238 238 238 238 239 239 239 239 239 239 241 241 241 242 242 242 242 242 242 244 244 244 244 244 244 244 244 244 244 244 244 243 243 243 243 243 243 243 243 243 243 243 243 244 244 244 245 245 245 246 246 246 248 248 248 249 249 249 249 249 249 249 249 249 249 249 249 252 252 252 251 251 251 250 250 250 248 248 248 247 247 247 246 246 246 246 246 246 246 246 246 250 250 250 251 251 251 253 253 253 254 254 254 255 255 255 254 254 254 253 253 253 252 252 252 252 252 252 252 252 252 252 252 252 252 252 252 252 252 252 252 252 252 252 252 252 252 252 252 253 253 253 253 253 253 253 253 253 253 253 253 253 253 253 253 253 253 253 253 253 253 253 253 252 252 252 252 252 252 252 252 252 252 252 252 252 252 252 252 252 252 252 252 252 252 252 252 253 253 253 253 253 253 253 253 253 253 253 253 253 253 253 253 253 253 253 253 253 253 253 253 255 255 255 
252 252 252 250 250 250 251 251 251 254 254 254 253 253 253 249 249 249 244 244 244 243 243 243 244 244 244 247 247 247 251 251 251 255 255 255 255 255 255 253 253 253 250 250 250 250 250 250 251 251 251 249 249 249 244 244 244 237 237 237 232 232 232 231 231 231 233 233 233 224 224 224 226 226 226 225 225 225 192 192 192 208 208 208 235 235 235 231 231 231 239 239 239 236 236 236 238 238 238 241 241 241 244 244 244 246 246 246 248 248 248 249 249 249 249 249 249 249 249 249 249 249 249 249 249 249 249 249 249 249 249 249 249 249 249 249 249 249 249 249 249 247 247 247 244 244 244 246 246 246 253 253 253 251 251 251 243 243 243 240 240 240 244 244 244 245 245 245 244 244 244 243 243 243 
215 215 217 215 215 217 222 222 224 227 227 229 227 227 229 232 232 234 241 241 243 244 244 246 241 241 243 245 245 247 245 245 247 246 246 248 247 247 249 247 247 249 247 247 249 247 247 249 246 246 248 247 247 249 247 247 249 246 246 248 246 246 248 245 245 247 244 244 246 244 244 246 244 244 246 243 243 245 238 238 240 231 231 233 227 227 229 226 226 228 226 226 228 225 225 227 224 224 226 209 209 211 225 225 227 239 239 241 242 242 244 242 242 244 245 245 247 247 247 249 245 245 246 250 250 250 250 250 250 251 251 251 252 252 252 252 252 252 252 252 252 252 252 252 252 252 252 251 251 251 249 249 249 248 248 248 248 248 248 249 249 249 249 249 249 248 248 248 247 247 247 243 243 243 243 243 243 242 242 242 240 240 240 237 237 237 235 235 235 232 232 232 231 231 231 230 230 230 231 231 231 232 232 232 234 234 234 236 236 236 239 239 239 242 242 242 243 243 243 244 244 244 239 239 239 238 238 238 242 242 242 246 246 246 247 247 247 246 246 246 248 248 248 248 248 248 248 248 248 247 247 247 247 247 247 247 247 247 246 246 246 246 246 246 246 246 246 246 246 246 244 244 244 242 242 242 241 241 241 241 241 241 240 240 240 238 238 238 236 236 236 237 237 237 237 237 237 237 237 237 238 238 238 239 239 239 240 240 240 241 241 241 242 242 242 243 243 243 243 243 243 243 243 243 243 243 243 244 244 244 244 244 244 244 244 244 244 244 244 244 244 244 245 245 245 246 246 246 248 248 248 249 249 249 249 249 249 249 249 249 249 249 249 252 252 252 251 251 251 251 251 251 250 250 250 248 248 248 247 247 247 246 246 246 246 246 246 245 245 245 247 247 247 250 250 250 253 253 253 254 254 254 253 253 253 252 252 252 251 251 251 252 252 252 252 252 252 252 252 252 252 252 252 252 252 252 252 252 252 252 252 252 252 252 252 253 253 253 253 253 253 253 253 253 253 253 253 253 253 253 253 253 253 253 253 253 253 253 253 252 252 252 252 252 252 252 252 252 252 252 252 252 252 252 252 252 252 252 252 252 252 252 252 253 253 253 253 253 253 253 253 253 253 253 253 253 253 253 253 253 253 253 253 253 253 253 253 255 255 255 
253 253 253 251 251 251 251 251 251 251 251 251 249 249 249 245 245 245 241 241 241 240 240 240 240 240 240 242 242 242 246 246 246 252 252 252 254 254 254 253 253 253 250 250 250 250 250 250 251 251 251 250 250 250 246 246 246 239 239 239 234 234 234 232 232 232 232 232 232 227 227 227 229 229 229 221 221 221 219 219 219 220 220 220 239 239 239 232 232 232 244 244 244 238 238 238 239 239 239 241 241 241 243 243 243 246 246 246 247 247 247 249 249 249 249 249 249 248 248 248 248 248 248 248 248 248 248 248 248 248 248 248 249 249 249 249 249 249 249 249 249 249 249 249 246 246 246 245 245 245 248 248 248 248 248 248 245 245 245 243 243 243 243 243 243 246 246 246 245 245 245 243 243 243 
214 214 216 198 198 200 212 212 214 222 222 224 224 224 226 228 228 230 238 238 240 243 243 245 242 242 244 245 245 247 245 245 247 246 246 248 247 247 249 247 247 249 247 247 249 247 247 249 246 246 248 247 247 249 247 247 249 246 246 248 246 246 248 245 245 247 244 244 246 244 244 246 244 244 246 243 243 245 236 236 238 228 228 230 224 224 226 225 225 227 226 226 228 224 224 226 222 222 224 207 207 209 228 228 230 245 245 247 246 246 248 242 242 244 245 245 247 248 248 250 247 247 248 250 250 250 250 250 250 251 251 251 252 252 252 252 252 252 252 252 252 252 252 252 252 252 252 251 251 251 249 249 249 247 247 247 247 247 247 248 248 248 249 249 249 248 248 248 247 247 247 244 244 244 243 243 243 241 241 241 239 239 239 238 238 238 237 237 237 236 236 236 236 236 236 229 229 229 229 229 229 231 231 231 233 233 233 235 235 235 239 239 239 242 242 242 244 244 244 246 246 246 240 240 240 238 238 238 241 241 241 245 245 245 245 245 245 244 244 244 245 245 245 247 247 247 247 247 247 247 247 247 247 247 247 246 246 246 246 246 246 246 246 246 246 246 246 245 245 245 242 242 242 240 240 240 240 240 240 241 241 241 240 240 240 238 238 238 236 236 236 236 236 236 236 236 236 237 237 237 237 237 237 238 238 238 240 240 240 241 241 241 242 242 242 242 242 242 242 242 242 243 243 243 243 243 243 244 244 244 244 244 244 245 245 245 245 245 245 244 244 244 245 245 245 246 246 246 248 248 248 249 249 249 249 249 249 250 250 250 250 250 250 249 249 249 249 249 249 249 249 249 249 249 249 249 249 249 248 248 248 248 248 248 247 247 247 243 243 243 244 244 244 246 246 246 249 249 249 250 250 250 251 251 251 252 252 252 252 252 252 252 252 252 252 252 252 252 252 252 252 252 252 252 252 252 252 252 252 252 252 252 252 252 252 253 253 253 253 253 253 253 253 253 253 253 253 253 253 253 253 253 253 253 253 253 253 253 253 252 252 252 252 252 252 252 252 252 252 252 252 252 252 252 252 252 252 252 252 252 252 252 252 253 253 253 253 253 253 253 253 253 253 253 253 253 253 253 253 253 253 253 253 253 253 253 253 254 254 254 
253 253 253 252 252 252 250 250 250 248 248 248 245 245 245 241 241 241 239 239 239 242 242 242 239 239 239 236 236 236 239 239 239 245 245 245 250 250 250 252 252 252 252 252 252 249 249 249 249 249 249 249 249 249 246 246 246 242 242 242 236 236 236 232 232 232 230 230 230 226 226 226 229 229 229 215 215 215 229 229 229 229 229 229 236 236 236 238 238 238 241 241 241 239 239 239 239 239 239 241 241 241 243 243 243 245 245 245 247 247 247 248 248 248 248 248 248 246 246 246 247 247 247 247 247 247 247 247 247 248 248 248 248 248 248 248 248 248 249 249 249 250 250 250 246 246 246 239 239 239 236 236 236 240 240 240 247 247 247 247 247 247 244 244 244 246 246 246 246 246 246 244 244 244 
211 211 213 185 185 187 202 202 204 216 216 218 220 220 222 225 225 227 237 237 239 244 244 246 243 243 245 245 245 247 245 245 247 246 246 248 247 247 249 247 247 249 247 247 249 247 247 249 246 246 248 247 247 249 247 247 249 246 246 248 246 246 248 245 245 247 244 244 246 244 244 246 244 244 246 242 242 244 234 234 236 226 226 228 222 222 224 224 224 226 225 225 227 223 223 225 220 220 222 207 207 209 230 230 232 248 248 250 247 247 249 241 241 243 244 244 246 249 249 251 250 250 251 250 250 250 250 250 250 251 251 251 252 252 252 252 252 252 252 252 252 252 252 252 252 252 252 250 250 250 249 249 249 247 247 247 247 247 247 248 248 248 248 248 248 248 248 248 247 247 247 245 245 245 243 243 243 241 241 241 239 239 239 238 238 238 238 238 238 238 238 238 239 239 239 229 229 229 229 229 229 230 230 230 232 232 232 235 235 235 239 239 239 242 242 242 244 244 244 248 248 248 241 241 241 238 238 238 241 241 241 244 244 244 244 244 244 243 243 243 243 243 243 247 247 247 247 247 247 247 247 247 246 246 246 246 246 246 246 246 246 245 245 245 245 245 245 244 244 244 241 241 241 239 239 239 239 239 239 241 241 241 241 241 241 239 239 239 236 236 236 236 236 236 236 236 236 236 236 236 237 237 237 238 238 238 240 240 240 241 241 241 242 242 242 242 242 242 242 242 242 242 242 242 243 243 243 244 244 244 245 245 245 245 245 245 245 245 245 245 245 245 246 246 246 247 247 247 248 248 248 249 249 249 250 250 250 250 250 250 250 250 250 246 246 246 246 246 246 247 247 247 248 248 248 249 249 249 249 249 249 249 249 249 249 249 249 243 243 243 243 243 243 243 243 243 245 245 245 247 247 247 249 249 249 252 252 252 253 253 253 251 251 251 251 251 251 251 251 251 251 251 251 251 251 251 251 251 251 251 251 251 251 251 251 253 253 253 253 253 253 253 253 253 253 253 253 253 253 253 253 253 253 253 253 253 253 253 253 252 252 252 252 252 252 252 252 252 252 252 252 252 252 252 252 252 252 252 252 252 252 252 252 253 253 253 253 253 253 253 253 253 253 253 253 253 253 253 253 253 253 253 253 253 253 253 253 253 253 253 
254 254 254 253 253 253 250 250 250 246 246 246 242 242 242 239 239 239 238 238 238 246 246 246 240 240 240 233 233 233 233 233 233 239 239 239 246 246 246 251 251 251 253 253 253 248 248 248 249 249 249 248 248 248 247 247 247 243 243 243 238 238 238 232 232 232 228 228 228 222 222 222 226 226 226 211 211 211 225 225 225 233 233 233 229 229 229 243 243 243 235 235 235 239 239 239 240 240 240 241 241 241 242 242 242 244 244 244 246 246 246 247 247 247 248 248 248 246 246 246 246 246 246 246 246 246 247 247 247 247 247 247 248 248 248 248 248 248 248 248 248 249 249 249 244 244 244 233 233 233 226 226 226 233 233 233 247 247 247 251 251 251 245 245 245 247 247 247 248 248 248 246 246 246 
212 212 214 202 202 204 207 207 209 212 212 214 206 206 208 223 223 225 243 243 245 239 239 241 245 245 247 246 246 248 246 246 248 247 247 249 248 248 250 248 248 250 248 248 250 248 248 250 247 247 249 244 244 246 244 244 246 243 243 245 244 244 246 246 246 248 246 246 248 245 245 247 243 243 245 242 242 244 230 230 232 232 232 234 226 226 228 223 223 225 225 225 227 217 217 219 221 221 223 208 208 210 232 232 234 243 243 245 241 241 243 244 244 246 247 247 249 247 247 249 250 250 251 251 251 251 251 251 251 251 251 251 251 251 251 252 252 252 252 252 252 252 252 252 252 252 252 250 250 250 250 250 250 249 249 249 245 245 245 241 241 241 240 240 240 243 243 243 246 246 246 241 241 241 240 240 240 241 241 241 243 243 243 245 245 245 244 244 244 241 241 241 238 238 238 235 235 235 234 234 234 232 232 232 232 232 232 233 233 233 237 237 237 240 240 240 243 243 243 240 240 240 238 238 238 237 237 237 246 246 246 239 239 239 231 231 231 239 239 239 236 236 236 230 230 230 244 244 244 241 241 241 237 237 237 244 244 244 239 239 239 233 233 233 243 243 243 244 244 244 240 240 240 241 241 241 228 228 228 231 231 231 241 241 241 242 242 242 242 242 242 237 237 237 238 238 238 239 239 239 238 238 238 237 237 237 237 237 237 238 238 238 240 240 240 243 243 243 243 243 243 243 243 243 243 243 243 243 243 243 243 243 243 243 243 243 243 243 243 243 243 243 245 245 245 247 247 247 248 248 248 247 247 247 246 246 246 246 246 246 247 247 247 248 248 248 250 250 250 251 251 251 250 250 250 246 246 246 244 244 244 246 246 246 248 248 248 246 246 246 245 245 245 244 244 244 242 242 242 241 241 241 244 244 244 248 248 248 252 252 252 249 249 249 249 249 249 248 248 248 249 249 249 250 250 250 251 251 251 253 253 253 254 254 254 253 253 253 253 253 253 253 253 253 253 253 253 253 253 253 253 253 253 253 253 253 253 253 253 252 252 252 252 252 252 252 252 252 253 253 253 253 253 253 254 254 254 254 254 254 254 254 254 252 252 252 252 252 252 252 252 252 252 252 252 252 252 252 252 252 252 252 252 252 252 252 252 253 253 253 
252 252 252 254 254 254 253 253 253 245 245 245 235 235 235 233 233 233 238 238 238 234 234 234 234 234 234 238 238 238 241 241 241 241 241 241 239 239 239 241 241 241 246 246 246 247 247 247 248 248 248 248 248 248 248 248 248 245 245 245 240 240 240 235 235 235 232 232 232 216 216 216 243 243 243 203 203 203 219 219 219 241 241 241 236 236 236 238 238 238 240 240 240 240 240 240 238 238 238 238 238 238 240 240 240 245 245 245 248 248 248 249 249 249 249 249 249 250 250 250 249 249 249 247 247 247 246 246 246 246 246 246 247 247 247 248 248 248 249 249 249 250 250 250 250 250 250 240 240 240 232 232 232 233 233 233 232 232 232 235 235 235 247 247 247 247 247 247 248 248 248 246 246 246 
209 209 211 175 175 177 188 188 190 208 208 210 212 212 214 225 225 227 242 242 244 239 239 241 247 247 249 244 244 246 244 244 246 245 245 247 246 246 248 246 246 248 246 246 248 246 246 248 246 246 248 245 245 247 244 244 246 243 243 245 244 244 246 246 246 248 246 246 248 244 244 246 243 243 245 246 246 248 222 222 224 226 226 228 228 228 230 226 226 228 228 228 230 221 221 223 219 219 221 216 216 218 236 236 238 244 244 246 242 242 244 246 246 248 248 248 250 247 247 249 249 249 250 251 251 251 251 251 251 251 251 251 251 251 251 252 252 252 252 252 252 252 252 252 252 252 252 252 252 252 251 251 251 250 250 250 246 246 246 243 243 243 240 240 240 240 240 240 240 240 240 242 242 242 242 242 242 243 243 243 243 243 243 244 244 244 244 244 244 243 243 243 242 242 242 238 238 238 236 236 236 234 234 234 232 232 232 232 232 232 234 234 234 236 236 236 238 238 238 245 245 245 248 248 248 245 245 245 235 235 235 234 234 234 238 238 238 228 228 228 217 217 217 224 224 224 239 239 239 238 238 238 237 237 237 251 251 251 251 251 251 237 237 237 231 231 231 227 227 227 235 235 235 245 245 245 240 240 240 233 233 233 231 231 231 231 231 231 237 237 237 236 236 236 237 237 237 238 238 238 237 237 237 237 237 237 238 238 238 241 241 241 243 243 243 243 243 243 243 243 243 243 243 243 243 243 243 243 243 243 243 243 243 243 243 243 243 243 243 244 244 244 246 246 246 248 248 248 248 248 248 247 247 247 245 245 245 246 246 246 246 246 246 249 249 249 250 250 250 250 250 250 249 249 249 247 247 247 246 246 246 246 246 246 247 247 247 250 250 250 249 249 249 247 247 247 244 244 244 242 242 242 242 242 242 244 244 244 246 246 246 249 249 249 249 249 249 248 248 248 249 249 249 250 250 250 251 251 251 253 253 253 254 254 254 253 253 253 253 253 253 253 253 253 253 253 253 253 253 253 253 253 253 253 253 253 253 253 253 252 252 252 252 252 252 252 252 252 253 253 253 253 253 253 254 254 254 254 254 254 254 254 254 252 252 252 252 252 252 252 252 252 252 252 252 252 252 252 252 252 252 252 252 252 252 252 252 252 252 252 
253 253 253 255 255 255 254 254 254 245 245 245 235 235 235 235 235 235 241 241 241 237 237 237 235 235 235 236 236 236 240 240 240 241 241 241 239 239 239 239 239 239 242 242 242 243 243 243 244 244 244 245 245 245 244 244 244 242 242 242 237 237 237 233 233 233 230 230 230 239 239 239 207 207 207 227 227 227 207 207 207 223 223 223 237 237 237 222 222 222 247 247 247 239 239 239 239 239 239 239 239 239 243 243 243 247 247 247 249 249 249 249 249 249 247 247 247 248 248 248 248 248 248 247 247 247 247 247 247 247 247 247 247 247 247 248 248 248 248 248 248 246 246 246 247 247 247 238 238 238 230 230 230 232 232 232 231 231 231 233 233 233 244 244 244 247 247 247 247 247 247 245 245 245 
215 215 217 154 154 156 173 173 175 208 208 210 222 222 224 231 231 233 240 240 242 238 238 240 246 246 248 242 242 244 243 243 245 244 244 246 244 244 246 245 245 247 245 245 247 244 244 246 244 244 246 245 245 247 244 244 246 244 244 246 244 244 246 246 246 248 246 246 248 244 244 246 243 243 245 245 245 247 206 206 208 214 214 216 227 227 229 223 223 225 226 226 228 220 220 222 212 212 214 226 226 228 241 241 243 245 245 247 242 242 244 247 247 249 249 249 251 247 247 249 249 249 250 251 251 251 251 251 251 251 251 251 251 251 251 252 252 252 252 252 252 252 252 252 252 252 252 253 253 253 252 252 252 250 250 250 248 248 248 246 246 246 242 242 242 237 237 237 233 233 233 242 242 242 243 243 243 244 244 244 244 244 244 243 243 243 244 244 244 245 245 245 246 246 246 241 241 241 240 240 240 237 237 237 235 235 235 234 234 234 235 235 235 237 237 237 239 239 239 237 237 237 240 240 240 244 244 244 225 225 225 225 225 225 223 223 223 196 196 196 206 206 206 126 126 126 186 186 186 235 235 235 246 246 246 240 240 240 235 235 235 238 238 238 250 250 250 233 233 233 232 232 232 230 230 230 234 234 234 232 232 232 234 234 234 234 234 234 239 239 239 237 237 237 237 237 237 238 238 238 237 237 237 237 237 237 238 238 238 241 241 241 243 243 243 244 244 244 244 244 244 244 244 244 244 244 244 244 244 244 244 244 244 244 244 244 244 244 244 244 244 244 246 246 246 247 247 247 247 247 247 246 246 246 245 245 245 245 245 245 246 246 246 250 250 250 249 249 249 248 248 248 248 248 248 248 248 248 248 248 248 247 247 247 246 246 246 250 250 250 250 250 250 249 249 249 246 246 246 243 243 243 242 242 242 242 242 242 243 243 243 248 248 248 248 248 248 248 248 248 249 249 249 250 250 250 251 251 251 253 253 253 254 254 254 253 253 253 253 253 253 253 253 253 253 253 253 253 253 253 253 253 253 253 253 253 253 253 253 252 252 252 252 252 252 252 252 252 253 253 253 253 253 253 253 253 253 253 253 253 253 253 253 252 252 252 252 252 252 252 252 252 252 252 252 252 252 252 252 252 252 252 252 252 252 252 252 251 251 251 
253 253 253 255 255 255 255 255 255 246 246 246 238 238 238 236 236 236 240 240 240 238 238 238 235 235 235 236 236 236 239 239 239 240 240 240 238 238 238 237 237 237 239 239 239 241 241 241 242 242 242 243 243 243 242 242 242 240 240 240 236 236 236 232 232 232 230 230 230 228 228 228 220 220 220 226 226 226 207 207 207 223 223 223 237 237 237 255 255 255 226 226 226 239 239 239 239 239 239 241 241 241 245 245 245 248 248 248 249 249 249 248 248 248 247 247 247 247 247 247 247 247 247 247 247 247 247 247 247 247 247 247 247 247 247 247 247 247 247 247 247 246 246 246 249 249 249 241 241 241 235 235 235 237 237 237 237 237 237 238 238 238 245 245 245 245 245 245 246 246 246 244 244 244 
218 218 220 162 162 164 174 174 176 211 211 213 231 231 233 236 236 238 240 240 242 237 237 239 244 244 246 242 242 244 243 243 245 243 243 245 244 244 246 245 245 247 244 244 246 244 244 246 244 244 246 245 245 247 244 244 246 244 244 246 244 244 246 246 246 248 246 246 248 244 244 246 242 242 244 242 242 244 196 196 198 209 209 211 229 229 231 221 221 223 224 224 226 222 222 224 211 211 213 232 232 234 242 242 244 243 243 245 240 240 242 247 247 249 250 250 252 247 247 249 249 249 250 251 251 251 251 251 251 251 251 251 251 251 251 252 252 252 252 252 252 252 252 252 252 252 252 253 253 253 251 251 251 250 250 250 250 250 250 249 249 249 244 244 244 237 237 237 231 231 231 236 236 236 239 239 239 243 243 243 244 244 244 245 245 245 245 245 245 246 246 246 247 247 247 243 243 243 242 242 242 241 241 241 239 239 239 240 240 240 241 241 241 243 243 243 245 245 245 243 243 243 237 237 237 253 253 253 243 243 243 240 240 240 219 219 219 186 186 186 231 231 231 223 223 223 226 226 226 225 225 225 227 227 227 235 235 235 241 241 241 240 240 240 237 237 237 236 236 236 235 235 235 221 221 221 234 234 234 230 230 230 232 232 232 232 232 232 234 234 234 235 235 235 236 236 236 239 239 239 239 239 239 238 238 238 238 238 238 239 239 239 240 240 240 244 244 244 244 244 244 244 244 244 244 244 244 244 244 244 244 244 244 244 244 244 244 244 244 245 245 245 246 246 246 247 247 247 247 247 247 245 245 245 244 244 244 245 245 245 246 246 246 251 251 251 248 248 248 246 246 246 247 247 247 249 249 249 249 249 249 247 247 247 245 245 245 245 245 245 246 246 246 248 248 248 247 247 247 246 246 246 245 245 245 245 245 245 246 246 246 247 247 247 248 248 248 248 248 248 249 249 249 250 250 250 251 251 251 252 252 252 253 253 253 252 252 252 252 252 252 252 252 252 252 252 252 252 252 252 252 252 252 252 252 252 252 252 252 252 252 252 252 252 252 252 252 252 252 252 252 252 252 252 253 253 253 253 253 253 253 253 253 252 252 252 252 252 252 252 252 252 252 252 252 252 252 252 252 252 252 252 252 252 252 252 252 252 252 252 
253 253 253 254 254 254 254 254 254 250 250 250 243 243 243 236 236 236 233 233 233 235 235 235 234 234 234 236 236 236 239 239 239 239 239 239 236 236 236 237 237 237 241 241 241 241 241 241 242 242 242 243 243 243 242 242 242 240 240 240 237 237 237 234 234 234 232 232 232 218 218 218 237 237 237 217 217 217 229 229 229 182 182 182 235 235 235 222 222 222 239 239 239 239 239 239 240 240 240 242 242 242 245 245 245 247 247 247 248 248 248 248 248 248 248 248 248 248 248 248 247 247 247 246 246 246 244 244 244 244 244 244 245 245 245 246 246 246 247 247 247 245 245 245 250 250 250 244 244 244 238 238 238 242 242 242 244 244 244 243 243 243 247 247 247 241 241 241 243 243 243 241 241 241 
212 212 214 187 187 189 181 181 183 210 210 212 232 232 234 236 236 238 240 240 242 238 238 240 242 242 244 243 243 245 244 244 246 245 245 247 245 245 247 246 246 248 246 246 248 245 245 247 245 245 247 246 246 248 245 245 247 244 244 246 245 245 247 245 245 247 245 245 247 243 243 245 242 242 244 241 241 243 199 199 201 215 215 217 235 235 237 224 224 226 226 226 228 227 227 229 220 220 222 234 234 236 241 241 243 240 240 242 239 239 241 247 247 249 249 249 251 247 247 249 250 250 251 251 251 251 251 251 251 251 251 251 251 251 251 252 252 252 252 252 252 252 252 252 252 252 252 251 251 251 250 250 250 249 249 249 250 250 250 250 250 250 247 247 247 240 240 240 235 235 235 231 231 231 235 235 235 240 240 240 244 244 244 246 246 246 247 247 247 247 247 247 247 247 247 245 245 245 244 244 244 243 243 243 242 242 242 242 242 242 243 243 243 245 245 245 246 246 246 247 247 247 238 238 238 252 252 252 246 246 246 249 249 249 231 231 231 195 195 195 235 235 235 235 235 235 190 190 190 157 157 157 170 170 170 210 210 210 240 240 240 243 243 243 232 232 232 221 221 221 232 232 232 221 221 221 244 244 244 233 233 233 231 231 231 227 227 227 222 222 222 227 227 227 231 231 231 237 237 237 240 240 240 241 241 241 240 240 240 240 240 240 240 240 240 244 244 244 244 244 244 244 244 244 244 244 244 244 244 244 244 244 244 244 244 244 244 244 244 244 244 244 245 245 245 246 246 246 245 245 245 244 244 244 244 244 244 245 245 245 246 246 246 250 250 250 248 248 248 246 246 246 247 247 247 249 249 249 250 250 250 248 248 248 245 245 245 243 243 243 245 245 245 247 247 247 248 248 248 247 247 247 246 246 246 247 247 247 248 248 248 247 247 247 247 247 247 248 248 248 249 249 249 250 250 250 251 251 251 252 252 252 252 252 252 252 252 252 252 252 252 252 252 252 252 252 252 252 252 252 252 252 252 252 252 252 252 252 252 252 252 252 252 252 252 252 252 252 252 252 252 252 252 252 252 252 252 252 252 252 252 252 252 252 252 252 252 252 252 252 252 252 252 252 252 252 252 252 252 252 252 252 252 252 252 252 252 253 253 253 
252 252 252 251 251 251 253 253 253 254 254 254 249 249 249 236 236 236 225 225 225 230 230 230 233 233 233 237 237 237 240 240 240 238 238 238 235 235 235 239 239 239 245 245 245 241 241 241 241 241 241 241 241 241 240 240 240 238 238 238 236 236 236 233 233 233 231 231 231 227 227 227 237 237 237 222 222 222 205 205 205 218 218 218 120 120 120 201 201 201 238 238 238 239 239 239 240 240 240 242 242 242 243 243 243 245 245 245 247 247 247 249 249 249 250 250 250 251 251 251 248 248 248 244 244 244 241 241 241 240 240 240 242 242 242 245 245 245 247 247 247 241 241 241 248 248 248 243 243 243 237 237 237 243 243 243 246 246 246 244 244 244 246 246 246 237 237 237 241 241 241 239 239 239 
217 217 219 209 209 211 184 184 186 204 204 206 229 229 231 235 235 237 241 241 243 240 240 242 242 242 244 244 244 246 245 245 247 246 246 248 246 246 248 247 247 249 247 247 249 246 246 248 246 246 248 246 246 248 245 245 247 244 244 246 245 245 247 245 245 247 245 245 247 243 243 245 241 241 243 237 237 239 205 205 207 219 219 221 232 232 234 224 224 226 227 227 229 227 227 229 225 225 227 233 233 235 240 240 242 239 239 241 240 240 242 247 247 249 247 247 249 246 246 248 251 251 252 251 251 251 251 251 251 251 251 251 251 251 251 252 252 252 252 252 252 252 252 252 252 252 252 250 250 250 250 250 250 250 250 250 250 250 250 250 250 250 248 248 248 245 245 245 242 242 242 233 233 233 234 234 234 237 237 237 242 242 242 246 246 246 248 248 248 247 247 247 245 245 245 247 247 247 246 246 246 244 244 244 243 243 243 241 241 241 241 241 241 241 241 241 242 242 242 244 244 244 241 241 241 244 244 244 232 232 232 244 244 244 246 246 246 212 212 212 213 213 213 211 211 211 187 187 187 174 174 174 176 176 176 184 184 184 204 204 204 224 224 224 228 228 228 220 220 220 225 225 225 193 193 193 223 223 223 225 225 225 242 242 242 239 239 239 223 223 223 219 219 219 225 225 225 232 232 232 238 238 238 241 241 241 242 242 242 243 243 243 244 244 244 244 244 244 244 244 244 244 244 244 244 244 244 244 244 244 244 244 244 244 244 244 244 244 244 243 243 243 244 244 244 245 245 245 244 244 244 244 244 244 244 244 244 246 246 246 248 248 248 249 249 249 248 248 248 247 247 247 247 247 247 248 248 248 249 249 249 248 248 248 247 247 247 246 246 246 247 247 247 249 249 249 248 248 248 247 247 247 245 245 245 245 245 245 246 246 246 246 246 246 247 247 247 248 248 248 249 249 249 250 250 250 251 251 251 251 251 251 251 251 251 252 252 252 252 252 252 252 252 252 252 252 252 252 252 252 252 252 252 252 252 252 252 252 252 252 252 252 252 252 252 252 252 252 252 252 252 252 252 252 251 251 251 251 251 251 251 251 251 252 252 252 252 252 252 252 252 252 252 252 252 252 252 252 252 252 252 252 252 252 252 252 252 254 254 254 
252 252 252 250 250 250 252 252 252 255 255 255 253 253 253 240 240 240 227 227 227 229 229 229 231 231 231 236 236 236 240 240 240 240 240 240 238 238 238 242 242 242 248 248 248 240 240 240 240 240 240 239 239 239 238 238 238 235 235 235 233 233 233 230 230 230 229 229 229 234 234 234 221 221 221 228 228 228 218 218 218 199 199 199 189 189 189 141 141 141 223 223 223 235 235 235 238 238 238 241 241 241 244 244 244 245 245 245 246 246 246 248 248 248 250 250 250 252 252 252 249 249 249 244 244 244 241 241 241 239 239 239 240 240 240 242 242 242 244 244 244 240 240 240 248 248 248 243 243 243 236 236 236 244 244 244 249 249 249 247 247 247 247 247 247 233 233 233 240 240 240 239 239 239 
226 226 228 221 221 223 185 185 187 202 202 204 230 230 232 235 235 237 242 242 244 243 243 245 243 243 245 244 244 246 245 245 247 246 246 248 246 246 248 247 247 249 247 247 249 246 246 248 246 246 248 247 247 249 245 245 247 245 245 247 245 245 247 245 245 247 245 245 247 243 243 245 241 241 243 234 234 236 213 213 215 220 220 222 224 224 226 224 224 226 229 229 231 224 224 226 225 225 227 234 234 236 241 241 243 241 241 243 242 242 244 247 247 249 245 245 247 244 244 246 252 252 253 251 251 251 251 251 251 251 251 251 251 251 251 252 252 252 252 252 252 252 252 252 252 252 252 251 251 251 252 252 252 251 251 251 250 250 250 248 248 248 247 247 247 248 248 248 249 249 249 241 241 241 238 238 238 236 236 236 239 239 239 245 245 245 249 249 249 248 248 248 245 245 245 247 247 247 246 246 246 245 245 245 243 243 243 243 243 243 242 242 242 242 242 242 243 243 243 250 250 250 251 251 251 249 249 249 244 244 244 249 249 249 252 252 252 235 235 235 217 217 217 216 216 216 199 199 199 181 181 181 161 161 161 159 159 159 195 195 195 228 228 228 230 230 230 215 215 215 226 226 226 179 179 179 194 194 194 185 185 185 212 212 212 224 224 224 214 214 214 220 220 220 224 224 224 229 229 229 234 234 234 237 237 237 240 240 240 242 242 242 244 244 244 243 243 243 243 243 243 243 243 243 243 243 243 243 243 243 243 243 243 243 243 243 243 243 243 242 242 242 243 243 243 244 244 244 244 244 244 243 243 243 244 244 244 247 247 247 249 249 249 247 247 247 248 248 248 249 249 249 248 248 248 247 247 247 247 247 247 248 248 248 249 249 249 248 248 248 249 249 249 249 249 249 248 248 248 246 246 246 244 244 244 245 245 245 246 246 246 245 245 245 246 246 246 248 248 248 250 250 250 251 251 251 251 251 251 251 251 251 250 250 250 252 252 252 252 252 252 252 252 252 252 252 252 252 252 252 252 252 252 252 252 252 252 252 252 253 253 253 252 252 252 252 252 252 252 252 252 251 251 251 251 251 251 251 251 251 250 250 250 252 252 252 252 252 252 252 252 252 252 252 252 252 252 252 252 252 252 252 252 252 252 252 252 253 253 253 
254 254 254 252 252 252 250 250 250 252 252 252 253 253 253 248 248 248 240 240 240 234 234 234 231 231 231 232 232 232 238 238 238 243 243 243 244 244 244 244 244 244 245 245 245 241 241 241 241 241 241 239 239 239 238 238 238 235 235 235 232 232 232 230 230 230 228 228 228 221 221 221 231 231 231 220 220 220 215 215 215 212 212 212 212 212 212 181 181 181 175 175 175 229 229 229 234 234 234 242 242 242 246 246 246 247 247 247 247 247 247 247 247 247 247 247 247 250 250 250 249 249 249 246 246 246 243 243 243 241 241 241 239 239 239 238 238 238 238 238 238 239 239 239 247 247 247 242 242 242 235 235 235 243 243 243 251 251 251 249 249 249 248 248 248 233 233 233 241 241 241 240 240 240 
222 222 224 228 228 230 187 187 189 204 204 206 233 233 235 237 237 239 242 242 244 243 243 245 244 244 246 244 244 246 244 244 246 245 245 247 246 246 248 246 246 248 246 246 248 246 246 248 246 246 248 247 247 249 246 246 248 245 245 247 245 245 247 245 245 247 245 245 247 243 243 245 241 241 243 237 237 239 221 221 223 222 222 224 221 221 223 228 228 230 235 235 237 226 226 228 227 227 229 236 236 238 243 243 245 244 244 246 245 245 247 248 248 250 244 244 246 243 243 245 251 251 252 251 251 251 251 251 251 251 251 251 251 251 251 252 252 252 252 252 252 252 252 252 252 252 252 253 253 253 254 254 254 253 253 253 250 250 250 247 247 247 246 246 246 249 249 249 253 253 253 250 250 250 242 242 242 235 235 235 236 236 236 243 243 243 249 249 249 248 248 248 245 245 245 245 245 245 245 245 245 245 245 245 245 245 245 246 246 246 247 247 247 248 248 248 248 248 248 242 242 242 243 243 243 245 245 245 255 255 255 245 245 245 230 230 230 233 233 233 227 227 227 209 209 209 218 218 218 216 216 216 185 185 185 168 168 168 200 200 200 227 227 227 215 215 215 186 186 186 233 233 233 203 203 203 195 195 195 138 138 138 144 144 144 174 174 174 188 188 188 226 226 226 228 228 228 230 230 230 231 231 231 232 232 232 235 235 235 239 239 239 242 242 242 243 243 243 243 243 243 243 243 243 243 243 243 243 243 243 243 243 243 243 243 243 243 243 243 241 241 241 242 242 242 243 243 243 243 243 243 243 243 243 244 244 244 247 247 247 250 250 250 246 246 246 248 248 248 250 250 250 249 249 249 247 247 247 246 246 246 248 248 248 250 250 250 247 247 247 248 248 248 248 248 248 247 247 247 245 245 245 245 245 245 246 246 246 248 248 248 245 245 245 246 246 246 248 248 248 250 250 250 251 251 251 251 251 251 250 250 250 250 250 250 251 251 251 251 251 251 251 251 251 251 251 251 251 251 251 251 251 251 251 251 251 251 251 251 253 253 253 252 252 252 252 252 252 252 252 252 251 251 251 251 251 251 250 250 250 250 250 250 252 252 252 252 252 252 252 252 252 252 252 252 252 252 252 252 252 252 252 252 252 252 252 252 252 252 252 
255 255 255 255 255 255 250 250 250 248 248 248 252 252 252 254 254 254 252 252 252 239 239 239 231 231 231 228 228 228 236 236 236 246 246 246 249 249 249 244 244 244 241 241 241 244 244 244 243 243 243 242 242 242 240 240 240 237 237 237 234 234 234 231 231 231 230 230 230 224 224 224 225 225 225 220 220 220 208 208 208 193 193 193 177 177 177 193 193 193 171 171 171 224 224 224 232 232 232 242 242 242 249 249 249 250 250 250 248 248 248 245 245 245 244 244 244 248 248 248 248 248 248 248 248 248 246 246 246 243 243 243 239 239 239 236 236 236 233 233 233 234 234 234 242 242 242 236 236 236 229 229 229 238 238 238 247 247 247 245 245 245 244 244 244 233 233 233 242 242 242 242 242 242 
224 224 226 212 212 214 173 173 175 193 193 195 231 231 233 239 239 241 243 243 245 242 242 244 240 240 242 243 243 245 243 243 245 243 243 245 244 244 246 245 245 247 245 245 247 246 246 248 246 246 248 246 246 248 246 246 248 246 246 248 245 245 247 245 245 247 245 245 247 244 244 246 244 244 246 236 236 238 223 223 225 225 225 227 226 226 228 217 217 219 226 226 228 240 240 242 235 235 237 244 244 246 244 244 246 245 245 247 246 246 248 247 247 249 247 247 249 248 248 250 248 248 249 250 250 250 250 250 250 250 250 250 250 250 250 251 251 251 251 251 251 251 251 251 251 251 251 253 253 253 252 252 252 252 252 252 252 252 252 251 251 251 251 251 251 250 250 250 250 250 250 249 249 249 255 255 255 245 245 245 230 230 230 240 240 240 249 249 249 249 249 249 244 244 244 247 247 247 247 247 247 247 247 247 248 248 248 248 248 248 248 248 248 248 248 248 248 248 248 247 247 247 244 244 244 244 244 244 250 250 250 239 239 239 232 232 232 236 236 236 213 213 213 222 222 222 224 224 224 212 212 212 180 180 180 170 170 170 197 197 197 194 194 194 147 147 147 136 136 137 169 169 170 149 149 150 153 153 154 165 165 166 175 175 176 158 158 159 148 148 149 214 214 215 227 227 228 235 235 236 232 232 233 225 225 226 226 226 227 232 232 233 238 238 239 245 245 245 244 244 244 242 242 242 241 241 241 241 241 241 241 241 241 242 242 242 243 243 243 241 241 241 243 243 243 245 245 245 247 247 247 248 248 248 247 247 247 246 246 246 245 245 245 246 246 246 246 246 246 246 246 246 246 246 246 246 246 246 246 246 246 246 246 246 246 246 246 248 248 248 247 247 247 246 246 246 246 246 246 245 245 245 245 245 245 246 246 246 246 246 246 248 248 248 247 247 247 247 247 247 249 249 249 251 251 251 251 251 251 249 249 249 246 246 246 250 250 250 248 248 248 247 247 247 249 249 249 252 252 252 253 253 253 253 253 253 251 251 251 252 252 252 252 252 252 252 252 252 252 252 252 252 252 252 252 252 252 252 252 252 252 252 252 252 252 252 252 252 252 252 252 252 252 252 252 252 252 252 252 252 252 252 252 252 252 252 252 252 252 252 
252 252 252 252 252 252 252 252 252 252 252 252 252 252 252 252 252 252 252 252 252 248 248 248 241 241 241 234 234 234 232 232 232 236 236 236 242 242 242 246 246 246 247 247 247 247 247 247 248 248 248 241 241 241 228 228 228 225 225 225 231 231 231 232 232 232 227 227 227 226 226 226 224 224 224 223 223 223 222 222 222 212 212 212 198 198 198 190 190 190 190 190 190 175 175 175 235 235 235 247 247 247 248 248 248 247 247 247 240 240 240 252 252 252 250 250 250 243 243 243 237 237 237 243 243 243 244 244 244 238 238 238 247 247 247 251 251 251 235 235 235 233 233 233 238 238 238 238 238 238 235 235 235 236 236 236 242 242 242 245 245 245 243 243 243 245 245 245 232 232 232 223 223 223 
222 222 224 179 179 181 170 170 172 216 216 218 240 240 242 234 234 236 240 240 242 239 239 241 244 244 246 243 243 245 243 243 245 243 243 245 244 244 246 245 245 247 245 245 247 246 246 248 246 246 248 246 246 248 246 246 248 246 246 248 245 245 247 245 245 247 245 245 247 244 244 246 244 244 246 239 239 241 226 226 228 226 226 228 227 227 229 222 222 224 232 232 234 243 243 245 238 238 240 244 244 246 245 245 247 245 245 247 246 246 248 247 247 249 247 247 249 248 248 250 248 248 249 250 250 250 250 250 250 250 250 250 250 250 250 251 251 251 251 251 251 251 251 251 251 251 251 252 252 252 252 252 252 252 252 252 252 252 252 251 251 251 251 251 251 250 250 250 250 250 250 248 248 248 251 251 251 247 247 247 243 243 243 246 246 246 245 245 245 243 243 243 245 245 245 247 247 247 247 247 247 247 247 247 247 247 247 247 247 247 248 248 248 248 248 248 249 249 249 245 245 245 252 252 252 243 243 243 238 238 238 238 238 238 236 236 236 214 214 214 163 163 163 181 181 181 158 158 158 192 192 192 190 190 190 157 157 157 162 162 162 173 173 173 110 110 110 161 161 162 201 201 203 208 208 210 215 215 217 198 198 200 193 193 195 171 171 173 146 146 148 213 213 215 221 221 223 228 228 230 228 228 230 229 229 231 233 233 235 238 238 240 239 239 240 246 246 246 245 245 245 245 245 245 244 244 244 244 244 244 244 244 244 244 244 244 244 244 244 245 245 245 246 246 246 247 247 247 248 248 248 248 248 248 247 247 247 246 246 246 245 245 245 246 246 246 246 246 246 246 246 246 246 246 246 246 246 246 246 246 246 246 246 246 246 246 246 245 245 245 245 245 245 245 245 245 245 245 245 245 245 245 245 245 245 246 246 246 246 246 246 248 248 248 247 247 247 247 247 247 249 249 249 251 251 251 251 251 251 249 249 249 247 247 247 249 249 249 248 248 248 247 247 247 248 248 248 251 251 251 252 252 252 251 251 251 250 250 250 252 252 252 252 252 252 252 252 252 252 252 252 252 252 252 252 252 252 252 252 252 252 252 252 252 252 252 252 252 252 252 252 252 252 252 252 252 252 252 252 252 252 252 252 252 252 252 252 252 252 252 
252 252 252 252 252 252 252 252 252 252 252 252 252 252 252 252 252 252 252 252 252 251 251 251 244 244 244 238 238 238 236 236 236 240 240 240 245 245 245 247 247 247 247 247 247 245 245 245 247 247 247 240 240 240 226 226 226 220 220 220 225 225 225 226 226 226 222 222 222 217 217 217 215 215 215 216 216 216 219 219 219 215 215 215 208 208 208 205 205 205 207 207 207 144 144 144 203 203 203 236 236 236 248 248 248 255 255 255 255 255 255 250 250 250 241 241 241 246 246 246 242 242 242 251 251 251 255 255 255 246 246 246 245 245 245 243 243 243 227 227 227 236 236 236 240 240 240 241 241 241 236 236 236 234 234 234 238 238 238 241 241 241 241 241 241 239 239 239 225 225 225 215 215 215 
219 219 221 169 169 171 174 174 176 234 234 236 241 241 243 230 230 232 244 244 246 236 236 238 245 245 247 243 243 245 243 243 245 243 243 245 244 244 246 245 245 247 245 245 247 246 246 248 246 246 248 246 246 248 246 246 248 246 246 248 245 245 247 245 245 247 245 245 247 245 245 247 245 245 247 244 244 246 230 230 232 225 225 227 227 227 229 229 229 231 239 239 241 247 247 249 242 242 244 245 245 247 246 246 248 246 246 248 247 247 249 247 247 249 248 248 250 248 248 250 248 248 249 250 250 250 250 250 250 250 250 250 250 250 250 251 251 251 251 251 251 251 251 251 251 251 251 252 252 252 252 252 252 252 252 252 252 252 252 251 251 251 251 251 251 251 251 251 251 251 251 254 254 254 248 248 248 241 241 241 242 242 242 235 235 235 235 235 235 239 239 239 252 252 252 247 247 247 247 247 247 247 247 247 246 246 246 247 247 247 248 248 248 248 248 248 249 249 249 244 244 244 255 255 255 234 234 234 217 217 217 233 233 233 249 249 249 230 230 230 182 182 182 156 156 156 169 169 169 203 203 203 198 198 198 184 184 184 174 174 174 174 174 174 145 145 145 172 172 173 209 209 211 226 226 228 239 239 241 219 219 221 224 224 226 217 217 219 192 192 194 217 217 219 220 220 222 223 223 225 227 227 229 233 233 235 240 240 242 241 241 243 238 238 239 243 243 243 244 244 244 244 244 244 245 245 245 245 245 245 245 245 245 244 244 244 244 244 244 245 245 245 245 245 245 246 246 246 246 246 246 246 246 246 247 247 247 247 247 247 247 247 247 246 246 246 245 245 245 245 245 245 245 245 245 245 245 245 245 245 245 245 245 245 245 245 245 244 244 244 244 244 244 244 244 244 245 245 245 245 245 245 246 246 246 247 247 247 247 247 247 247 247 247 247 247 247 248 248 248 249 249 249 251 251 251 251 251 251 249 249 249 247 247 247 248 248 248 247 247 247 247 247 247 248 248 248 250 250 250 251 251 251 251 251 251 250 250 250 252 252 252 252 252 252 252 252 252 252 252 252 252 252 252 252 252 252 252 252 252 252 252 252 252 252 252 252 252 252 252 252 252 252 252 252 252 252 252 252 252 252 252 252 252 252 252 252 252 252 252 
252 252 252 252 252 252 252 252 252 252 252 252 252 252 252 252 252 252 252 252 252 253 253 253 248 248 248 244 244 244 243 243 243 245 245 245 247 247 247 248 248 248 247 247 247 247 247 247 249 249 249 244 244 244 231 231 231 223 223 223 224 224 224 224 224 224 222 222 222 214 214 214 213 213 213 216 216 216 219 219 219 219 219 219 218 218 218 220 220 220 224 224 224 211 211 211 186 186 186 190 190 190 224 224 224 252 252 252 243 243 243 231 231 231 255 255 255 239 239 239 232 232 232 237 237 237 243 243 243 240 240 240 241 241 241 244 244 244 239 239 239 236 236 236 239 239 239 239 239 239 236 236 236 233 233 233 235 235 235 237 237 237 237 237 237 233 233 233 220 220 220 210 210 210 
217 217 219 193 193 195 187 187 189 233 233 235 233 233 235 232 232 234 252 252 254 235 235 237 243 243 245 243 243 245 243 243 245 243 243 245 244 244 246 245 245 247 245 245 247 246 246 248 246 246 248 246 246 248 245 245 247 245 245 247 245 245 247 245 245 247 245 245 247 245 245 247 245 245 247 246 246 248 233 233 235 224 224 226 226 226 228 235 235 237 246 246 248 249 249 251 244 244 246 246 246 248 247 247 249 247 247 249 247 247 249 248 248 250 248 248 250 248 248 250 249 249 250 250 250 250 250 250 250 250 250 250 250 250 250 251 251 251 251 251 251 251 251 251 251 251 251 252 252 252 252 252 252 252 252 252 251 251 251 251 251 251 251 251 251 251 251 251 251 251 251 251 251 251 247 247 247 239 239 239 241 241 241 227 227 227 235 235 235 240 240 240 248 248 248 248 248 248 248 248 248 247 247 247 247 247 247 247 247 247 248 248 248 249 249 249 250 250 250 235 235 235 241 241 241 204 204 204 183 183 183 194 194 194 198 198 198 189 189 189 168 168 168 179 179 179 225 225 225 237 237 237 212 212 212 190 190 190 202 202 202 205 205 205 203 203 203 199 199 200 227 227 229 221 221 223 228 228 230 224 224 226 238 238 240 237 237 239 227 227 229 224 224 226 226 226 228 228 228 230 230 230 232 236 236 238 241 241 243 241 241 243 236 236 237 238 238 238 239 239 239 241 241 241 243 243 243 244 244 244 244 244 244 243 243 243 243 243 243 243 243 243 243 243 243 243 243 243 243 243 243 245 245 245 246 246 246 248 248 248 249 249 249 245 245 245 245 245 245 245 245 245 245 245 245 245 245 245 244 244 244 244 244 244 244 244 244 244 244 244 245 245 245 245 245 245 246 246 246 246 246 246 247 247 247 247 247 247 247 247 247 247 247 247 247 247 247 248 248 248 249 249 249 249 249 249 249 249 249 247 247 247 246 246 246 245 245 245 245 245 245 246 246 246 248 248 248 250 250 250 251 251 251 252 252 252 252 252 252 252 252 252 252 252 252 252 252 252 252 252 252 252 252 252 252 252 252 252 252 252 252 252 252 252 252 252 252 252 252 252 252 252 252 252 252 252 252 252 252 252 252 252 252 252 252 252 252 252 252 252 
252 252 252 252 252 252 252 252 252 252 252 252 252 252 252 252 252 252 252 252 252 253 253 253 251 251 251 248 248 248 248 248 248 249 249 249 249 249 249 247 247 247 246 246 246 245 245 245 249 249 249 247 247 247 238 238 238 229 229 229 227 227 227 225 225 225 222 222 222 219 219 219 222 222 222 224 224 224 224 224 224 222 222 222 222 222 222 228 228 228 234 234 234 236 236 236 218 218 218 214 214 214 203 203 203 224 224 224 254 254 254 241 241 241 240 240 240 252 252 252 242 242 242 239 239 239 242 242 242 241 241 241 238 238 238 236 236 236 235 235 235 233 233 233 233 233 233 234 234 234 235 235 235 237 237 237 237 237 237 234 234 234 230 230 230 225 225 225 217 217 217 212 212 212 
216 216 218 205 205 207 197 197 199 229 229 231 232 232 234 237 237 239 250 250 252 234 234 236 243 243 245 243 243 245 243 243 245 243 243 245 244 244 246 245 245 247 245 245 247 246 246 248 246 246 248 245 245 247 245 245 247 245 245 247 245 245 247 245 245 247 245 245 247 245 245 247 246 246 248 247 247 249 236 236 238 223 223 225 224 224 226 239 239 241 249 249 251 248 248 250 246 246 248 248 248 250 248 248 250 248 248 250 248 248 250 248 248 250 249 249 251 249 249 251 249 249 250 250 250 250 250 250 250 250 250 250 250 250 250 251 251 251 251 251 251 251 251 251 251 251 251 251 251 251 251 251 251 251 251 251 251 251 251 251 251 251 252 252 252 252 252 252 252 252 252 243 243 243 248 248 248 243 243 243 245 245 245 222 222 222 240 240 240 240 240 240 235 235 235 247 247 247 247 247 247 248 248 248 248 248 248 249 249 249 249 249 249 249 249 249 249 249 249 249 249 249 239 239 239 208 208 208 213 213 213 224 224 224 204 204 204 189 189 189 185 185 185 209 209 209 231 231 231 245 245 245 235 235 235 166 166 166 200 200 200 224 224 224 216 216 216 217 217 218 243 243 245 215 215 217 215 215 217 223 223 225 231 231 233 228 228 230 242 242 244 229 229 231 233 233 235 236 236 238 236 236 238 238 238 240 241 241 243 242 242 244 239 239 240 236 236 236 237 237 237 240 240 240 242 242 242 244 244 244 244 244 244 244 244 244 244 244 244 245 245 245 245 245 245 244 244 244 245 245 245 245 245 245 246 246 246 247 247 247 248 248 248 245 245 245 245 245 245 245 245 245 244 244 244 244 244 244 243 243 243 243 243 243 243 243 243 246 246 246 246 246 246 247 247 247 248 248 248 248 248 248 247 247 247 246 246 246 246 246 246 246 246 246 247 247 247 248 248 248 248 248 248 247 247 247 246 246 246 245 245 245 244 244 244 240 240 240 242 242 242 244 244 244 246 246 246 249 249 249 251 251 251 253 253 253 255 255 255 252 252 252 252 252 252 252 252 252 252 252 252 252 252 252 252 252 252 252 252 252 252 252 252 252 252 252 252 252 252 252 252 252 252 252 252 252 252 252 252 252 252 252 252 252 252 252 252 252 252 252 
252 252 252 252 252 252 252 252 252 252 252 252 252 252 252 252 252 252 252 252 252 252 252 252 251 251 251 251 251 251 250 250 250 250 250 250 248 248 248 246 246 246 244 244 244 239 239 239 243 243 243 244 244 244 240 240 240 234 234 234 229 229 229 225 225 225 221 221 221 219 219 219 226 226 226 230 230 230 229 229 229 225 225 225 227 227 227 234 234 234 241 241 241 237 237 237 234 234 234 243 243 243 216 216 216 205 205 205 227 227 227 234 234 234 251 251 251 237 237 237 234 234 234 232 232 232 236 236 236 241 241 241 237 237 237 228 228 228 226 226 226 233 233 233 229 229 229 229 229 229 234 234 234 239 239 239 236 236 236 226 226 226 217 217 217 208 208 208 209 209 209 211 211 211 
217 217 219 184 184 186 200 200 202 231 231 233 241 241 243 240 240 242 239 239 241 234 234 236 243 243 245 243 243 245 243 243 245 243 243 245 244 244 246 245 245 247 245 245 247 246 246 248 246 246 248 245 245 247 245 245 247 245 245 247 245 245 247 245 245 247 246 246 248 246 246 248 246 246 248 246 246 248 238 238 240 223 223 225 223 223 225 241 241 243 250 250 252 246 246 248 247 247 249 249 249 251 249 249 251 249 249 251 249 249 251 249 249 251 249 249 251 249 249 251 249 249 250 250 250 250 250 250 250 250 250 250 250 250 250 251 251 251 251 251 251 251 251 251 251 251 251 251 251 251 251 251 251 251 251 251 251 251 251 252 252 252 252 252 252 252 252 252 252 252 252 248 248 248 250 250 250 237 237 237 231 231 231 196 196 196 226 226 226 235 235 235 234 234 234 243 243 243 245 245 245 247 247 247 249 249 249 249 249 249 248 248 248 246 246 246 245 245 245 245 245 245 218 218 218 197 197 197 227 227 227 251 251 251 232 232 232 221 221 221 219 219 219 212 212 212 228 228 228 232 232 232 241 241 241 196 196 196 208 208 208 216 216 216 233 233 233 222 222 223 231 231 233 196 196 198 197 197 199 200 200 202 203 203 205 209 209 211 236 236 238 229 229 231 236 236 238 240 240 242 240 240 242 240 240 242 243 243 245 245 245 247 245 245 246 240 240 240 241 241 241 242 242 242 243 243 243 244 244 244 245 245 245 245 245 245 245 245 245 248 248 248 248 248 248 248 248 248 248 248 248 247 247 247 246 246 246 246 246 246 246 246 246 245 245 245 245 245 245 244 244 244 244 244 244 243 243 243 243 243 243 242 242 242 242 242 242 244 244 244 245 245 245 246 246 246 247 247 247 248 248 248 247 247 247 246 246 246 246 246 246 246 246 246 247 247 247 248 248 248 247 247 247 245 245 245 242 242 242 241 241 241 241 241 241 236 236 236 239 239 239 242 242 242 244 244 244 246 246 246 248 248 248 251 251 251 254 254 254 252 252 252 252 252 252 252 252 252 252 252 252 252 252 252 252 252 252 252 252 252 252 252 252 252 252 252 252 252 252 252 252 252 252 252 252 252 252 252 252 252 252 252 252 252 252 252 252 252 252 252 
252 252 252 252 252 252 252 252 252 252 252 252 252 252 252 252 252 252 252 252 252 251 251 251 251 251 251 251 251 251 251 251 251 250 250 250 248 248 248 245 245 245 243 243 243 240 240 240 241 241 241 242 242 242 241 241 241 239 239 239 234 234 234 229 229 229 226 226 226 214 214 214 221 221 221 226 226 226 227 227 227 229 229 229 234 234 234 239 239 239 241 241 241 255 255 255 230 230 230 234 234 234 236 236 236 213 213 213 190 190 190 192 192 192 216 216 216 229 229 229 236 236 236 231 231 231 225 225 225 231 231 231 232 232 232 229 229 229 232 232 232 236 236 236 230 230 230 228 228 228 234 234 234 237 237 237 229 229 229 215 215 215 205 205 205 190 190 190 198 198 198 205 205 205 
218 218 220 157 157 159 207 207 209 233 233 235 244 244 246 241 241 243 234 234 236 242 242 244 240 240 242 243 243 245 243 243 245 243 243 245 244 244 246 245 245 247 245 245 247 246 246 248 246 246 248 244 244 246 244 244 246 245 245 247 245 245 247 245 245 247 246 246 248 246 246 248 246 246 248 246 246 248 241 241 243 224 224 226 223 223 225 243 243 245 250 250 252 245 245 247 249 249 251 250 250 252 249 249 251 249 249 251 249 249 251 249 249 251 249 249 251 249 249 251 249 249 250 250 250 250 250 250 250 250 250 250 250 250 250 251 251 251 251 251 251 251 251 251 251 251 251 250 250 250 250 250 250 251 251 251 251 251 251 252 252 252 252 252 252 252 252 252 252 252 252 254 254 254 251 251 251 236 236 236 232 232 232 180 180 180 207 207 207 224 224 224 236 236 236 238 238 238 241 241 241 245 245 245 247 247 247 248 248 248 246 246 246 242 242 242 240 240 240 252 252 252 229 229 229 214 214 214 236 236 236 249 249 249 243 243 243 245 245 245 234 234 234 218 218 218 236 236 236 231 231 231 223 223 223 236 236 236 224 224 224 216 216 216 234 234 234 227 227 228 197 197 199 173 173 175 200 200 202 193 193 195 197 197 199 202 202 204 199 199 201 232 232 234 237 237 239 241 241 243 240 240 242 241 241 243 245 245 247 246 246 248 245 245 246 246 246 246 245 245 245 244 244 244 243 243 243 242 242 242 241 241 241 241 241 241 241 241 241 243 243 243 244 244 244 245 245 245 246 246 246 247 247 247 247 247 247 246 246 246 245 245 245 245 245 245 245 245 245 244 244 244 243 243 243 243 243 243 242 242 242 241 241 241 241 241 241 239 239 239 240 240 240 243 243 243 245 245 245 247 247 247 247 247 247 247 247 247 246 246 246 245 245 245 247 247 247 248 248 248 246 246 246 242 242 242 239 239 239 237 237 237 238 238 238 233 233 233 236 236 236 239 239 239 241 241 241 241 241 241 243 243 243 246 246 246 249 249 249 252 252 252 252 252 252 252 252 252 252 252 252 252 252 252 252 252 252 252 252 252 252 252 252 252 252 252 252 252 252 252 252 252 252 252 252 252 252 252 252 252 252 252 252 252 252 252 252 252 252 252 
252 252 252 252 252 252 252 252 252 252 252 252 252 252 252 252 252 252 252 252 252 250 250 250 251 251 251 252 252 252 251 251 251 250 250 250 247 247 247 245 245 245 244 244 244 246 246 246 242 242 242 238 238 238 238 238 238 239 239 239 237 237 237 234 234 234 231 231 231 214 214 214 215 215 215 216 216 216 220 220 220 229 229 229 237 237 237 234 234 234 226 226 226 226 226 226 242 242 242 247 247 247 242 242 242 230 230 230 225 225 225 195 195 195 132 132 132 217 217 217 243 243 243 246 246 246 233 233 233 230 230 230 226 226 226 219 219 219 222 222 222 235 235 235 230 230 230 229 229 229 232 232 232 230 230 230 219 219 219 209 209 209 204 204 204 186 186 186 194 194 194 202 202 202 
219 219 221 149 149 151 215 215 217 231 231 233 240 240 242 240 240 242 237 237 239 253 253 255 235 235 237 243 243 245 243 243 245 243 243 245 244 244 246 245 245 247 245 245 247 246 246 248 246 246 248 244 244 246 244 244 246 245 245 247 245 245 247 245 245 247 246 246 248 246 246 248 246 246 248 246 246 248 243 243 245 226 226 228 223 223 225 244 244 246 249 249 251 244 244 246 250 250 252 250 250 252 250 250 252 250 250 252 250 250 252 250 250 252 249 249 251 249 249 251 249 249 250 250 250 250 250 250 250 250 250 250 250 250 250 251 251 251 251 251 251 251 251 251 251 251 251 250 250 250 250 250 250 251 251 251 251 251 251 252 252 252 252 252 252 252 252 252 253 253 253 247 247 247 250 250 250 250 250 250 255 255 255 197 197 197 205 205 205 213 213 213 229 229 229 234 234 234 238 238 238 242 242 242 246 246 246 246 246 246 243 243 243 239 239 239 236 236 236 226 226 226 227 227 227 231 231 231 242 242 242 240 240 240 244 244 244 255 255 255 236 236 236 242 242 242 227 227 227 239 239 239 207 207 207 220 220 220 215 215 215 230 230 230 193 193 193 197 197 198 141 141 143 148 148 150 225 225 227 229 229 231 241 241 243 237 237 239 190 190 192 236 236 238 239 239 241 240 240 242 240 240 242 242 242 244 245 245 247 244 244 246 241 241 242 248 248 248 246 246 246 244 244 244 240 240 240 238 238 238 237 237 237 236 236 236 236 236 236 232 232 232 235 235 235 238 238 238 242 242 242 245 245 245 246 246 246 247 247 247 246 246 246 245 245 245 244 244 244 244 244 244 243 243 243 242 242 242 241 241 241 241 241 241 241 241 241 234 234 234 236 236 236 240 240 240 243 243 243 246 246 246 247 247 247 247 247 247 247 247 247 245 245 245 247 247 247 248 248 248 245 245 245 241 241 241 237 237 237 235 235 235 236 236 236 232 232 232 235 235 235 238 238 238 238 238 238 238 238 238 239 239 239 241 241 241 244 244 244 252 252 252 252 252 252 252 252 252 252 252 252 252 252 252 252 252 252 252 252 252 252 252 252 252 252 252 252 252 252 252 252 252 252 252 252 252 252 252 252 252 252 252 252 252 252 252 252 252 252 252 
252 252 252 252 252 252 252 252 252 252 252 252 252 252 252 252 252 252 252 252 252 251 251 251 252 252 252 252 252 252 252 252 252 250 250 250 248 248 248 246 246 246 246 246 246 247 247 247 239 239 239 231 231 231 231 231 231 233 233 233 234 234 234 232 232 232 230 230 230 219 219 219 215 215 215 210 210 210 215 215 215 228 228 228 235 235 235 224 224 224 207 207 207 222 222 222 241 241 241 239 239 239 242 242 242 239 239 239 241 241 241 229 229 229 162 162 162 128 128 128 185 185 185 222 222 222 227 227 227 230 230 230 222 222 222 208 208 208 205 205 205 231 231 231 229 229 229 230 230 230 230 230 230 224 224 224 213 213 213 208 208 208 209 209 209 191 191 191 198 198 198 204 204 204 
219 219 221 173 173 175 220 220 222 234 234 236 228 228 230 241 241 243 243 243 245 236 236 238 244 244 246 242 242 244 242 242 244 243 243 245 243 243 245 244 244 246 244 244 246 245 245 247 245 245 247 245 245 247 245 245 247 244 244 246 244 244 246 245 245 247 246 246 248 247 247 249 247 247 249 247 247 249 242 242 244 238 238 240 239 239 241 243 243 245 248 248 250 249 249 251 249 249 251 252 252 254 252 252 254 251 251 253 251 251 253 250 250 252 250 250 252 249 249 251 249 249 250 250 250 250 250 250 250 250 250 250 250 250 250 250 250 250 250 250 250 250 250 250 250 250 250 250 250 250 250 250 250 250 250 250 250 250 250 250 250 250 250 250 250 250 250 250 250 250 250 252 252 252 243 243 243 247 247 247 254 254 254 234 234 234 202 202 202 202 202 202 225 225 225 238 238 238 219 219 219 245 245 245 234 234 234 245 245 245 247 247 247 246 246 246 247 247 247 245 245 245 245 245 245 245 245 245 245 245 245 245 245 245 246 246 246 246 246 246 247 247 247 244 244 244 237 237 237 229 229 229 223 223 223 221 221 221 218 218 218 214 214 214 211 211 211 185 185 186 155 155 157 183 183 185 239 239 241 247 247 249 237 237 239 242 242 244 245 245 247 244 244 246 244 244 246 244 244 246 244 244 246 244 244 246 244 244 246 244 244 246 244 244 245 248 248 248 247 247 247 246 246 246 245 245 245 244 244 244 243 243 243 242 242 242 241 241 241 238 238 238 238 238 238 238 238 238 241 241 241 244 244 244 247 247 247 248 248 248 247 247 247 245 245 245 245 245 245 245 245 245 243 243 243 241 241 241 239 239 239 236 236 236 234 234 234 237 237 237 235 235 235 233 233 233 232 232 232 233 233 233 236 236 236 240 240 240 242 242 242 244 244 244 243 243 243 242 242 242 243 243 243 244 244 244 241 241 241 235 235 235 230 230 230 237 237 237 235 235 235 236 236 236 240 240 240 238 238 238 233 233 233 233 233 233 238 238 238 248 248 248 250 250 250 253 253 253 253 253 253 252 252 252 251 251 251 252 252 252 252 252 252 252 252 252 252 252 252 252 252 252 252 252 252 252 252 252 252 252 252 252 252 252 252 252 252 251 251 251 
251 251 251 251 251 251 251 251 251 251 251 251 251 251 251 251 251 251 251 251 251 251 251 251 251 251 251 251 251 251 251 251 251 251 251 251 250 250 250 249 249 249 249 249 249 242 242 242 241 241 241 238 238 238 235 235 235 233 233 233 232 232 232 233 233 233 233 233 233 233 233 233 223 223 223 217 217 217 223 223 223 235 235 235 237 237 237 226 226 226 212 212 212 212 212 212 228 228 228 230 230 230 220 220 220 231 231 231 252 252 252 244 244 244 216 216 216 171 171 171 130 130 130 151 151 151 220 220 220 232 232 232 230 230 230 212 212 212 213 213 213 219 219 219 235 235 235 220 220 220 226 226 226 193 193 193 213 213 213 199 199 199 197 197 197 190 190 190 196 196 196 205 205 205 
216 216 218 189 189 191 226 226 228 236 236 238 232 232 234 243 243 245 242 242 244 235 235 237 244 244 246 242 242 244 242 242 244 243 243 245 243 243 245 244 244 246 244 244 246 245 245 247 245 245 247 245 245 247 245 245 247 244 244 246 245 245 247 245 245 247 246 246 248 246 246 248 247 247 249 247 247 249 242 242 244 239 239 241 239 239 241 244 244 246 248 248 250 249 249 251 249 249 251 251 251 253 251 251 253 251 251 253 251 251 253 250 250 252 250 250 252 249 249 251 249 249 250 250 250 250 250 250 250 250 250 250 250 250 250 250 250 250 250 250 250 250 250 250 250 250 250 250 250 250 250 250 250 250 250 250 250 250 250 250 250 250 250 250 250 250 250 250 250 250 250 246 246 246 250 250 250 249 249 249 247 247 247 251 251 251 246 246 246 219 219 219 188 188 188 219 219 219 223 223 223 245 245 245 236 236 236 229 229 229 234 234 234 248 248 248 255 255 255 247 247 247 247 247 247 246 246 246 245 245 245 244 244 244 244 244 244 244 244 244 244 244 244 246 246 246 245 245 245 242 242 242 237 237 237 231 231 231 225 225 225 220 220 220 218 218 218 212 212 213 184 184 186 203 203 205 245 245 247 248 248 250 239 239 241 243 243 245 243 243 245 244 244 246 244 244 246 244 244 246 244 244 246 244 244 246 244 244 246 244 244 246 244 244 245 247 247 247 247 247 247 246 246 246 245 245 245 244 244 244 243 243 243 243 243 243 242 242 242 242 242 242 241 241 241 241 241 241 243 243 243 245 245 245 247 247 247 247 247 247 246 246 246 245 245 245 245 245 245 244 244 244 243 243 243 241 241 241 239 239 239 238 238 238 237 237 237 238 238 238 235 235 235 231 231 231 228 228 228 227 227 227 229 229 229 233 233 233 235 235 235 241 241 241 242 242 242 242 242 242 240 240 240 237 237 237 236 236 236 238 238 238 240 240 240 226 226 226 225 225 225 228 228 228 234 234 234 235 235 235 233 233 233 234 234 234 238 238 238 241 241 241 244 244 244 249 249 249 251 251 251 251 251 251 251 251 251 251 251 251 252 252 252 251 251 251 251 251 251 251 251 251 251 251 251 251 251 251 251 251 251 251 251 251 251 251 251 251 251 251 
251 251 251 251 251 251 251 251 251 251 251 251 251 251 251 251 251 251 251 251 251 251 251 251 251 251 251 251 251 251 251 251 251 251 251 251 250 250 250 249 249 249 249 249 249 245 245 245 243 243 243 240 240 240 237 237 237 235 235 235 234 234 234 234 234 234 234 234 234 235 235 235 230 230 230 228 228 228 233 233 233 239 239 239 239 239 239 231 231 231 222 222 222 222 222 222 212 212 212 197 197 197 190 190 190 201 201 201 222 222 222 236 236 236 239 239 239 221 221 221 189 189 189 183 183 183 153 153 153 213 213 213 215 215 215 220 220 220 188 188 188 218 218 218 225 225 225 219 219 219 211 211 211 141 141 141 177 177 177 186 186 186 197 197 197 213 213 213 216 216 216 220 220 220 
223 223 225 212 212 214 234 234 236 238 238 240 237 237 239 245 245 247 241 241 243 235 235 237 245 245 247 242 242 244 242 242 244 243 243 245 243 243 245 244 244 246 244 244 246 245 245 247 245 245 247 245 245 247 245 245 247 245 245 247 245 245 247 245 245 247 246 246 248 246 246 248 246 246 248 246 246 248 243 243 245 240 240 242 241 241 243 245 245 247 249 249 251 249 249 251 249 249 251 251 251 253 251 251 253 251 251 253 250 250 252 250 250 252 250 250 252 250 250 252 249 249 250 250 250 250 250 250 250 250 250 250 250 250 250 250 250 250 250 250 250 250 250 250 250 250 250 250 250 250 250 250 250 250 250 250 250 250 250 250 250 250 250 250 250 250 250 250 250 250 250 249 249 249 255 255 255 247 247 247 236 236 236 246 246 246 249 249 249 203 203 203 143 143 143 185 185 185 209 209 209 229 229 229 247 247 247 235 235 235 236 236 236 246 246 246 244 244 244 249 249 249 248 248 248 247 247 247 245 245 245 243 243 243 242 242 242 242 242 242 242 242 242 241 241 241 245 245 245 248 248 248 245 245 245 237 237 237 228 228 228 222 222 222 220 220 220 238 238 239 216 216 218 225 225 227 248 248 250 247 247 249 242 242 244 245 245 247 242 242 244 244 244 246 244 244 246 244 244 246 244 244 246 244 244 246 244 244 246 244 244 246 244 244 245 246 246 246 246 246 246 246 246 246 245 245 245 245 245 245 245 245 245 244 244 244 244 244 244 246 246 246 245 245 245 244 244 244 245 245 245 246 246 246 247 247 247 246 246 246 245 245 245 246 246 246 245 245 245 244 244 244 242 242 242 241 241 241 241 241 241 240 240 240 240 240 240 241 241 241 238 238 238 233 233 233 228 228 228 226 226 226 226 226 226 228 228 228 230 230 230 233 233 233 232 232 232 232 232 232 233 233 233 235 235 235 235 235 235 235 235 235 235 235 235 229 229 229 227 227 227 228 228 228 232 232 232 234 234 234 232 232 232 231 231 231 232 232 232 234 234 234 238 238 238 243 243 243 247 247 247 249 249 249 250 250 250 251 251 251 252 252 252 250 250 250 250 250 250 250 250 250 250 250 250 251 251 251 251 251 251 251 251 251 251 251 251 251 251 251 
251 251 251 251 251 251 251 251 251 251 251 251 251 251 251 251 251 251 251 251 251 251 251 251 251 251 251 251 251 251 251 251 251 251 251 251 250 250 250 249 249 249 249 249 249 247 247 247 245 245 245 243 243 243 240 240 240 238 238 238 237 237 237 236 236 236 236 236 236 235 235 235 237 237 237 240 240 240 242 242 242 243 243 243 240 240 240 236 236 236 232 232 232 225 225 225 212 212 212 214 214 214 230 230 230 234 234 234 222 222 222 219 219 219 227 227 227 223 223 223 232 232 232 216 216 216 130 130 130 174 174 174 173 173 173 197 197 197 176 176 176 217 217 217 217 217 217 232 232 232 223 223 223 149 149 149 199 199 199 218 218 218 230 230 230 227 227 227 227 227 227 227 227 227 
229 229 231 229 229 231 238 238 240 238 238 240 240 240 242 246 246 248 240 240 242 236 236 238 246 246 248 242 242 244 242 242 244 243 243 245 243 243 245 244 244 246 244 244 246 245 245 247 245 245 247 245 245 247 245 245 247 245 245 247 246 246 248 246 246 248 246 246 248 245 245 247 245 245 247 245 245 247 243 243 245 242 242 244 243 243 245 246 246 248 249 249 251 250 250 252 249 249 251 250 250 252 250 250 252 250 250 252 250 250 252 250 250 252 250 250 252 250 250 252 250 250 251 250 250 250 250 250 250 250 250 250 250 250 250 250 250 250 250 250 250 250 250 250 250 250 250 250 250 250 250 250 250 250 250 250 250 250 250 250 250 250 250 250 250 250 250 250 250 250 250 247 247 247 248 248 248 246 246 246 247 247 247 252 252 252 248 248 248 220 220 220 190 190 190 129 129 129 149 149 149 162 162 162 224 224 224 237 237 237 246 246 246 252 252 252 242 242 242 249 249 249 248 248 248 247 247 247 245 245 245 243 243 243 242 242 242 242 242 242 242 242 242 238 238 238 242 242 242 246 246 246 245 245 245 240 240 240 232 232 232 226 226 226 223 223 223 245 245 246 232 232 234 236 236 238 246 246 248 245 245 247 245 245 247 248 248 250 242 242 244 245 245 247 245 245 247 245 245 247 245 245 247 245 245 247 245 245 247 245 245 247 245 245 246 246 246 246 246 246 246 246 246 246 246 246 246 246 246 246 246 246 246 246 246 246 246 246 246 247 247 247 246 246 246 245 245 245 246 246 246 247 247 247 247 247 247 246 246 246 245 245 245 246 246 246 245 245 245 244 244 244 242 242 242 242 242 242 242 242 242 243 243 243 244 244 244 245 245 245 243 243 243 240 240 240 236 236 236 233 233 233 231 231 231 230 230 230 230 230 230 228 228 228 225 225 225 222 222 222 225 225 225 231 231 231 233 233 233 229 229 229 224 224 224 231 231 231 229 229 229 228 228 228 229 229 229 231 231 231 232 232 232 231 231 231 231 231 231 233 233 233 236 236 236 240 240 240 243 243 243 245 245 245 247 247 247 249 249 249 251 251 251 250 250 250 250 250 250 250 250 250 250 250 250 251 251 251 251 251 251 251 251 251 251 251 251 251 251 251 
251 251 251 251 251 251 251 251 251 251 251 251 251 251 251 251 251 251 251 251 251 251 251 251 251 251 251 251 251 251 251 251 251 251 251 251 250 250 250 249 249 249 249 249 249 248 248 248 247 247 247 244 244 244 242 242 242 240 240 240 239 239 239 238 238 238 238 238 238 234 234 234 238 238 238 242 242 242 245 245 245 244 244 244 241 241 241 237 237 237 235 235 235 240 240 240 223 223 223 221 221 221 237 237 237 235 235 235 214 214 214 211 211 211 225 225 225 202 202 202 250 250 250 210 210 210 206 206 206 143 143 143 167 167 167 144 144 144 161 161 161 213 213 213 208 208 208 231 231 231 217 217 217 184 184 184 215 215 215 215 215 215 214 214 214 225 225 225 225 225 225 226 226 226 
224 224 226 237 237 239 238 238 240 237 237 239 241 241 243 244 244 246 239 239 241 238 238 240 245 245 247 242 242 244 242 242 244 243 243 245 243 243 245 244 244 246 244 244 246 245 245 247 245 245 247 245 245 247 245 245 247 246 246 248 246 246 248 246 246 248 245 245 247 245 245 247 244 244 246 244 244 246 243 243 245 244 244 246 245 245 247 248 248 250 249 249 251 250 250 252 249 249 251 249 249 251 249 249 251 249 249 251 249 249 251 249 249 251 250 250 252 250 250 252 250 250 251 250 250 250 250 250 250 250 250 250 250 250 250 250 250 250 250 250 250 250 250 250 250 250 250 251 251 251 251 251 251 251 251 251 251 251 251 251 251 251 251 251 251 251 251 251 251 251 251 249 249 249 250 250 250 252 252 252 253 253 253 250 250 250 243 243 243 232 232 232 225 225 225 145 145 145 142 142 142 143 143 143 214 214 214 236 236 236 245 245 245 252 252 252 250 250 250 248 248 248 247 247 247 246 246 246 245 245 245 244 244 244 244 244 244 244 244 244 244 244 244 243 243 243 243 243 243 244 244 244 245 245 245 246 246 246 243 243 243 238 238 238 233 233 233 242 242 243 239 239 241 242 242 244 245 245 247 245 245 247 247 247 249 248 248 250 243 243 245 246 246 248 246 246 248 246 246 248 246 246 248 246 246 248 246 246 248 246 246 248 246 246 247 246 246 246 246 246 246 246 246 246 246 246 246 247 247 247 247 247 247 247 247 247 247 247 247 246 246 246 245 245 245 244 244 244 245 245 245 247 247 247 248 248 248 247 247 247 246 246 246 247 247 247 246 246 246 245 245 245 244 244 244 244 244 244 244 244 244 246 246 246 246 246 246 245 245 245 245 245 245 245 245 245 244 244 244 241 241 241 238 238 238 235 235 235 233 233 233 232 232 232 227 227 227 218 218 218 209 209 209 204 204 204 208 208 208 219 219 219 228 228 228 226 226 226 226 226 226 225 225 225 226 226 226 228 228 228 232 232 232 234 234 234 234 234 234 237 237 237 238 238 238 239 239 239 240 240 240 241 241 241 243 243 243 247 247 247 250 250 250 250 250 250 250 250 250 250 250 250 250 250 250 251 251 251 251 251 251 252 252 252 252 252 252 251 251 251 
251 251 251 251 251 251 251 251 251 251 251 251 251 251 251 251 251 251 251 251 251 251 251 251 251 251 251 251 251 251 251 251 251 251 251 251 250 250 250 249 249 249 249 249 249 248 248 248 247 247 247 245 245 245 244 244 244 242 242 242 241 241 241 240 240 240 239 239 239 237 237 237 238 238 238 241 241 241 244 244 244 246 246 246 244 244 244 239 239 239 236 236 236 241 241 241 226 226 226 219 219 219 224 224 224 222 222 222 215 215 215 220 220 220 235 235 235 230 230 230 220 220 220 243 243 243 214 214 214 214 214 214 145 145 145 156 156 156 114 114 114 220 220 220 218 218 218 230 230 230 204 204 204 221 221 221 223 223 223 220 220 220 224 224 224 221 221 221 223 223 223 226 226 226 
226 226 228 237 237 239 236 236 238 238 238 240 241 241 243 241 241 243 240 240 242 241 241 243 243 243 245 242 242 244 242 242 244 243 243 245 243 243 245 244 244 246 244 244 246 245 245 247 245 245 247 245 245 247 245 245 247 246 246 248 247 247 249 247 247 249 245 245 247 244 244 246 243 243 245 243 243 245 244 244 246 245 245 247 247 247 249 249 249 251 250 250 252 250 250 252 250 250 252 248 248 250 249 249 251 249 249 251 249 249 251 249 249 251 250 250 252 250 250 252 250 250 251 250 250 250 250 250 250 250 250 250 250 250 250 250 250 250 250 250 250 250 250 250 250 250 250 251 251 251 251 251 251 251 251 251 251 251 251 251 251 251 251 251 251 251 251 251 251 251 251 247 247 247 255 255 255 253 253 253 242 242 242 239 239 239 239 239 239 225 225 225 205 205 205 175 175 175 170 170 170 185 185 185 236 236 236 247 247 247 241 241 241 244 244 244 249 249 249 248 248 248 247 247 247 247 247 247 246 246 246 246 246 246 246 246 246 247 247 247 247 247 247 245 245 245 242 242 242 241 241 241 244 244 244 247 247 247 248 248 248 245 245 245 242 242 242 243 243 244 245 245 247 246 246 248 246 246 248 247 247 249 247 247 249 245 245 247 243 243 245 246 246 248 246 246 248 246 246 248 246 246 248 246 246 248 246 246 248 246 246 248 246 246 247 247 247 247 247 247 247 247 247 247 247 247 247 247 247 247 247 247 247 247 247 247 247 247 247 245 245 245 244 244 244 244 244 244 245 245 245 248 248 248 249 249 249 249 249 249 248 248 248 247 247 247 247 247 247 246 246 246 246 246 246 246 246 246 246 246 246 247 247 247 247 247 247 243 243 243 244 244 244 246 246 246 246 246 246 245 245 245 241 241 241 238 238 238 236 236 236 233 233 233 230 230 230 217 217 217 193 193 193 172 172 172 174 174 174 200 200 200 225 225 225 223 223 223 228 228 228 230 230 230 229 229 229 228 228 228 231 231 231 233 233 233 233 233 233 239 239 239 240 240 240 240 240 240 240 240 240 239 239 239 240 240 240 243 243 243 245 245 245 248 248 248 248 248 248 249 249 249 249 249 249 250 250 250 250 250 250 251 251 251 251 251 251 251 251 251 
251 251 251 251 251 251 251 251 251 251 251 251 251 251 251 251 251 251 251 251 251 251 251 251 251 251 251 251 251 251 251 251 251 251 251 251 250 250 250 249 249 249 249 249 249 247 247 247 247 247 247 247 247 247 246 246 246 245 245 245 244 244 244 243 243 243 242 242 242 242 242 242 241 241 241 242 242 242 245 245 245 248 248 248 248 248 248 244 244 244 239 239 239 232 232 232 230 230 230 229 229 229 231 231 231 231 231 231 228 228 228 226 226 226 227 227 227 232 232 232 222 222 222 222 222 222 229 229 229 209 209 209 170 170 170 159 159 159 104 104 104 203 203 203 212 212 212 207 207 207 185 185 185 212 212 212 195 195 195 208 208 208 229 229 229 219 219 219 222 222 222 225 225 225 
226 226 228 235 235 237 236 236 238 241 241 243 242 242 244 238 238 240 241 241 243 244 244 246 240 240 242 242 242 244 242 242 244 243 243 245 243 243 245 244 244 246 244 244 246 245 245 247 245 245 247 244 244 246 245 245 247 247 247 249 247 247 249 247 247 249 245 245 247 244 244 246 242 242 244 242 242 244 244 244 246 247 247 249 249 249 251 250 250 252 250 250 252 250 250 252 250 250 252 248 248 250 248 248 250 248 248 250 249 249 251 249 249 251 249 249 251 250 250 252 250 250 251 250 250 250 250 250 250 250 250 250 250 250 250 250 250 250 250 250 250 250 250 250 250 250 250 251 251 251 251 251 251 251 251 251 251 251 251 251 251 251 251 251 251 251 251 251 251 251 251 241 241 241 250 250 250 249 249 249 243 243 243 247 247 247 253 253 253 238 238 238 213 213 213 164 164 164 169 169 169 212 212 212 239 239 239 250 250 250 245 245 245 246 246 246 250 250 250 250 250 250 249 249 249 248 248 248 248 248 248 247 247 247 247 247 247 247 247 247 248 248 248 242 242 242 242 242 242 242 242 242 243 243 243 245 245 245 246 246 246 246 246 246 245 245 245 246 246 247 250 250 252 248 248 250 247 247 249 248 248 250 245 245 247 242 242 244 245 245 247 247 247 249 247 247 249 247 247 249 247 247 249 247 247 249 247 247 249 247 247 249 247 247 248 248 248 248 248 248 248 248 248 248 248 248 248 248 248 248 247 247 247 247 247 247 247 247 247 248 248 248 247 247 247 246 246 246 247 247 247 249 249 249 250 250 250 250 250 250 249 249 249 247 247 247 247 247 247 248 248 248 248 248 248 248 248 248 247 247 247 247 247 247 247 247 247 245 245 245 245 245 245 245 245 245 245 245 245 243 243 243 242 242 242 241 241 241 240 240 240 233 233 233 231 231 231 221 221 221 203 203 203 184 184 184 177 177 177 184 184 184 193 193 193 203 203 203 215 215 215 225 225 225 227 227 227 227 227 227 229 229 229 231 231 231 230 230 230 237 237 237 239 239 239 241 241 241 241 241 241 240 240 240 238 238 238 238 238 238 238 238 238 245 245 245 246 246 246 246 246 246 247 247 247 248 248 248 248 248 248 249 249 249 249 249 249 251 251 251 
251 251 251 251 251 251 251 251 251 251 251 251 251 251 251 251 251 251 251 251 251 251 251 251 251 251 251 251 251 251 251 251 251 251 251 251 250 250 250 249 249 249 249 249 249 248 248 248 248 248 248 248 248 248 248 248 248 248 248 248 247 247 247 247 247 247 246 246 246 244 244 244 245 245 245 246 246 246 247 247 247 248 248 248 248 248 248 247 247 247 245 245 245 241 241 241 235 235 235 227 227 227 221 221 221 221 221 221 225 225 225 228 228 228 230 230 230 222 222 222 225 225 225 217 217 217 213 213 213 212 212 212 170 170 170 167 167 167 123 123 123 167 167 167 189 189 189 186 186 186 212 212 212 215 215 215 193 193 193 209 209 209 222 222 222 219 219 219 221 221 221 224 224 224 
216 216 218 233 233 235 236 236 238 244 244 246 243 243 245 237 237 239 241 241 243 245 245 247 238 238 240 242 242 244 242 242 244 243 243 245 243 243 245 244 244 246 244 244 246 245 245 247 245 245 247 244 244 246 245 245 247 247 247 249 247 247 249 247 247 249 245 245 247 243 243 245 242 242 244 242 242 244 244 244 246 247 247 249 250 250 252 250 250 252 250 250 252 250 250 252 250 250 252 248 248 250 248 248 250 248 248 250 249 249 251 249 249 251 249 249 251 250 250 252 250 250 251 250 250 250 250 250 250 250 250 250 250 250 250 250 250 250 250 250 250 250 250 250 250 250 250 251 251 251 251 251 251 251 251 251 251 251 251 251 251 251 251 251 251 251 251 251 251 251 251 253 253 253 252 252 252 250 250 250 247 247 247 245 245 245 238 238 238 223 223 223 208 208 208 198 198 198 199 199 199 243 243 243 236 236 236 246 246 246 249 249 249 248 248 248 246 246 246 252 252 252 251 251 251 250 250 250 249 249 249 248 248 248 247 247 247 247 247 247 247 247 247 241 241 241 244 244 244 247 247 247 247 247 247 246 246 246 245 245 245 247 247 247 249 249 249 246 246 247 250 250 251 247 247 248 246 246 247 248 248 249 243 243 244 241 241 242 248 248 249 247 247 248 247 247 248 247 247 248 247 247 248 247 247 248 247 247 248 247 247 248 247 247 248 249 249 249 249 249 249 248 248 248 248 248 248 248 248 248 247 247 247 247 247 247 247 247 247 250 250 250 249 249 249 248 248 248 249 249 249 250 250 250 251 251 251 250 250 250 249 249 249 247 247 247 248 248 248 249 249 249 249 249 249 249 249 249 248 248 248 247 247 247 246 246 246 249 249 249 248 248 248 245 245 245 243 243 243 242 242 242 242 242 242 243 243 243 244 244 244 238 238 238 233 233 233 230 230 230 230 230 230 226 226 226 208 208 208 179 179 179 157 157 157 167 167 167 186 186 186 206 206 206 216 216 216 222 222 222 228 228 228 233 233 233 234 234 234 233 233 233 237 237 237 241 241 241 243 243 243 241 241 241 238 238 238 235 235 235 233 233 233 243 243 243 243 243 243 244 244 244 245 245 245 246 246 246 246 246 246 247 247 247 247 247 247 251 251 251 
251 251 251 251 251 251 251 251 251 251 251 251 251 251 251 251 251 251 251 251 251 251 251 251 251 251 251 251 251 251 251 251 251 251 251 251 250 250 250 249 249 249 249 249 249 249 249 249 249 249 249 250 250 250 250 250 250 250 250 250 250 250 250 249 249 249 249 249 249 244 244 244 246 246 246 248 248 248 248 248 248 246 246 246 246 246 246 247 247 247 249 249 249 243 243 243 238 238 238 236 236 236 238 238 238 242 242 242 241 241 241 239 239 239 238 238 238 233 233 233 243 243 243 211 211 211 216 216 216 229 229 229 184 184 184 164 164 164 139 139 139 58 58 58 97 97 97 119 119 119 217 217 217 213 213 213 208 208 208 220 220 220 214 214 214 222 222 222 223 223 223 225 225 225 
223 223 225 239 239 241 232 232 234 235 235 237 242 242 244 239 239 241 240 240 242 244 244 246 241 241 243 242 242 244 242 242 244 242 242 244 242 242 244 242 242 244 242 242 244 242 242 244 241 241 243 242 242 244 243 243 245 245 245 247 246 246 248 246 246 248 244 244 246 242 242 244 241 241 243 247 247 249 247 247 249 247 247 249 248 248 250 248 248 250 248 248 250 249 249 251 249 249 251 250 250 252 250 250 252 249 249 251 249 249 251 249 249 251 248 248 250 248 248 250 248 248 249 249 249 249 249 249 249 249 249 249 249 249 249 250 250 250 250 250 250 250 250 250 250 250 250 250 250 250 250 250 250 250 250 250 250 250 250 250 250 250 250 250 250 250 250 250 250 250 250 250 250 250 249 249 249 245 245 245 244 244 244 248 248 248 245 245 245 221 221 221 193 193 193 185 185 185 217 217 217 237 237 237 240 240 240 247 247 247 252 252 252 250 250 250 250 250 250 250 250 250 250 250 250 250 250 250 250 250 250 250 250 250 250 250 250 250 250 250 250 250 250 246 246 246 245 245 245 244 244 244 244 244 244 244 244 244 245 245 245 247 247 247 247 247 247 249 249 249 249 249 249 248 248 248 248 248 248 248 248 248 247 247 247 247 247 247 247 247 247 247 247 247 247 247 247 247 247 247 247 247 247 247 247 247 247 247 247 247 247 247 247 247 247 247 247 247 248 248 248 248 248 248 248 248 248 248 248 248 248 248 248 248 248 248 248 248 248 248 248 248 248 248 248 249 249 249 249 249 249 249 249 249 249 249 249 249 249 249 249 249 249 251 251 251 250 250 250 249 249 249 250 250 250 250 250 250 249 249 249 246 246 246 244 244 244 244 244 244 253 253 253 246 246 246 241 241 241 249 249 249 245 245 245 236 236 236 241 241 241 238 238 238 237 237 237 238 238 238 234 234 234 231 231 231 236 236 236 226 226 226 201 201 201 173 173 173 174 174 174 193 193 193 214 214 214 218 218 218 218 218 218 221 221 221 220 220 220 230 230 230 234 234 234 238 238 238 239 239 239 239 239 239 238 238 238 234 234 234 230 230 230 238 238 238 237 237 237 237 237 237 237 237 237 237 237 237 237 237 237 238 238 238 238 238 238 240 240 240 
243 243 243 246 246 246 248 248 248 250 250 250 249 249 249 247 247 247 246 246 246 250 250 250 250 250 250 250 250 250 250 250 250 250 250 250 249 249 249 249 249 249 249 249 249 251 251 251 251 251 251 250 250 250 250 250 250 249 249 249 249 249 249 249 249 249 248 248 248 249 249 249 249 249 249 250 250 250 250 250 250 249 249 249 249 249 249 248 248 248 247 247 247 244 244 244 243 243 243 242 242 242 241 241 241 241 241 241 242 242 242 243 243 243 244 244 244 238 238 238 244 244 244 239 239 239 227 227 227 224 224 224 218 218 218 188 188 188 152 152 152 99 99 99 144 144 144 121 121 121 199 199 199 211 211 211 211 211 211 207 207 207 225 225 225 217 217 217 219 219 219 222 222 222 
237 237 239 232 232 234 230 230 232 236 236 238 241 241 243 236 236 238 235 235 237 237 237 239 236 236 238 241 241 243 241 241 243 242 242 244 242 242 244 242 242 244 242 242 244 242 242 244 242 242 244 244 244 246 244 244 246 245 245 247 246 246 248 246 246 248 245 245 247 244 244 246 243 243 245 247 247 249 247 247 249 247 247 249 248 248 250 248 248 250 248 248 250 249 249 251 249 249 251 250 250 252 250 250 252 249 249 251 249 249 251 249 249 251 248 248 250 248 248 250 248 248 249 249 249 249 249 249 249 249 249 249 249 249 249 250 250 250 250 250 250 250 250 250 250 250 250 250 250 250 250 250 250 250 250 250 250 250 250 250 250 250 250 250 250 250 250 250 250 250 250 250 250 250 250 250 250 246 246 246 245 245 245 248 248 248 246 246 246 226 226 226 202 202 202 172 172 172 210 210 210 237 237 237 243 243 243 248 248 248 249 249 249 245 245 245 245 245 245 250 250 250 250 250 250 250 250 250 250 250 250 250 250 250 250 250 250 250 250 250 250 250 250 246 246 246 245 245 245 244 244 244 244 244 244 244 244 244 245 245 245 247 247 247 248 248 248 249 249 249 249 249 249 248 248 248 248 248 248 248 248 248 248 248 248 247 247 247 247 247 247 247 247 247 247 247 247 247 247 247 247 247 247 247 247 247 247 247 247 247 247 247 247 247 247 247 247 247 247 247 247 247 247 247 247 247 247 248 248 248 248 248 248 248 248 248 248 248 248 247 247 247 248 248 248 248 248 248 249 249 249 249 249 249 249 249 249 249 249 249 249 249 249 251 251 251 251 251 251 251 251 251 251 251 251 251 251 251 250 250 250 246 246 246 243 243 243 244 244 244 248 248 248 245 245 245 245 245 245 250 250 250 248 248 248 241 241 241 240 240 240 238 238 238 232 232 232 235 235 235 239 239 239 238 238 238 239 239 239 235 235 235 222 222 222 214 214 214 190 190 190 193 193 193 218 218 218 225 225 225 216 216 216 215 215 215 218 218 218 227 227 227 230 230 230 233 233 233 235 235 235 236 236 236 236 236 236 234 234 234 232 232 232 236 236 236 236 236 236 236 236 236 236 236 236 236 236 236 237 237 237 237 237 237 238 238 238 239 239 239 
241 241 241 243 243 243 245 245 245 247 247 247 247 247 247 247 247 247 247 247 247 250 250 250 249 249 249 249 249 249 249 249 249 249 249 249 249 249 249 249 249 249 249 249 249 251 251 251 251 251 251 250 250 250 250 250 250 249 249 249 249 249 249 249 249 249 249 249 249 249 249 249 249 249 249 250 250 250 250 250 250 249 249 249 249 249 249 248 248 248 247 247 247 246 246 246 246 246 246 245 245 245 244 244 244 243 243 243 243 243 243 243 243 243 243 243 243 242 242 242 240 240 240 238 238 238 238 238 238 237 237 237 227 227 227 208 208 208 191 191 191 168 168 168 128 128 128 177 177 177 210 210 210 227 227 227 207 207 207 205 205 205 213 213 213 216 216 216 218 218 218 221 221 221 
216 216 218 226 226 228 233 233 235 240 240 242 242 242 244 239 239 241 238 238 240 238 238 240 239 239 241 240 240 242 241 241 243 241 241 243 241 241 243 242 242 244 243 243 245 243 243 245 243 243 245 246 246 248 245 245 247 245 245 247 245 245 247 245 245 247 245 245 247 246 246 248 246 246 248 247 247 249 247 247 249 247 247 249 248 248 250 248 248 250 248 248 250 249 249 251 249 249 251 249 249 251 249 249 251 249 249 251 249 249 251 249 249 251 248 248 250 248 248 250 248 248 249 249 249 249 249 249 249 249 249 249 249 249 249 250 250 250 250 250 250 250 250 250 250 250 250 250 250 250 250 250 250 250 250 250 250 250 250 250 250 250 250 250 250 250 250 250 250 250 250 249 249 249 250 250 250 248 248 248 246 246 246 248 248 248 247 247 247 233 233 233 216 216 216 181 181 181 218 218 218 244 244 244 249 249 249 250 250 250 249 249 249 247 247 247 250 250 250 250 250 250 250 250 250 250 250 250 250 250 250 250 250 250 250 250 250 250 250 250 250 250 250 246 246 246 246 246 246 245 245 245 245 245 245 245 245 245 246 246 246 247 247 247 248 248 248 249 249 249 249 249 249 249 249 249 248 248 248 248 248 248 248 248 248 248 248 248 247 247 247 247 247 247 247 247 247 247 247 247 247 247 247 247 247 247 247 247 247 247 247 247 247 247 247 247 247 247 247 247 247 247 247 247 247 247 247 247 247 247 247 247 247 247 247 247 247 247 247 246 246 246 247 247 247 248 248 248 248 248 248 249 249 249 249 249 249 249 249 249 248 248 248 250 250 250 250 250 250 250 250 250 251 251 251 251 251 251 248 248 248 243 243 243 240 240 240 241 241 241 232 232 232 231 231 231 236 236 236 240 240 240 247 247 247 249 249 249 243 243 243 242 242 242 232 232 232 236 236 236 244 244 244 241 241 241 239 239 239 241 241 241 240 240 240 236 236 236 194 194 194 174 174 174 192 192 192 215 215 215 227 227 227 225 225 225 215 215 215 222 222 222 223 223 223 226 226 226 230 230 230 232 232 232 233 233 233 234 234 234 234 234 234 234 234 234 234 234 234 234 234 234 235 235 235 235 235 235 236 236 236 236 236 236 236 236 236 237 237 237 
237 237 237 238 238 238 240 240 240 242 242 242 244 244 244 246 246 246 247 247 247 249 249 249 249 249 249 249 249 249 249 249 249 249 249 249 249 249 249 249 249 249 249 249 249 250 250 250 250 250 250 250 250 250 250 250 250 249 249 249 249 249 249 249 249 249 249 249 249 249 249 249 249 249 249 250 250 250 250 250 250 249 249 249 249 249 249 248 248 248 247 247 247 247 247 247 247 247 247 247 247 247 247 247 247 246 246 246 245 245 245 244 244 244 243 243 243 227 227 227 217 217 217 218 218 218 229 229 229 228 228 228 212 212 212 200 200 200 201 201 201 202 202 202 176 176 176 123 123 123 161 161 161 192 192 192 205 205 205 204 204 204 214 214 214 213 213 213 215 215 215 219 219 219 
215 215 217 220 220 222 233 233 235 239 239 241 239 239 241 242 242 244 243 243 245 242 242 244 243 243 245 240 240 242 240 240 242 241 241 243 241 241 243 242 242 244 243 243 245 243 243 245 244 244 246 246 246 248 245 245 247 244 244 246 243 243 245 243 243 245 245 245 247 246 246 248 247 247 249 247 247 249 247 247 249 247 247 249 248 248 250 248 248 250 248 248 250 249 249 251 249 249 251 249 249 251 249 249 251 249 249 251 249 249 251 249 249 251 249 249 251 249 249 251 248 248 249 249 249 249 249 249 249 249 249 249 249 249 249 250 250 250 250 250 250 250 250 250 250 250 250 250 250 250 250 250 250 250 250 250 250 250 250 250 250 250 250 250 250 250 250 250 250 250 250 248 248 248 250 250 250 249 249 249 247 247 247 248 248 248 247 247 247 237 237 237 226 226 226 210 210 210 236 236 236 249 249 249 248 248 248 249 249 249 249 249 249 250 250 250 255 255 255 250 250 250 250 250 250 250 250 250 250 250 250 250 250 250 250 250 250 250 250 250 250 250 250 247 247 247 246 246 246 246 246 246 245 245 245 246 246 246 247 247 247 248 248 248 249 249 249 249 249 249 249 249 249 249 249 249 249 249 249 248 248 248 248 248 248 248 248 248 248 248 248 248 248 248 248 248 248 247 247 247 247 247 247 247 247 247 247 247 247 246 246 246 246 246 246 246 246 246 246 246 246 246 246 246 246 246 246 246 246 246 245 245 245 245 245 245 245 245 245 245 245 245 246 246 246 247 247 247 248 248 248 248 248 248 248 248 248 248 248 248 248 248 248 247 247 247 248 248 248 249 249 249 250 250 250 250 250 250 246 246 246 240 240 240 236 236 236 235 235 235 214 214 214 212 212 212 219 219 219 222 222 222 236 236 236 247 247 247 240 240 240 239 239 239 233 233 233 237 237 237 239 239 239 233 233 233 235 235 235 241 241 241 241 241 241 232 232 232 211 211 211 187 187 187 173 173 173 184 184 184 216 216 216 228 228 228 213 213 213 218 218 218 217 217 217 220 220 220 224 224 224 227 227 227 228 228 228 230 230 230 233 233 233 231 231 231 231 231 231 232 232 232 233 233 233 234 234 234 235 235 235 235 235 235 235 235 235 234 234 234 
234 234 234 234 234 234 234 234 234 237 237 237 240 240 240 244 244 244 246 246 246 248 248 248 248 248 248 248 248 248 248 248 248 248 248 248 249 249 249 249 249 249 249 249 249 250 250 250 250 250 250 250 250 250 250 250 250 250 250 250 249 249 249 249 249 249 249 249 249 249 249 249 249 249 249 250 250 250 250 250 250 249 249 249 249 249 249 248 248 248 247 247 247 245 245 245 246 246 246 247 247 247 248 248 248 247 247 247 246 246 246 245 245 245 244 244 244 223 223 223 214 214 214 215 215 215 228 228 228 226 226 226 207 207 207 192 192 192 190 190 190 184 184 184 196 196 196 131 131 131 115 115 115 175 175 175 196 196 196 218 218 218 199 199 199 210 210 210 212 212 212 216 216 216 
137 137 139 213 213 215 232 232 234 235 235 237 231 231 233 239 239 241 243 243 245 239 239 241 240 240 242 240 240 242 240 240 242 241 241 243 241 241 243 242 242 244 243 243 245 243 243 245 244 244 246 245 245 247 244 244 246 242 242 244 241 241 243 242 242 244 243 243 245 246 246 248 247 247 249 247 247 249 247 247 249 247 247 249 248 248 250 248 248 250 248 248 250 249 249 251 249 249 251 248 248 250 249 249 251 249 249 251 249 249 251 249 249 251 249 249 251 249 249 251 249 249 250 249 249 249 249 249 249 249 249 249 249 249 249 250 250 250 250 250 250 250 250 250 250 250 250 250 250 250 250 250 250 250 250 250 250 250 250 250 250 250 250 250 250 250 250 250 250 250 250 248 248 248 249 249 249 249 249 249 248 248 248 247 247 247 244 244 244 236 236 236 229 229 229 227 227 227 242 242 242 246 246 246 243 243 243 247 247 247 249 249 249 248 248 248 252 252 252 250 250 250 250 250 250 250 250 250 250 250 250 250 250 250 250 250 250 250 250 250 250 250 250 248 248 248 247 247 247 246 246 246 246 246 246 246 246 246 247 247 247 249 249 249 250 250 250 250 250 250 250 250 250 249 249 249 249 249 249 249 249 249 248 248 248 248 248 248 248 248 248 248 248 248 248 248 248 248 248 248 247 247 247 247 247 247 246 246 246 246 246 246 246 246 246 246 246 246 246 246 246 245 245 245 245 245 245 244 244 244 244 244 244 244 244 244 244 244 244 244 244 244 245 245 245 246 246 246 247 247 247 248 248 248 248 248 248 248 248 248 248 248 248 248 248 248 248 248 248 249 249 249 251 251 251 250 250 250 247 247 247 241 241 241 237 237 237 233 233 233 210 210 210 206 206 206 212 212 212 213 213 213 221 221 221 227 227 227 218 218 218 221 221 221 225 225 225 230 230 230 225 225 225 218 218 218 229 229 229 239 239 239 233 233 233 233 233 233 237 237 237 230 230 230 201 201 201 178 178 178 190 190 190 211 211 211 213 213 213 218 218 218 215 215 215 216 216 216 221 221 221 224 224 224 223 223 223 225 225 225 229 229 229 227 227 227 228 228 228 230 230 230 231 231 231 233 233 233 233 233 233 233 233 233 233 233 233 232 232 232 
231 231 231 230 230 230 230 230 230 233 233 233 237 237 237 242 242 242 245 245 245 246 246 246 247 247 247 247 247 247 247 247 247 248 248 248 248 248 248 248 248 248 249 249 249 249 249 249 249 249 249 249 249 249 250 250 250 250 250 250 250 250 250 250 250 250 250 250 250 249 249 249 249 249 249 250 250 250 250 250 250 249 249 249 249 249 249 248 248 248 247 247 247 241 241 241 242 242 242 244 244 244 246 246 246 247 247 247 247 247 247 246 246 246 246 246 246 220 220 220 218 218 218 221 221 221 228 228 228 228 228 228 215 215 215 194 194 194 179 179 179 180 180 180 190 190 190 177 177 177 140 140 140 97 97 97 194 194 194 193 193 193 199 199 199 208 208 208 210 210 210 213 213 213 
91 91 93 204 204 206 233 233 235 237 237 239 229 229 231 239 239 241 242 242 244 236 236 238 239 239 241 240 240 242 241 241 243 241 241 243 241 241 243 242 242 244 243 243 245 243 243 245 243 243 245 244 244 246 243 243 245 242 242 244 241 241 243 242 242 244 243 243 245 246 246 248 247 247 249 247 247 249 247 247 249 247 247 249 248 248 250 248 248 250 248 248 250 249 249 251 249 249 251 248 248 250 248 248 250 248 248 250 249 249 251 249 249 251 249 249 251 249 249 251 249 249 250 249 249 249 249 249 249 249 249 249 249 249 249 250 250 250 250 250 250 250 250 250 250 250 250 250 250 250 250 250 250 250 250 250 250 250 250 250 250 250 250 250 250 250 250 250 250 250 250 248 248 248 248 248 248 248 248 248 248 248 248 245 245 245 239 239 239 229 229 229 222 222 222 229 229 229 241 241 241 245 245 245 246 246 246 253 253 253 253 253 253 248 248 248 249 249 249 250 250 250 250 250 250 250 250 250 250 250 250 250 250 250 250 250 250 250 250 250 250 250 250 248 248 248 248 248 248 247 247 247 246 246 246 247 247 247 248 248 248 249 249 249 250 250 250 250 250 250 250 250 250 250 250 250 249 249 249 249 249 249 249 249 249 249 249 249 248 248 248 249 249 249 248 248 248 248 248 248 247 247 247 247 247 247 246 246 246 246 246 246 245 245 245 245 245 245 245 245 245 245 245 245 244 244 244 243 243 243 243 243 243 242 242 242 242 242 242 243 243 243 244 244 244 245 245 245 246 246 246 247 247 247 248 248 248 248 248 248 248 248 248 250 250 250 250 250 250 250 250 250 251 251 251 251 251 251 248 248 248 244 244 244 240 240 240 237 237 237 219 219 219 213 213 213 217 217 217 215 215 215 209 209 209 202 202 202 193 193 193 205 205 205 214 214 214 221 221 221 214 214 214 210 210 210 226 226 226 236 236 236 228 228 228 235 235 235 227 227 227 230 230 230 231 231 231 216 216 216 208 208 208 213 213 213 217 217 217 223 223 223 219 219 219 219 219 219 223 223 223 224 224 224 219 219 219 219 219 219 224 224 224 224 224 224 225 225 225 228 228 228 230 230 230 231 231 231 232 232 232 232 232 232 232 232 232 230 230 230 
229 229 229 228 228 228 228 228 228 230 230 230 235 235 235 239 239 239 242 242 242 245 245 245 246 246 246 246 246 246 247 247 247 247 247 247 248 248 248 248 248 248 248 248 248 249 249 249 249 249 249 249 249 249 249 249 249 250 250 250 250 250 250 250 250 250 250 250 250 249 249 249 249 249 249 250 250 250 250 250 250 249 249 249 249 249 249 248 248 248 247 247 247 239 239 239 240 240 240 242 242 242 244 244 244 245 245 245 246 246 246 247 247 247 247 247 247 216 216 216 219 219 219 221 221 221 222 222 222 226 226 226 223 223 223 205 205 205 185 185 185 198 198 198 195 195 195 208 208 208 115 115 115 135 135 135 148 148 148 197 197 197 199 199 199 207 207 207 209 209 209 211 211 211 
181 181 183 185 185 187 228 228 230 240 240 242 232 232 234 240 240 242 241 241 243 235 235 237 243 243 245 241 241 243 241 241 243 242 242 244 242 242 244 242 242 244 242 242 244 242 242 244 242 242 244 243 243 245 243 243 245 243 243 245 243 243 245 243 243 245 245 245 247 246 246 248 247 247 249 247 247 249 247 247 249 247 247 249 248 248 250 248 248 250 248 248 250 249 249 251 249 249 251 248 248 250 248 248 250 248 248 250 249 249 251 249 249 251 249 249 251 250 250 252 250 250 251 249 249 249 249 249 249 249 249 249 249 249 249 250 250 250 250 250 250 250 250 250 250 250 250 250 250 250 250 250 250 250 250 250 250 250 250 250 250 250 250 250 250 250 250 250 250 250 250 248 248 248 247 247 247 247 247 247 248 248 248 244 244 244 234 234 234 221 221 221 212 212 212 228 228 228 242 242 242 248 248 248 249 249 249 255 255 255 253 253 253 248 248 248 251 251 251 250 250 250 250 250 250 250 250 250 250 250 250 250 250 250 250 250 250 250 250 250 250 250 250 249 249 249 248 248 248 247 247 247 247 247 247 247 247 247 248 248 248 250 250 250 251 251 251 250 250 250 250 250 250 250 250 250 250 250 250 249 249 249 249 249 249 249 249 249 249 249 249 249 249 249 249 249 249 248 248 248 247 247 247 247 247 247 246 246 246 245 245 245 245 245 245 245 245 245 245 245 245 244 244 244 243 243 243 243 243 243 242 242 242 241 241 241 241 241 241 242 242 242 243 243 243 244 244 244 246 246 246 247 247 247 247 247 247 248 248 248 248 248 248 249 249 249 248 248 248 248 248 248 249 249 249 249 249 249 247 247 247 244 244 244 241 241 241 238 238 238 228 228 228 216 216 216 216 216 216 218 218 218 205 205 205 192 192 192 191 191 191 213 213 213 215 215 215 222 222 222 221 221 221 216 216 216 223 223 223 230 230 230 225 225 225 229 229 229 214 214 214 219 219 219 239 239 239 244 244 244 238 238 238 233 233 233 227 227 227 232 232 232 225 225 225 224 224 224 229 229 229 226 226 226 218 218 218 216 216 216 220 220 220 221 221 221 223 223 223 226 226 226 229 229 229 230 230 230 231 231 231 231 231 231 231 231 231 228 228 228 
228 228 228 227 227 227 227 227 227 229 229 229 233 233 233 237 237 237 240 240 240 244 244 244 245 245 245 245 245 245 246 246 246 247 247 247 247 247 247 248 248 248 248 248 248 249 249 249 249 249 249 249 249 249 249 249 249 250 250 250 250 250 250 251 251 251 251 251 251 249 249 249 249 249 249 250 250 250 250 250 250 249 249 249 249 249 249 248 248 248 247 247 247 241 241 241 241 241 241 242 242 242 242 242 242 244 244 244 245 245 245 247 247 247 248 248 248 235 235 235 234 234 234 231 231 231 227 227 227 229 229 229 232 232 232 226 226 226 216 216 216 194 194 194 225 225 225 187 187 187 148 148 148 177 177 177 177 177 177 193 193 193 197 197 197 206 206 206 208 208 208 210 210 210 
210 210 212 163 163 165 217 217 219 238 238 240 230 230 232 236 236 238 237 237 239 233 233 235 245 245 247 242 242 244 242 242 244 242 242 244 242 242 244 242 242 244 242 242 244 242 242 244 241 241 243 244 244 246 244 244 246 244 244 246 244 244 246 245 245 247 246 246 248 247 247 249 248 248 250 247 247 249 247 247 249 247 247 249 248 248 250 248 248 250 248 248 250 249 249 251 249 249 251 248 248 250 248 248 250 248 248 250 249 249 251 249 249 251 249 249 251 250 250 252 250 250 251 249 249 249 249 249 249 249 249 249 249 249 249 250 250 250 250 250 250 250 250 250 250 250 250 250 250 250 250 250 250 250 250 250 250 250 250 250 250 250 250 250 250 250 250 250 250 250 250 249 249 249 247 247 247 246 246 246 247 247 247 243 243 243 231 231 231 215 215 215 204 204 204 230 230 230 243 243 243 247 247 247 246 246 246 248 248 248 246 246 246 246 246 246 253 253 253 250 250 250 250 250 250 250 250 250 250 250 250 250 250 250 250 250 250 250 250 250 250 250 250 249 249 249 249 249 249 248 248 248 247 247 247 248 248 248 249 249 249 250 250 250 251 251 251 250 250 250 250 250 250 250 250 250 250 250 250 249 249 249 249 249 249 249 249 249 249 249 249 249 249 249 249 249 249 248 248 248 247 247 247 247 247 247 246 246 246 245 245 245 245 245 245 245 245 245 244 244 244 244 244 244 243 243 243 242 242 242 241 241 241 241 241 241 241 241 241 242 242 242 243 243 243 244 244 244 245 245 245 247 247 247 247 247 247 248 248 248 248 248 248 246 246 246 245 245 245 244 244 244 244 244 244 245 245 245 244 244 244 241 241 241 239 239 239 236 236 236 229 229 229 211 211 211 207 207 207 216 216 216 206 206 206 195 195 195 206 206 206 233 233 233 226 226 226 230 230 230 234 234 234 225 225 225 221 221 221 223 223 223 223 223 223 225 225 225 232 232 232 245 245 245 246 246 246 236 236 236 237 237 237 240 240 240 235 235 235 238 238 238 231 231 231 229 229 229 233 233 233 229 229 229 218 218 218 215 215 215 219 219 219 220 220 220 222 222 222 225 225 225 228 228 228 230 230 230 231 231 231 230 230 230 230 230 230 228 228 228 
227 227 227 227 227 227 227 227 227 229 229 229 233 233 233 236 236 236 238 238 238 244 244 244 244 244 244 245 245 245 246 246 246 247 247 247 247 247 247 248 248 248 248 248 248 248 248 248 249 249 249 249 249 249 249 249 249 250 250 250 250 250 250 251 251 251 251 251 251 249 249 249 249 249 249 250 250 250 250 250 250 249 249 249 249 249 249 248 248 248 247 247 247 244 244 244 243 243 243 243 243 243 242 242 242 243 243 243 245 245 245 246 246 246 248 248 248 247 247 247 240 240 240 230 230 230 223 223 223 221 221 221 223 223 223 228 228 228 232 232 232 213 213 213 193 193 193 196 196 196 135 135 135 129 129 129 182 182 182 194 194 194 205 205 205 206 206 206 207 207 207 210 210 210 
205 205 207 117 117 119 220 220 222 237 237 239 232 232 234 232 232 234 241 241 243 237 237 239 240 240 242 240 240 242 240 240 242 241 241 243 241 241 243 242 242 244 243 243 245 243 243 245 243 243 245 242 242 244 243 243 245 245 245 247 246 246 248 247 247 249 247 247 249 246 246 248 245 245 247 248 248 250 248 248 250 249 249 251 249 249 251 249 249 251 249 249 251 249 249 251 249 249 251 249 249 251 249 249 251 249 249 251 249 249 251 249 249 251 249 249 251 248 248 250 248 248 249 250 250 250 250 250 250 250 250 250 250 250 250 250 250 250 249 249 249 249 249 249 249 249 249 248 248 248 248 248 248 248 248 248 249 249 249 249 249 249 249 249 249 249 249 249 249 249 249 249 249 249 249 249 249 245 245 245 242 242 242 243 243 243 243 243 243 234 234 234 222 222 222 213 213 213 233 233 233 242 242 242 255 255 255 243 243 243 252 252 252 247 247 247 254 254 254 251 251 251 251 251 251 251 251 251 251 251 251 251 251 251 251 251 251 251 251 251 251 251 251 250 250 250 250 250 250 250 250 250 250 250 250 250 250 250 250 250 250 250 250 250 250 250 250 250 250 250 250 250 250 250 250 250 250 250 250 250 250 250 250 250 250 250 250 250 250 250 250 250 250 250 249 249 249 249 249 249 248 248 248 248 248 248 247 247 247 246 246 246 246 246 246 242 242 242 242 242 242 241 241 241 240 240 240 240 240 240 239 239 239 238 238 238 238 238 238 243 243 243 242 242 242 242 242 242 243 243 243 245 245 245 247 247 247 246 246 246 246 246 246 250 250 250 241 241 241 241 241 241 242 242 242 236 236 236 237 237 237 241 241 241 236 236 236 230 230 230 216 216 216 196 196 196 201 201 201 211 211 211 227 227 227 171 171 171 212 212 212 236 236 236 226 226 226 222 222 222 227 227 227 233 233 233 235 235 235 235 235 235 236 236 236 238 238 238 239 239 239 240 240 240 241 241 241 242 242 242 242 242 242 242 242 242 242 242 242 241 241 241 241 241 241 240 240 240 239 239 239 235 235 235 229 229 229 221 221 221 216 216 216 220 220 220 225 225 225 228 228 228 227 227 227 228 228 228 229 229 229 229 229 229 226 226 226 226 226 226 
225 225 225 225 225 225 226 226 226 229 229 229 233 233 233 235 235 235 237 237 237 239 239 239 240 240 240 243 243 243 245 245 245 247 247 247 247 247 247 247 247 247 247 247 247 249 249 249 249 249 249 249 249 249 249 249 249 250 250 250 250 250 250 250 250 250 250 250 250 250 250 250 250 250 250 250 250 250 250 250 250 250 250 250 250 250 250 250 250 250 250 250 250 243 243 243 242 242 242 241 241 241 242 242 242 245 245 245 247 247 247 247 247 247 247 247 247 247 247 247 242 242 242 235 235 235 230 230 230 227 227 227 226 226 226 226 226 226 225 225 225 203 203 203 176 176 176 178 178 178 171 171 171 147 147 147 172 172 172 202 202 202 182 182 182 202 202 202 209 209 209 209 209 209 
220 220 222 186 186 188 198 198 200 235 235 237 240 240 242 242 242 244 240 240 242 232 232 234 244 244 246 240 240 242 240 240 242 240 240 242 241 241 243 242 242 244 242 242 244 243 243 245 243 243 245 243 243 245 243 243 245 244 244 246 245 245 247 246 246 248 246 246 248 246 246 248 246 246 248 248 248 250 248 248 250 248 248 250 248 248 250 248 248 250 248 248 250 248 248 250 248 248 250 249 249 251 248 248 250 248 248 250 248 248 250 248 248 250 248 248 250 248 248 250 248 248 249 250 250 250 249 249 249 249 249 249 249 249 249 249 249 249 249 249 249 249 249 249 249 249 249 249 249 249 249 249 249 249 249 249 249 249 249 249 249 249 249 249 249 249 249 249 249 249 249 248 248 248 247 247 247 244 244 244 241 241 241 243 243 243 244 244 244 237 237 237 227 227 227 234 234 234 227 227 227 229 229 229 238 238 238 252 252 252 251 251 251 248 248 248 243 243 243 250 250 250 250 250 250 250 250 250 250 250 250 250 250 250 250 250 250 250 250 250 250 250 250 250 250 250 250 250 250 250 250 250 250 250 250 250 250 250 250 250 250 250 250 250 250 250 250 250 250 250 250 250 250 250 250 250 250 250 250 250 250 250 250 250 250 250 250 250 250 250 250 249 249 249 249 249 249 249 249 249 248 248 248 247 247 247 247 247 247 246 246 246 246 246 246 243 243 243 242 242 242 242 242 242 241 241 241 240 240 240 239 239 239 238 238 238 238 238 238 241 241 241 240 240 240 240 240 240 242 242 242 244 244 244 246 246 246 246 246 246 245 245 245 241 241 241 232 232 232 250 250 250 232 232 232 249 249 249 227 227 227 224 224 224 188 188 188 187 187 187 174 174 174 168 168 168 189 189 189 201 201 201 211 211 211 167 167 167 229 229 229 235 235 235 229 229 229 226 226 226 231 231 231 236 236 236 236 236 236 237 237 237 239 239 239 240 240 240 240 240 240 241 241 241 242 242 242 243 243 243 243 243 243 243 243 243 243 243 243 243 243 243 242 242 242 241 241 241 241 241 241 239 239 239 235 235 235 229 229 229 225 225 225 218 218 218 222 222 222 224 224 224 223 223 223 224 224 224 227 227 227 228 228 228 227 227 227 227 227 227 
226 226 226 226 226 226 226 226 226 229 229 229 231 231 231 233 233 233 234 234 234 236 236 236 237 237 237 240 240 240 243 243 243 245 245 245 246 246 246 246 246 246 247 247 247 249 249 249 249 249 249 249 249 249 249 249 249 249 249 249 250 250 250 250 250 250 250 250 250 250 250 250 250 250 250 250 250 250 250 250 250 250 250 250 250 250 250 250 250 250 250 250 250 245 245 245 244 244 244 243 243 243 244 244 244 245 245 245 246 246 246 245 245 245 244 244 244 243 243 243 241 241 241 238 238 238 235 235 235 229 229 229 220 220 220 210 210 210 203 203 203 190 190 190 184 184 184 202 202 202 204 204 204 183 183 183 192 192 192 202 202 202 180 180 180 210 210 210 220 220 220 220 220 220 
234 234 236 222 222 224 168 168 170 225 225 227 237 237 239 238 238 240 239 239 241 230 230 232 243 243 245 239 239 241 239 239 241 240 240 242 241 241 243 241 241 243 242 242 244 242 242 244 243 243 245 244 244 246 244 244 246 244 244 246 244 244 246 245 245 247 246 246 248 247 247 249 247 247 249 247 247 249 247 247 249 247 247 249 247 247 249 247 247 249 247 247 249 247 247 249 247 247 249 247 247 249 247 247 249 247 247 249 248 248 250 248 248 250 248 248 250 248 248 250 248 248 249 249 249 249 249 249 249 249 249 249 249 249 249 249 249 249 249 249 249 249 249 249 249 249 249 249 249 249 249 249 249 249 249 249 249 249 249 249 249 249 249 249 249 249 249 249 249 249 249 247 247 247 245 245 245 241 241 241 240 240 240 242 242 242 245 245 245 241 241 241 234 234 234 237 237 237 226 226 226 236 236 236 235 235 235 254 254 254 242 242 242 252 252 252 251 251 251 250 250 250 250 250 250 250 250 250 250 250 250 250 250 250 250 250 250 250 250 250 250 250 250 250 250 250 250 250 250 250 250 250 250 250 250 250 250 250 250 250 250 250 250 250 250 250 250 250 250 250 250 250 250 250 250 250 250 250 250 250 250 250 250 250 250 250 250 250 250 250 250 249 249 249 249 249 249 248 248 248 248 248 248 247 247 247 247 247 247 246 246 246 246 246 246 244 244 244 243 243 243 242 242 242 241 241 241 240 240 240 239 239 239 238 238 238 238 238 238 238 238 238 238 238 238 238 238 238 240 240 240 243 243 243 245 245 245 245 245 245 244 244 244 246 246 246 236 236 236 253 253 253 237 237 237 240 240 240 207 207 207 200 200 200 174 174 174 195 195 195 186 186 186 193 193 193 226 226 226 224 224 224 211 211 211 163 163 163 236 236 236 233 233 233 232 232 232 233 233 233 236 236 236 238 238 238 238 238 238 239 239 239 242 242 242 242 242 242 242 242 242 243 243 243 244 244 244 245 245 245 245 245 245 245 245 245 245 245 245 245 245 245 244 244 244 243 243 243 243 243 243 243 243 243 242 242 242 238 238 238 236 236 236 225 225 225 226 226 226 225 225 225 222 222 222 222 222 222 225 225 225 225 225 225 223 223 223 226 226 226 
226 226 226 227 227 227 227 227 227 228 228 228 229 229 229 231 231 231 232 232 232 233 233 233 234 234 234 237 237 237 240 240 240 242 242 242 244 244 244 246 246 246 246 246 246 248 248 248 248 248 248 248 248 248 249 249 249 249 249 249 249 249 249 250 250 250 250 250 250 250 250 250 250 250 250 250 250 250 250 250 250 250 250 250 250 250 250 250 250 250 250 250 250 245 245 245 245 245 245 244 244 244 245 245 245 246 246 246 246 246 246 243 243 243 241 241 241 238 238 238 238 238 238 239 239 239 239 239 239 235 235 235 226 226 226 216 216 216 209 209 209 200 200 200 206 206 206 217 217 217 215 215 215 203 203 203 204 204 204 207 207 207 197 197 197 202 202 202 213 213 213 217 217 217 
