P3
100 100
255
30 30 30 30 30 30 30 30 30 30 30 30 30 30 30 30 30 30 30 30 30 30 30 30 30 30 30 30 30 30 30 30 30 30 30 30 30 30 30 30 30 30 30 30 30 30 30 30 30 30 30 30 30 30 30 30 30 30 30 30 30 30 30 30 30 30 30 30 30 30 30 30 30 30 30 30 30 30 30 30 30 30 30 30 30 30 30 30 30 30 30 30 30 30 30 30 30 30 30 30 30 30 30 30 30 30 30 30 30 30 30 30 30 30 30 30 30 30 30 30 30 30 30 30 30 30 30 30 30 30 30 30 30 30 30 30 30 30 30 30 30 30 30 30 30 30 30 30 30 30 245 157 223 245 157 223 245 157 223 245 157 223 245 157 223 245 157 223 245 157 223 245 157 223 245 157 223 245 157 223 245 157 223 245 157 223 245 157 223 245 157 223 245 157 223 245 157 223 245 157 223 245 157 223 245 157 223 245 157 223 245 157 223 245 157 223 245 157 223 245 157 223 245 157 223 245 157 223 245 157 223 245 157 223 245 157 223 245 157 223 245 157 223 245 157 223 245 157 223 245 157 223 245 157 223 245 157 223 245 157 223 245 157 223 245 157 223 245 157 223 245 157 223 245 157 223 245 157 223 245 157 223 245 157 223 245 157 223 245 157 223 245 157 223 245 157 223 245 157 223 
30 30 30 30 30 30 30 30 30 30 30 30 30 30 30 30 30 30 30 30 30 30 30 30 30 30 30 30 30 30 30 30 30 30 30 30 30 30 30 30 30 30 30 30 30 30 30 30 30 30 30 30 30 30 30 30 30 30 30 30 30 30 30 30 30 30 30 30 30 30 30 30 30 30 30 30 30 30 30 30 30 30 30 30 30 30 30 30 30 30 30 30 30 30 30 30 30 30 30 30 30 30 30 30 30 30 30 30 30 30 30 30 30 30 30 30 30 30 30 30 30 30 30 30 30 30 30 30 30 30 30 30 30 30 30 30 30 30 30 30 30 30 30 30 30 30 30 30 30 30 245 157 223 245 157 223 245 157 223 245 157 223 245 157 223 245 157 223 245 157 223 245 157 223 245 157 223 245 157 223 245 157 223 245 157 223 245 157 223 245 157 223 245 157 223 245 157 223 245 157 223 245 157 223 245 157 223 245 157 223 245 157 223 245 157 223 245 157 223 245 157 223 245 157 223 245 157 223 245 157 223 245 157 223 245 157 223 245 157 223 245 157 223 245 157 223 245 157 223 245 157 223 245 157 223 245 157 223 245 157 223 245 157 223 245 157 223 245 157 223 245 157 223 245 157 223 245 157 223 245 157 223 245 157 223 245 157 223 245 157 223 245 157 223 245 157 223 245 157 223 
30 30 30 30 30 30 30 30 30 30 30 30 30 30 30 30 30 30 30 30 30 30 30 30 30 30 30 30 30 30 30 30 30 30 30 30 30 30 30 30 30 30 30 30 30 30 30 30 30 30 30 30 30 30 30 30 30 30 30 30 30 30 30 30 30 30 30 30 30 30 30 30 30 30 30 30 30 30 30 30 30 30 30 30 30 30 30 30 30 30 30 30 30 30 30 30 30 30 30 30 30 30 30 30 30 30 30 30 30 30 30 30 30 30 30 30 30 30 30 30 30 30 30 30 30 30 30 30 30 30 30 30 30 30 30 30 30 30 30 30 30 30 30 30 30 30 30 30 30 30 245 157 223 245 157 223 245 157 223 245 157 223 245 157 223 245 157 223 245 157 223 245 157 223 245 157 223 245 157 223 245 157 223 245 157 223 245 157 223 245 157 223 245 157 223 245 157 223 245 157 223 245 157 223 245 157 223 245 157 223 245 157 223 245 157 223 245 157 223 245 157 223 245 157 223 245 157 223 245 157 223 245 157 223 245 157 223 245 157 223 245 157 223 245 157 223 245 157 223 245 157 223 245 157 223 245 157 223 245 157 223 245 157 223 245 157 223 245 157 223 245 157 223 245 157 223 245 157 223 245 157 223 245 157 223 245 157 223 245 157 223 245 157 223 245 157 223 245 157 223 
30 30 30 30 30 30 30 30 30 30 30 30 30 30 30 30 30 30 30 30 30 30 30 30 30 30 30 30 30 30 30 30 30 30 30 30 30 30 30 30 30 30 30 30 30 30 30 30 30 30 30 30 30 30 30 30 30 30 30 30 30 30 30 30 30 30 30 30 30 30 30 30 30 30 30 30 30 30 30 30 30 30 30 30 30 30 30 30 30 30 30 30 30 30 30 30 30 30 30 30 30 30 30 30 30 30 30 30 30 30 30 30 30 30 30 30 30 30 30 30 30 30 30 30 30 30 30 30 30 30 30 30 30 30 30 30 30 30 30 30 30 30 30 30 30 30 30 30 30 30 245 157 223 245 157 223 245 157 223 245 157 223 245 157 223 245 157 223 245 157 223 245 157 223 245 157 223 245 157 223 245 157 223 245 157 223 245 157 223 245 157 223 245 157 223 245 157 223 245 157 223 245 157 223 245 157 223 245 157 223 245 157 223 245 157 223 245 157 223 245 157 223 245 157 223 245 157 223 245 157 223 245 157 223 245 157 223 245 157 223 245 157 223 245 157 223 245 157 223 245 157 223 245 157 223 245 157 223 245 157 223 245 157 223 245 157 223 245 157 223 245 157 223 245 157 223 245 157 223 245 157 223 245 157 223 245 157 223 245 157 223 245 157 223 245 157 223 245 157 223 
30 30 30 30 30 30 30 30 30 30 30 30 30 30 30 30 30 30 30 30 30 30 30 30 30 30 30 30 30 30 30 30 30 30 30 30 30 30 30 30 30 30 30 30 30 30 30 30 30 30 30 30 30 30 30 30 30 30 30 30 30 30 30 30 30 30 30 30 30 30 30 30 30 30 30 30 30 30 30 30 30 30 30 30 30 30 30 30 30 30 30 30 30 30 30 30 30 30 30 30 30 30 30 30 30 30 30 30 30 30 30 30 30 30 30 30 30 30 30 30 30 30 30 30 30 30 30 30 30 30 30 30 30 30 30 30 30 30 30 30 30 30 30 30 30 30 30 30 30 30 245 157 223 245 157 223 245 157 223 245 157 223 245 157 223 245 157 223 245 157 223 245 157 223 245 157 223 245 157 223 245 157 223 245 157 223 245 157 223 245 157 223 245 157 223 245 157 223 245 157 223 245 157 223 245 157 223 245 157 223 245 157 223 245 157 223 245 157 223 245 157 223 245 157 223 245 157 223 245 157 223 245 157 223 245 157 223 245 157 223 245 157 223 245 157 223 245 157 223 245 157 223 245 157 223 245 157 223 245 157 223 245 157 223 245 157 223 245 157 223 245 157 223 245 157 223 245 157 223 245 157 223 245 157 223 245 157 223 245 157 223 245 157 223 245 157 223 245 157 223 
30 30 30 30 30 30 30 30 30 30 30 30 30 30 30 30 30 30 30 30 30 30 30 30 30 30 30 30 30 30 30 30 30 30 30 30 30 30 30 30 30 30 30 30 30 30 30 30 30 30 30 30 30 30 30 30 30 30 30 30 30 30 30 30 30 30 30 30 30 30 30 30 30 30 30 30 30 30 30 30 30 30 30 30 30 30 30 30 30 30 30 30 30 30 30 30 30 30 30 30 30 30 30 30 30 30 30 30 30 30 30 30 30 30 30 30 30 30 30 30 30 30 30 30 30 30 30 30 30 30 30 30 30 30 30 30 30 30 30 30 30 30 30 30 30 30 30 30 30 30 245 157 223 245 157 223 245 157 223 245 157 223 245 157 223 245 157 223 245 157 223 245 157 223 245 157 223 245 157 223 245 157 223 245 157 223 245 157 223 245 157 223 245 157 223 245 157 223 245 157 223 245 157 223 245 157 223 245 157 223 245 157 223 245 157 223 245 157 223 245 157 223 245 157 223 245 157 223 245 157 223 245 157 223 245 157 223 245 157 223 245 157 223 245 157 223 245 157 223 245 157 223 245 157 223 245 157 223 245 157 223 245 157 223 245 157 223 245 157 223 245 157 223 245 157 223 245 157 223 245 157 223 245 157 223 245 157 223 245 157 223 245 157 223 245 157 223 245 157 223 
30 30 30 30 30 30 30 30 30 30 30 30 30 30 30 30 30 30 30 30 30 30 30 30 30 30 30 30 30 30 30 30 30 30 30 30 30 30 30 30 30 30 30 30 30 30 30 30 30 30 30 30 30 30 30 30 30 30 30 30 30 30 30 30 30 30 30 30 30 30 30 30 30 30 30 30 30 30 30 30 30 30 30 30 30 30 30 30 30 30 30 30 30 30 30 30 30 30 30 30 30 30 30 30 30 30 30 30 30 30 30 30 30 30 30 30 30 30 30 30 30 30 30 30 30 30 30 30 30 30 30 30 30 30 30 30 30 30 30 30 30 30 30 30 30 30 30 30 30 30 245 157 223 245 157 223 245 157 223 245 157 223 245 157 223 245 157 223 245 157 223 245 157 223 245 157 223 245 157 223 245 157 223 245 157 223 245 157 223 245 157 223 245 157 223 245 157 223 245 157 223 245 157 223 245 157 223 245 157 223 245 157 223 245 157 223 245 157 223 245 157 223 245 157 223 245 157 223 245 157 223 245 157 223 245 157 223 245 157 223 245 157 223 245 157 223 245 157 223 245 157 223 245 157 223 245 157 223 245 157 223 245 157 223 245 157 223 245 157 223 245 157 223 245 157 223 245 157 223 245 157 223 245 157 223 245 157 223 245 157 223 245 157 223 245 157 223 245 157 223 
30 30 30 30 30 30 30 30 30 30 30 30 30 30 30 30 30 30 30 30 30 30 30 30 30 30 30 30 30 30 30 30 30 30 30 30 30 30 30 30 30 30 30 30 30 30 30 30 30 30 30 30 30 30 30 30 30 30 30 30 30 30 30 30 30 30 30 30 30 30 30 30 30 30 30 30 30 30 30 30 30 30 30 30 30 30 30 30 30 30 30 30 30 30 30 30 30 30 30 30 30 30 30 30 30 30 30 30 30 30 30 30 30 30 30 30 30 30 30 30 30 30 30 30 30 30 30 30 30 30 30 30 30 30 30 30 30 30 30 30 30 30 30 30 30 30 30 30 30 30 245 157 223 245 157 223 245 157 223 245 157 223 245 157 223 245 157 223 245 157 223 245 157 223 245 157 223 245 157 223 245 157 223 245 157 223 245 157 223 245 157 223 245 157 223 245 157 223 245 157 223 245 157 223 245 157 223 245 157 223 245 157 223 245 157 223 245 157 223 245 157 223 245 157 223 245 157 223 245 157 223 245 157 223 245 157 223 245 157 223 245 157 223 245 157 223 245 157 223 245 157 223 245 157 223 245 157 223 245 157 223 245 157 223 245 157 223 245 157 223 245 157 223 245 157 223 245 157 223 245 157 223 245 157 223 245 157 223 245 157 223 245 157 223 245 157 223 245 157 223 
30 30 30 30 30 30 30 30 30 30 30 30 30 30 30 30 30 30 30 30 30 30 30 30 30 30 30 30 30 30 30 30 30 30 30 30 30 30 30 30 30 30 30 30 30 30 30 30 30 30 30 30 30 30 30 30 30 30 30 30 30 30 30 30 30 30 30 30 30 30 30 30 30 30 30 30 30 30 30 30 30 30 30 30 30 30 30 30 30 30 30 30 30 30 30 30 30 30 30 30 30 30 30 30 30 30 30 30 30 30 30 30 30 30 30 30 30 30 30 30 30 30 30 30 30 30 30 30 30 30 30 30 30 30 30 30 30 30 30 30 30 30 30 30 30 30 30 30 30 30 245 157 223 245 157 223 245 157 223 245 157 223 245 157 223 245 157 223 245 157 223 245 157 223 245 157 223 245 157 223 245 157 223 245 157 223 245 157 223 245 157 223 245 157 223 245 157 223 245 157 223 245 157 223 245 157 223 245 157 223 245 157 223 245 157 223 245 157 223 245 157 223 245 157 223 245 157 223 245 157 223 245 157 223 245 157 223 245 157 223 245 157 223 245 157 223 245 157 223 245 157 223 245 157 223 245 157 223 245 157 223 245 157 223 245 157 223 245 157 223 245 157 223 245 157 223 245 157 223 245 157 223 245 157 223 245 157 223 245 157 223 245 157 223 245 157 223 245 157 223 
30 30 30 30 30 30 30 30 30 30 30 30 30 30 30 30 30 30 30 30 30 30 30 30 30 30 30 30 30 30 30 30 30 30 30 30 30 30 30 30 30 30 30 30 30 30 30 30 30 30 30 30 30 30 30 30 30 30 30 30 30 30 30 30 30 30 30 30 30 30 30 30 30 30 30 30 30 30 30 30 30 30 30 30 30 30 30 30 30 30 30 30 30 30 30 30 30 30 30 30 30 30 30 30 30 30 30 30 30 30 30 30 30 30 30 30 30 30 30 30 30 30 30 30 30 30 30 30 30 30 30 30 30 30 30 30 30 30 30 30 30 30 30 30 30 30 30 30 30 30 245 157 223 245 157 223 245 157 223 245 157 223 245 157 223 245 157 223 245 157 223 245 157 223 245 157 223 245 157 223 245 157 223 245 157 223 245 157 223 245 157 223 245 157 223 245 157 223 245 157 223 245 157 223 245 157 223 245 157 223 245 157 223 245 157 223 245 157 223 245 157 223 245 157 223 245 157 223 245 157 223 245 157 223 245 157 223 245 157 223 245 157 223 245 157 223 245 157 223 245 157 223 245 157 223 245 157 223 245 157 223 245 157 223 245 157 223 245 157 223 245 157 223 245 157 223 245 157 223 245 157 223 245 157 223 245 157 223 245 157 223 245 157 223 245 157 223 245 157 223 
30 30 30 30 30 30 30 30 30 30 30 30 30 30 30 30 30 30 30 30 30 30 30 30 30 30 30 30 30 30 30 30 30 30 30 30 30 30 30 30 30 30 30 30 30 30 30 30 30 30 30 30 30 30 30 30 30 30 30 30 30 30 30 30 30 30 30 30 30 30 30 30 30 30 30 30 30 30 30 30 30 30 30 30 30 30 30 30 30 30 30 30 30 30 30 30 30 30 30 30 30 30 30 30 30 30 30 30 30 30 30 30 30 30 30 30 30 30 30 30 30 30 30 30 30 30 30 30 30 30 30 30 30 30 30 30 30 30 30 30 30 30 30 30 30 30 30 30 30 30 245 157 223 245 157 223 245 157 223 245 157 223 245 157 223 245 157 223 245 157 223 245 157 223 245 157 223 245 157 223 245 157 223 245 157 223 245 157 223 245 157 223 245 157 223 245 157 223 245 157 223 245 157 223 245 157 223 245 157 223 245 157 223 245 157 223 245 157 223 245 157 223 245 157 223 245 157 223 245 157 223 245 157 223 245 157 223 245 157 223 245 157 223 245 157 223 245 157 223 245 157 223 245 157 223 245 157 223 245 157 223 245 157 223 245 157 223 245 157 223 245 157 223 245 157 223 245 157 223 245 157 223 245 157 223 245 157 223 245 157 223 245 157 223 245 157 223 245 157 223 
30 30 30 30 30 30 30 30 30 30 30 30 30 30 30 30 30 30 30 30 30 30 30 30 30 30 30 30 30 30 30 30 30 30 30 30 30 30 30 30 30 30 30 30 30 30 30 30 30 30 30 30 30 30 30 30 30 30 30 30 30 30 30 30 30 30 30 30 30 30 30 30 30 30 30 30 30 30 30 30 30 30 30 30 30 30 30 30 30 30 30 30 30 30 30 30 30 30 30 30 30 30 30 30 30 30 30 30 30 30 30 30 30 30 30 30 30 30 30 30 30 30 30 30 30 30 30 30 30 30 30 30 30 30 30 30 30 30 30 30 30 30 30 30 30 30 30 30 30 30 245 157 223 245 157 223 245 157 223 245 157 223 245 157 223 245 157 223 245 157 223 245 157 223 245 157 223 245 157 223 245 157 223 245 157 223 245 157 223 245 157 223 245 157 223 245 157 223 245 157 223 245 157 223 245 157 223 245 157 223 245 157 223 245 157 223 245 157 223 245 157 223 245 157 223 245 157 223 245 157 223 245 157 223 245 157 223 245 157 223 245 157 223 245 157 223 245 157 223 245 157 223 245 157 223 245 157 223 245 157 223 245 157 223 245 157 223 245 157 223 245 157 223 245 157 223 245 157 223 245 157 223 245 157 223 245 157 223 245 157 223 245 157 223 245 157 223 245 157 223 
30 30 30 30 30 30 30 30 30 30 30 30 30 30 30 30 30 30 30 30 30 30 30 30 30 30 30 30 30 30 30 30 30 30 30 30 30 30 30 30 30 30 30 30 30 30 30 30 30 30 30 30 30 30 30 30 30 30 30 30 30 30 30 30 30 30 30 30 30 30 30 30 30 30 30 30 30 30 30 30 30 30 30 30 30 30 30 30 30 30 30 30 30 30 30 30 30 30 30 30 30 30 30 30 30 30 30 30 30 30 30 30 30 30 30 30 30 30 30 30 30 30 30 30 30 30 30 30 30 30 30 30 30 30 30 30 30 30 30 30 30 30 30 30 30 30 30 30 30 30 245 157 223 245 157 223 245 157 223 245 157 223 245 157 223 245 157 223 245 157 223 245 157 223 245 157 223 245 157 223 245 157 223 245 157 223 245 157 223 245 157 223 245 157 223 245 157 223 245 157 223 245 157 223 245 157 223 245 157 223 245 157 223 245 157 223 245 157 223 245 157 223 245 157 223 245 157 223 245 157 223 245 157 223 245 157 223 245 157 223 245 157 223 245 157 223 245 157 223 245 157 223 245 157 223 245 157 223 245 157 223 245 157 223 245 157 223 245 157 223 245 157 223 245 157 223 245 157 223 245 157 223 245 157 223 245 157 223 245 157 223 245 157 223 245 157 223 245 157 223 
30 30 30 30 30 30 30 30 30 30 30 30 30 30 30 30 30 30 30 30 30 30 30 30 30 30 30 30 30 30 30 30 30 30 30 30 30 30 30 30 30 30 30 30 30 30 30 30 30 30 30 30 30 30 30 30 30 30 30 30 30 30 30 30 30 30 30 30 30 30 30 30 30 30 30 30 30 30 30 30 30 30 30 30 30 30 30 30 30 30 30 30 30 30 30 30 30 30 30 30 30 30 30 30 30 30 30 30 30 30 30 30 30 30 30 30 30 30 30 30 30 30 30 30 30 30 30 30 30 30 30 30 30 30 30 30 30 30 30 30 30 30 30 30 30 30 30 30 30 30 245 157 223 245 157 223 245 157 223 245 157 223 245 157 223 245 157 223 245 157 223 245 157 223 245 157 223 245 157 223 245 157 223 245 157 223 245 157 223 245 157 223 245 157 223 245 157 223 245 157 223 245 157 223 245 157 223 245 157 223 245 157 223 245 157 223 245 157 223 245 157 223 245 157 223 245 157 223 245 157 223 245 157 223 245 157 223 245 157 223 245 157 223 245 157 223 245 157 223 245 157 223 245 157 223 245 157 223 245 157 223 245 157 223 245 157 223 245 157 223 245 157 223 245 157 223 245 157 223 245 157 223 245 157 223 245 157 223 245 157 223 245 157 223 245 157 223 245 157 223 
30 30 30 30 30 30 30 30 30 30 30 30 30 30 30 30 30 30 30 30 30 30 30 30 30 30 30 30 30 30 30 30 30 30 30 30 30 30 30 30 30 30 30 30 30 30 30 30 30 30 30 30 30 30 30 30 30 30 30 30 30 30 30 30 30 30 30 30 30 30 30 30 30 30 30 30 30 30 30 30 30 30 30 30 30 30 30 30 30 30 30 30 30 30 30 30 30 30 30 30 30 30 30 30 30 30 30 30 30 30 30 30 30 30 30 30 30 30 30 30 30 30 30 30 30 30 30 30 30 30 30 30 30 30 30 30 30 30 30 30 30 30 30 30 30 30 30 30 30 30 245 157 223 245 157 223 245 157 223 245 157 223 245 157 223 245 157 223 245 157 223 245 157 223 245 157 223 245 157 223 245 157 223 245 157 223 245 157 223 245 157 223 245 157 223 245 157 223 245 157 223 245 157 223 245 157 223 245 157 223 245 157 223 245 157 223 245 157 223 245 157 223 245 157 223 245 157 223 245 157 223 245 157 223 245 157 223 245 157 223 245 157 223 245 157 223 245 157 223 245 157 223 245 157 223 245 157 223 245 157 223 245 157 223 245 157 223 245 157 223 245 157 223 245 157 223 245 157 223 245 157 223 245 157 223 245 157 223 245 157 223 245 157 223 245 157 223 245 157 223 
30 30 30 30 30 30 30 30 30 30 30 30 30 30 30 30 30 30 30 30 30 30 30 30 30 30 30 30 30 30 30 30 30 30 30 30 30 30 30 30 30 30 30 30 30 30 30 30 30 30 30 30 30 30 30 30 30 30 30 30 30 30 30 30 30 30 30 30 30 30 30 30 30 30 30 30 30 30 30 30 30 30 30 30 30 30 30 30 30 30 30 30 30 30 30 30 30 30 30 30 30 30 30 30 30 30 30 30 30 30 30 30 30 30 30 30 30 30 30 30 30 30 30 30 30 30 30 30 30 30 30 30 30 30 30 30 30 30 30 30 30 30 30 30 30 30 30 30 30 30 245 157 223 245 157 223 245 157 223 245 157 223 245 157 223 245 157 223 245 157 223 245 157 223 245 157 223 245 157 223 245 157 223 245 157 223 245 157 223 245 157 223 245 157 223 245 157 223 245 157 223 245 157 223 245 157 223 245 157 223 245 157 223 245 157 223 245 157 223 245 157 223 245 157 223 245 157 223 245 157 223 245 157 223 245 157 223 245 157 223 245 157 223 245 157 223 245 157 223 245 157 223 245 157 223 245 157 223 245 157 223 245 157 223 245 157 223 245 157 223 245 157 223 245 157 223 245 157 223 245 157 223 245 157 223 245 157 223 245 157 223 245 157 223 245 157 223 245 157 223 
30 30 30 30 30 30 30 30 30 30 30 30 30 30 30 30 30 30 30 30 30 30 30 30 30 30 30 30 30 30 30 30 30 30 30 30 30 30 30 30 30 30 30 30 30 30 30 30 30 30 30 30 30 30 30 30 30 30 30 30 30 30 30 30 30 30 30 30 30 30 30 30 30 30 30 30 30 30 30 30 30 30 30 30 30 30 30 30 30 30 30 30 30 30 30 30 30 30 30 30 30 30 30 30 30 30 30 30 30 30 30 30 30 30 30 30 30 30 30 30 30 30 30 30 30 30 30 30 30 30 30 30 30 30 30 30 30 30 30 30 30 30 30 30 30 30 30 30 30 30 245 157 223 245 157 223 245 157 223 245 157 223 245 157 223 245 157 223 245 157 223 245 157 223 245 157 223 245 157 223 245 157 223 245 157 223 245 157 223 245 157 223 245 157 223 245 157 223 245 157 223 245 157 223 245 157 223 245 157 223 245 157 223 245 157 223 245 157 223 245 157 223 245 157 223 245 157 223 245 157 223 245 157 223 245 157 223 245 157 223 245 157 223 245 157 223 245 157 223 245 157 223 245 157 223 245 157 223 245 157 223 245 157 223 245 157 223 245 157 223 245 157 223 245 157 223 245 157 223 245 157 223 245 157 223 245 157 223 245 157 223 245 157 223 245 157 223 245 157 223 
30 30 30 30 30 30 30 30 30 30 30 30 30 30 30 30 30 30 30 30 30 30 30 30 30 30 30 30 30 30 30 30 30 30 30 30 30 30 30 30 30 30 30 30 30 30 30 30 30 30 30 30 30 30 30 30 30 30 30 30 30 30 30 30 30 30 30 30 30 30 30 30 30 30 30 30 30 30 30 30 30 30 30 30 30 30 30 30 30 30 30 30 30 30 30 30 30 30 30 30 30 30 30 30 30 30 30 30 30 30 30 30 30 30 30 30 30 30 30 30 30 30 30 30 30 30 30 30 30 30 30 30 30 30 30 30 30 30 30 30 30 30 30 30 30 30 30 30 30 30 245 157 223 245 157 223 245 157 223 245 157 223 245 157 223 245 157 223 245 157 223 245 157 223 245 157 223 245 157 223 245 157 223 245 157 223 245 157 223 245 157 223 245 157 223 245 157 223 245 157 223 245 157 223 245 157 223 245 157 223 245 157 223 245 157 223 245 157 223 245 157 223 245 157 223 245 157 223 245 157 223 245 157 223 245 157 223 245 157 223 245 157 223 245 157 223 245 157 223 245 157 223 245 157 223 245 157 223 245 157 223 245 157 223 245 157 223 245 157 223 245 157 223 245 157 223 245 157 223 245 157 223 245 157 223 245 157 223 245 157 223 245 157 223 245 157 223 245 157 223 
30 30 30 30 30 30 30 30 30 30 30 30 30 30 30 30 30 30 30 30 30 30 30 30 30 30 30 30 30 30 30 30 30 30 30 30 30 30 30 30 30 30 30 30 30 30 30 30 30 30 30 30 30 30 30 30 30 30 30 30 30 30 30 30 30 30 30 30 30 30 30 30 30 30 30 30 30 30 30 30 30 30 30 30 30 30 30 30 30 30 30 30 30 30 30 30 30 30 30 30 30 30 30 30 30 30 30 30 30 30 30 30 30 30 30 30 30 30 30 30 30 30 30 30 30 30 30 30 30 30 30 30 30 30 30 30 30 30 30 30 30 30 30 30 30 30 30 30 30 30 245 157 223 245 157 223 245 157 223 245 157 223 245 157 223 245 157 223 245 157 223 245 157 223 245 157 223 245 157 223 245 157 223 245 157 223 245 157 223 245 157 223 245 157 223 245 157 223 245 157 223 245 157 223 245 157 223 245 157 223 245 157 223 245 157 223 245 157 223 245 157 223 245 157 223 245 157 223 245 157 223 245 157 223 245 157 223 245 157 223 245 157 223 245 157 223 245 157 223 245 157 223 245 157 223 245 157 223 245 157 223 245 157 223 245 157 223 245 157 223 245 157 223 245 157 223 245 157 223 245 157 223 245 157 223 245 157 223 245 157 223 245 157 223 245 157 223 245 157 223 
30 30 30 30 30 30 30 30 30 30 30 30 30 30 30 30 30 30 30 30 30 30 30 30 30 30 30 30 30 30 30 30 30 30 30 30 30 30 30 30 30 30 30 30 30 30 30 30 30 30 30 30 30 30 30 30 30 30 30 30 30 30 30 30 30 30 30 30 30 30 30 30 30 30 30 30 30 30 30 30 30 30 30 30 30 30 30 30 30 30 30 30 30 30 30 30 30 30 30 30 30 30 30 30 30 30 30 30 30 30 30 30 30 30 30 30 30 30 30 30 30 30 30 30 30 30 30 30 30 30 30 30 30 30 30 30 30 30 30 30 30 30 30 30 30 30 30 30 30 30 245 157 223 245 157 223 245 157 223 245 157 223 245 157 223 245 157 223 245 157 223 245 157 223 245 157 223 245 157 223 245 157 223 245 157 223 245 157 223 245 157 223 245 157 223 245 157 223 245 157 223 245 157 223 245 157 223 245 157 223 245 157 223 245 157 223 245 157 223 245 157 223 245 157 223 245 157 223 245 157 223 245 157 223 245 157 223 245 157 223 245 157 223 245 157 223 245 157 223 245 157 223 245 157 223 245 157 223 245 157 223 245 157 223 245 157 223 245 157 223 245 157 223 245 157 223 245 157 223 245 157 223 245 157 223 245 157 223 245 157 223 245 157 223 245 157 223 245 157 223 
30 30 30 30 30 30 30 30 30 30 30 30 30 30 30 30 30 30 30 30 30 30 30 30 30 30 30 30 30 30 30 30 30 30 30 30 30 30 30 30 30 30 30 30 30 30 30 30 30 30 30 30 30 30 30 30 30 30 30 30 30 30 30 30 30 30 30 30 30 30 30 30 30 30 30 30 30 30 30 30 30 30 30 30 30 30 30 30 30 30 30 30 30 30 30 30 30 30 30 30 30 30 30 30 30 30 30 30 30 30 30 30 30 30 30 30 30 30 30 30 30 30 30 30 30 30 30 30 30 30 30 30 30 30 30 30 30 30 30 30 30 30 30 30 30 30 30 30 30 30 245 157 223 245 157 223 245 157 223 245 157 223 245 157 223 245 157 223 245 157 223 245 157 223 245 157 223 245 157 223 245 157 223 245 157 223 245 157 223 245 157 223 245 157 223 245 157 223 245 157 223 245 157 223 245 157 223 245 157 223 245 157 223 245 157 223 245 157 223 245 157 223 245 157 223 245 157 223 245 157 223 245 157 223 245 157 223 245 157 223 245 157 223 245 157 223 245 157 223 245 157 223 245 157 223 245 157 223 245 157 223 245 157 223 245 157 223 245 157 223 245 157 223 245 157 223 245 157 223 245 157 223 245 157 223 245 157 223 245 157 223 245 157 223 245 157 223 245 157 223 
30 30 30 30 30 30 30 30 30 30 30 30 30 30 30 30 30 30 30 30 30 30 30 30 30 30 30 30 30 30 30 30 30 30 30 30 30 30 30 30 30 30 30 30 30 30 30 30 30 30 30 30 30 30 30 30 30 30 30 30 30 30 30 30 30 30 30 30 30 30 30 30 30 30 30 30 30 30 30 30 30 30 30 30 30 30 30 30 30 30 30 30 30 30 30 30 30 30 30 30 30 30 30 30 30 30 30 30 30 30 30 30 30 30 30 30 30 30 30 30 30 30 30 30 30 30 30 30 30 30 30 30 30 30 30 30 30 30 30 30 30 30 30 30 30 30 30 30 30 30 245 157 223 245 157 223 245 157 223 245 157 223 245 157 223 245 157 223 245 157 223 245 157 223 245 157 223 245 157 223 245 157 223 245 157 223 245 157 223 245 157 223 245 157 223 245 157 223 245 157 223 245 157 223 245 157 223 245 157 223 245 157 223 245 157 223 245 157 223 245 157 223 245 157 223 245 157 223 245 157 223 245 157 223 245 157 223 245 157 223 245 157 223 245 157 223 245 157 223 245 157 223 245 157 223 245 157 223 245 157 223 245 157 223 245 157 223 245 157 223 245 157 223 245 157 223 245 157 223 245 157 223 245 157 223 245 157 223 245 157 223 245 157 223 245 157 223 245 157 223 
30 30 30 30 30 30 30 30 30 30 30 30 30 30 30 30 30 30 30 30 30 30 30 30 30 30 30 30 30 30 30 30 30 30 30 30 30 30 30 30 30 30 30 30 30 30 30 30 30 30 30 30 30 30 30 30 30 30 30 30 30 30 30 30 30 30 30 30 30 30 30 30 30 30 30 30 30 30 30 30 30 30 30 30 30 30 30 30 30 30 30 30 30 30 30 30 30 30 30 30 30 30 30 30 30 30 30 30 30 30 30 30 30 30 30 30 30 30 30 30 30 30 30 30 30 30 30 30 30 30 30 30 30 30 30 30 30 30 30 30 30 30 30 30 30 30 30 30 30 30 245 157 223 245 157 223 245 157 223 245 157 223 245 157 223 245 157 223 245 157 223 245 157 223 245 157 223 245 157 223 245 157 223 245 157 223 245 157 223 245 157 223 245 157 223 245 157 223 245 157 223 245 157 223 245 157 223 245 157 223 245 157 223 245 157 223 245 157 223 245 157 223 245 157 223 245 157 223 245 157 223 245 157 223 245 157 223 245 157 223 245 157 223 245 157 223 245 157 223 245 157 223 245 157 223 245 157 223 245 157 223 245 157 223 245 157 223 245 157 223 245 157 223 245 157 223 245 157 223 245 157 223 245 157 223 245 157 223 245 157 223 245 157 223 245 157 223 245 157 223 
30 30 30 30 30 30 30 30 30 30 30 30 30 30 30 30 30 30 30 30 30 30 30 30 30 30 30 30 30 30 30 30 30 30 30 30 30 30 30 30 30 30 30 30 30 30 30 30 30 30 30 30 30 30 30 30 30 30 30 30 30 30 30 30 30 30 30 30 30 30 30 30 30 30 30 30 30 30 30 30 30 30 30 30 30 30 30 30 30 30 30 30 30 30 30 30 30 30 30 30 30 30 30 30 30 30 30 30 30 30 30 30 30 30 30 30 30 30 30 30 30 30 30 30 30 30 30 30 30 30 30 30 30 30 30 30 30 30 30 30 30 30 30 30 30 30 30 30 30 30 245 157 223 245 157 223 245 157 223 245 157 223 245 157 223 245 157 223 245 157 223 245 157 223 245 157 223 245 157 223 245 157 223 245 157 223 245 157 223 245 157 223 245 157 223 245 157 223 245 157 223 245 157 223 245 157 223 245 157 223 245 157 223 245 157 223 245 157 223 245 157 223 245 157 223 245 157 223 245 157 223 245 157 223 245 157 223 245 157 223 245 157 223 245 157 223 245 157 223 245 157 223 245 157 223 245 157 223 245 157 223 245 157 223 245 157 223 245 157 223 245 157 223 245 157 223 245 157 223 245 157 223 245 157 223 245 157 223 245 157 223 245 157 223 245 157 223 245 157 223 
30 30 30 30 30 30 30 30 30 30 30 30 30 30 30 30 30 30 30 30 30 30 30 30 30 30 30 30 30 30 30 30 30 30 30 30 30 30 30 30 30 30 30 30 30 30 30 30 30 30 30 30 30 30 30 30 30 30 30 30 30 30 30 30 30 30 30 30 30 30 30 30 30 30 30 30 30 30 30 30 30 30 30 30 30 30 30 30 30 30 30 30 30 30 30 30 30 30 30 30 30 30 30 30 30 30 30 30 30 30 30 30 30 30 30 30 30 30 30 30 30 30 30 30 30 30 30 30 30 30 30 30 30 30 30 30 30 30 30 30 30 30 30 30 30 30 30 30 30 30 245 157 223 245 157 223 245 157 223 245 157 223 245 157 223 245 157 223 245 157 223 245 157 223 245 157 223 245 157 223 245 157 223 245 157 223 245 157 223 245 157 223 245 157 223 245 157 223 245 157 223 245 157 223 245 157 223 245 157 223 245 157 223 245 157 223 245 157 223 245 157 223 245 157 223 245 157 223 245 157 223 245 157 223 245 157 223 245 157 223 245 157 223 245 157 223 245 157 223 245 157 223 245 157 223 245 157 223 245 157 223 245 157 223 245 157 223 245 157 223 245 157 223 245 157 223 245 157 223 245 157 223 245 157 223 245 157 223 245 157 223 245 157 223 245 157 223 245 157 223 
30 30 30 30 30 30 30 30 30 30 30 30 30 30 30 30 30 30 30 30 30 30 30 30 30 30 30 30 30 30 30 30 30 30 30 30 30 30 30 30 30 30 30 30 30 30 30 30 30 30 30 30 30 30 30 30 30 30 30 30 30 30 30 30 30 30 30 30 30 30 30 30 30 30 30 30 30 30 30 30 30 30 30 30 30 30 30 30 30 30 30 30 30 30 30 30 30 30 30 30 30 30 30 30 30 30 30 30 30 30 30 30 30 30 30 30 30 30 30 30 30 30 30 30 30 30 30 30 30 30 30 30 30 30 30 30 30 30 30 30 30 30 30 30 30 30 30 30 30 30 245 157 223 245 157 223 245 157 223 245 157 223 245 157 223 245 157 223 245 157 223 245 157 223 245 157 223 245 157 223 245 157 223 245 157 223 245 157 223 245 157 223 245 157 223 245 157 223 245 157 223 245 157 223 245 157 223 245 157 223 245 157 223 245 157 223 245 157 223 245 157 223 245 157 223 245 157 223 245 157 223 245 157 223 245 157 223 245 157 223 245 157 223 245 157 223 245 157 223 245 157 223 245 157 223 245 157 223 245 157 223 245 157 223 245 157 223 245 157 223 245 157 223 245 157 223 245 157 223 245 157 223 245 157 223 245 157 223 245 157 223 245 157 223 245 157 223 245 157 223 
30 30 30 30 30 30 30 30 30 30 30 30 30 30 30 30 30 30 30 30 30 30 30 30 30 30 30 30 30 30 30 30 30 30 30 30 30 30 30 30 30 30 30 30 30 30 30 30 30 30 30 30 30 30 30 30 30 30 30 30 30 30 30 30 30 30 30 30 30 30 30 30 30 30 30 30 30 30 30 30 30 30 30 30 30 30 30 30 30 30 30 30 30 30 30 30 30 30 30 30 30 30 30 30 30 30 30 30 30 30 30 30 30 30 30 30 30 30 30 30 30 30 30 30 30 30 30 30 30 30 30 30 30 30 30 30 30 30 30 30 30 30 30 30 30 30 30 30 30 30 245 157 223 245 157 223 245 157 223 245 157 223 245 157 223 245 157 223 245 157 223 245 157 223 245 157 223 245 157 223 245 157 223 245 157 223 245 157 223 245 157 223 245 157 223 245 157 223 245 157 223 245 157 223 245 157 223 245 157 223 245 157 223 245 157 223 245 157 223 245 157 223 245 157 223 245 157 223 245 157 223 245 157 223 245 157 223 245 157 223 245 157 223 245 157 223 245 157 223 245 157 223 245 157 223 245 157 223 245 157 223 245 157 223 245 157 223 245 157 223 245 157 223 245 157 223 245 157 223 245 157 223 245 157 223 245 157 223 245 157 223 245 157 223 245 157 223 245 157 223 
30 30 30 30 30 30 30 30 30 30 30 30 30 30 30 30 30 30 30 30 30 30 30 30 30 30 30 30 30 30 30 30 30 30 30 30 30 30 30 30 30 30 30 30 30 30 30 30 30 30 30 30 30 30 30 30 30 30 30 30 30 30 30 30 30 30 30 30 30 30 30 30 30 30 30 30 30 30 30 30 30 30 30 30 30 30 30 30 30 30 30 30 30 30 30 30 30 30 30 30 30 30 30 30 30 30 30 30 30 30 30 30 30 30 30 30 30 30 30 30 30 30 30 30 30 30 30 30 30 30 30 30 30 30 30 30 30 30 30 30 30 30 30 30 30 30 30 30 30 30 245 157 223 245 157 223 245 157 223 245 157 223 245 157 223 245 157 223 245 157 223 245 157 223 245 157 223 245 157 223 245 157 223 245 157 223 245 157 223 245 157 223 245 157 223 245 157 223 245 157 223 245 157 223 245 157 223 245 157 223 245 157 223 245 157 223 245 157 223 245 157 223 245 157 223 245 157 223 245 157 223 245 157 223 245 157 223 245 157 223 245 157 223 245 157 223 245 157 223 245 157 223 245 157 223 245 157 223 245 157 223 245 157 223 245 157 223 245 157 223 245 157 223 245 157 223 245 157 223 245 157 223 245 157 223 245 157 223 245 157 223 245 157 223 245 157 223 245 157 223 
30 30 30 30 30 30 30 30 30 30 30 30 30 30 30 30 30 30 30 30 30 30 30 30 30 30 30 30 30 30 30 30 30 30 30 30 30 30 30 30 30 30 30 30 30 30 30 30 30 30 30 30 30 30 30 30 30 30 30 30 30 30 30 30 30 30 30 30 30 30 30 30 30 30 30 30 30 30 30 30 30 30 30 30 30 30 30 30 30 30 30 30 30 30 30 30 30 30 30 30 30 30 30 30 30 30 30 30 30 30 30 30 30 30 30 30 30 30 30 30 30 30 30 30 30 30 30 30 30 30 30 30 30 30 30 30 30 30 30 30 30 30 30 30 30 30 30 30 30 30 245 157 223 245 157 223 245 157 223 245 157 223 245 157 223 245 157 223 245 157 223 245 157 223 245 157 223 245 157 223 245 157 223 245 157 223 245 157 223 245 157 223 245 157 223 245 157 223 245 157 223 245 157 223 245 157 223 245 157 223 245 157 223 245 157 223 245 157 223 245 157 223 245 157 223 245 157 223 245 157 223 245 157 223 245 157 223 245 157 223 245 157 223 245 157 223 245 157 223 245 157 223 245 157 223 245 157 223 245 157 223 245 157 223 245 157 223 245 157 223 245 157 223 245 157 223 245 157 223 245 157 223 245 157 223 245 157 223 245 157 223 245 157 223 245 157 223 245 157 223 
30 30 30 30 30 30 30 30 30 30 30 30 30 30 30 30 30 30 30 30 30 30 30 30 30 30 30 30 30 30 30 30 30 30 30 30 30 30 30 30 30 30 30 30 30 30 30 30 30 30 30 30 30 30 30 30 30 30 30 30 30 30 30 30 30 30 30 30 30 30 30 30 30 30 30 30 30 30 30 30 30 30 30 30 30 30 30 30 30 30 30 30 30 30 30 30 30 30 30 30 30 30 30 30 30 30 30 30 30 30 30 30 30 30 30 30 30 30 30 30 30 30 30 30 30 30 30 30 30 30 30 30 30 30 30 30 30 30 30 30 30 30 30 30 30 30 30 30 30 30 245 157 223 245 157 223 245 157 223 245 157 223 245 157 223 245 157 223 245 157 223 245 157 223 245 157 223 245 157 223 245 157 223 245 157 223 245 157 223 245 157 223 245 157 223 245 157 223 245 157 223 245 157 223 245 157 223 245 157 223 245 157 223 245 157 223 245 157 223 245 157 223 245 157 223 245 157 223 245 157 223 245 157 223 245 157 223 245 157 223 245 157 223 245 157 223 245 157 223 245 157 223 245 157 223 245 157 223 245 157 223 245 157 223 245 157 223 245 157 223 245 157 223 245 157 223 245 157 223 245 157 223 245 157 223 245 157 223 245 157 223 245 157 223 245 157 223 245 157 223 
30 30 30 30 30 30 30 30 30 30 30 30 30 30 30 30 30 30 30 30 30 30 30 30 30 30 30 30 30 30 30 30 30 30 30 30 30 30 30 30 30 30 30 30 30 30 30 30 30 30 30 30 30 30 30 30 30 30 30 30 30 30 30 30 30 30 30 30 30 30 30 30 30 30 30 30 30 30 30 30 30 30 30 30 30 30 30 30 30 30 30 30 30 30 30 30 30 30 30 30 30 30 30 30 30 30 30 30 30 30 30 30 30 30 30 30 30 30 30 30 30 30 30 30 30 30 30 30 30 30 30 30 30 30 30 30 30 30 30 30 30 30 30 30 30 30 30 30 30 30 245 157 223 245 157 223 245 157 223 245 157 223 245 157 223 245 157 223 245 157 223 245 157 223 245 157 223 245 157 223 245 157 223 245 157 223 245 157 223 245 157 223 245 157 223 245 157 223 245 157 223 245 157 223 245 157 223 245 157 223 245 157 223 245 157 223 245 157 223 245 157 223 245 157 223 245 157 223 245 157 223 245 157 223 245 157 223 245 157 223 245 157 223 245 157 223 245 157 223 245 157 223 245 157 223 245 157 223 245 157 223 245 157 223 245 157 223 245 157 223 245 157 223 245 157 223 245 157 223 245 157 223 245 157 223 245 157 223 245 157 223 245 157 223 245 157 223 245 157 223 
30 30 30 30 30 30 30 30 30 30 30 30 30 30 30 30 30 30 30 30 30 30 30 30 30 30 30 30 30 30 30 30 30 30 30 30 30 30 30 30 30 30 30 30 30 30 30 30 30 30 30 30 30 30 30 30 30 30 30 30 30 30 30 30 30 30 30 30 30 30 30 30 30 30 30 30 30 30 30 30 30 30 30 30 30 30 30 30 30 30 30 30 30 30 30 30 30 30 30 30 30 30 30 30 30 30 30 30 30 30 30 30 30 30 30 30 30 30 30 30 30 30 30 30 30 30 30 30 30 30 30 30 30 30 30 30 30 30 30 30 30 30 30 30 30 30 30 30 30 30 245 157 223 245 157 223 245 157 223 245 157 223 245 157 223 245 157 223 245 157 223 245 157 223 245 157 223 245 157 223 245 157 223 245 157 223 245 157 223 245 157 223 245 157 223 245 157 223 245 157 223 245 157 223 245 157 223 245 157 223 245 157 223 245 157 223 245 157 223 245 157 223 245 157 223 245 157 223 245 157 223 245 157 223 245 157 223 245 157 223 245 157 223 245 157 223 245 157 223 245 157 223 245 157 223 245 157 223 245 157 223 245 157 223 245 157 223 245 157 223 245 157 223 245 157 223 245 157 223 245 157 223 245 157 223 245 157 223 245 157 223 245 157 223 245 157 223 245 157 223 
30 30 30 30 30 30 30 30 30 30 30 30 30 30 30 30 30 30 30 30 30 30 30 30 30 30 30 30 30 30 30 30 30 30 30 30 30 30 30 30 30 30 30 30 30 30 30 30 30 30 30 30 30 30 30 30 30 30 30 30 30 30 30 30 30 30 30 30 30 30 30 30 30 30 30 30 30 30 30 30 30 30 30 30 30 30 30 30 30 30 30 30 30 30 30 30 30 30 30 30 30 30 30 30 30 30 30 30 30 30 30 30 30 30 30 30 30 30 30 30 30 30 30 30 30 30 30 30 30 30 30 30 30 30 30 30 30 30 30 30 30 30 30 30 30 30 30 30 30 30 245 157 223 245 157 223 245 157 223 245 157 223 245 157 223 245 157 223 245 157 223 245 157 223 245 157 223 245 157 223 245 157 223 245 157 223 245 157 223 245 157 223 245 157 223 245 157 223 245 157 223 245 157 223 245 157 223 245 157 223 245 157 223 245 157 223 245 157 223 245 157 223 245 157 223 245 157 223 245 157 223 245 157 223 245 157 223 245 157 223 245 157 223 245 157 223 245 157 223 245 157 223 245 157 223 245 157 223 245 157 223 245 157 223 245 157 223 245 157 223 245 157 223 245 157 223 245 157 223 245 157 223 245 157 223 245 157 223 245 157 223 245 157 223 245 157 223 245 157 223 
30 30 30 30 30 30 30 30 30 30 30 30 30 30 30 30 30 30 30 30 30 30 30 30 30 30 30 30 30 30 30 30 30 30 30 30 30 30 30 30 30 30 30 30 30 30 30 30 30 30 30 30 30 30 30 30 30 30 30 30 30 30 30 30 30 30 30 30 30 30 30 30 30 30 30 30 30 30 30 30 30 30 30 30 30 30 30 30 30 30 30 30 30 30 30 30 30 30 30 30 30 30 30 30 30 30 30 30 30 30 30 30 30 30 30 30 30 30 30 30 30 30 30 30 30 30 30 30 30 30 30 30 30 30 30 30 30 30 30 30 30 30 30 30 30 30 30 30 30 30 245 157 223 245 157 223 245 157 223 245 157 223 245 157 223 245 157 223 245 157 223 245 157 223 245 157 223 245 157 223 245 157 223 245 157 223 245 157 223 245 157 223 245 157 223 245 157 223 245 157 223 245 157 223 245 157 223 245 157 223 245 157 223 245 157 223 245 157 223 245 157 223 245 157 223 245 157 223 245 157 223 245 157 223 245 157 223 245 157 223 245 157 223 245 157 223 245 157 223 245 157 223 245 157 223 245 157 223 245 157 223 245 157 223 245 157 223 245 157 223 245 157 223 245 157 223 245 157 223 245 157 223 245 157 223 245 157 223 245 157 223 245 157 223 245 157 223 245 157 223 
30 30 30 30 30 30 30 30 30 30 30 30 30 30 30 30 30 30 30 30 30 30 30 30 30 30 30 30 30 30 30 30 30 30 30 30 30 30 30 30 30 30 30 30 30 30 30 30 30 30 30 30 30 30 30 30 30 30 30 30 30 30 30 30 30 30 30 30 30 30 30 30 30 30 30 30 30 30 30 30 30 30 30 30 30 30 30 30 30 30 30 30 30 30 30 30 30 30 30 30 30 30 30 30 30 30 30 30 30 30 30 30 30 30 30 30 30 30 30 30 30 30 30 30 30 30 30 30 30 30 30 30 30 30 30 30 30 30 30 30 30 30 30 30 30 30 30 30 30 30 245 157 223 245 157 223 245 157 223 245 157 223 245 157 223 245 157 223 245 157 223 245 157 223 245 157 223 245 157 223 245 157 223 245 157 223 245 157 223 245 157 223 245 157 223 245 157 223 245 157 223 245 157 223 245 157 223 245 157 223 245 157 223 245 157 223 245 157 223 245 157 223 245 157 223 245 157 223 245 157 223 245 157 223 245 157 223 245 157 223 245 157 223 245 157 223 245 157 223 245 157 223 245 157 223 245 157 223 245 157 223 245 157 223 245 157 223 245 157 223 245 157 223 245 157 223 245 157 223 245 157 223 245 157 223 245 157 223 245 157 223 245 157 223 245 157 223 245 157 223 
30 30 30 30 30 30 30 30 30 30 30 30 30 30 30 30 30 30 30 30 30 30 30 30 30 30 30 30 30 30 30 30 30 30 30 30 30 30 30 30 30 30 30 30 30 30 30 30 30 30 30 30 30 30 30 30 30 30 30 30 30 30 30 30 30 30 30 30 30 30 30 30 30 30 30 30 30 30 30 30 30 30 30 30 30 30 30 30 30 30 30 30 30 30 30 30 30 30 30 30 30 30 30 30 30 30 30 30 30 30 30 30 30 30 30 30 30 30 30 30 30 30 30 30 30 30 30 30 30 30 30 30 30 30 30 30 30 30 30 30 30 30 30 30 30 30 30 30 30 30 245 157 223 245 157 223 245 157 223 245 157 223 245 157 223 245 157 223 245 157 223 245 157 223 245 157 223 245 157 223 245 157 223 245 157 223 245 157 223 245 157 223 245 157 223 245 157 223 245 157 223 245 157 223 245 157 223 245 157 223 245 157 223 245 157 223 245 157 223 245 157 223 245 157 223 245 157 223 245 157 223 245 157 223 245 157 223 245 157 223 245 157 223 245 157 223 245 157 223 245 157 223 245 157 223 245 157 223 245 157 223 245 157 223 245 157 223 245 157 223 245 157 223 245 157 223 245 157 223 245 157 223 245 157 223 245 157 223 245 157 223 245 157 223 245 157 223 245 157 223 
30 30 30 30 30 30 30 30 30 30 30 30 30 30 30 30 30 30 30 30 30 30 30 30 30 30 30 30 30 30 30 30 30 30 30 30 30 30 30 30 30 30 30 30 30 30 30 30 30 30 30 30 30 30 30 30 30 30 30 30 30 30 30 30 30 30 30 30 30 30 30 30 30 30 30 30 30 30 30 30 30 30 30 30 30 30 30 30 30 30 30 30 30 30 30 30 30 30 30 30 30 30 30 30 30 30 30 30 30 30 30 30 30 30 30 30 30 30 30 30 30 30 30 30 30 30 30 30 30 30 30 30 30 30 30 30 30 30 30 30 30 30 30 30 30 30 30 30 30 30 245 157 223 245 157 223 245 157 223 245 157 223 245 157 223 245 157 223 245 157 223 245 157 223 245 157 223 245 157 223 245 157 223 245 157 223 245 157 223 245 157 223 245 157 223 245 157 223 245 157 223 245 157 223 245 157 223 245 157 223 245 157 223 245 157 223 245 157 223 245 157 223 245 157 223 245 157 223 245 157 223 245 157 223 245 157 223 245 157 223 245 157 223 245 157 223 245 157 223 245 157 223 245 157 223 245 157 223 245 157 223 245 157 223 245 157 223 245 157 223 245 157 223 245 157 223 245 157 223 245 157 223 245 157 223 245 157 223 245 157 223 245 157 223 245 157 223 245 157 223 
30 30 30 30 30 30 30 30 30 30 30 30 30 30 30 30 30 30 30 30 30 30 30 30 30 30 30 30 30 30 30 30 30 30 30 30 30 30 30 30 30 30 30 30 30 30 30 30 30 30 30 30 30 30 30 30 30 30 30 30 30 30 30 30 30 30 30 30 30 30 30 30 30 30 30 30 30 30 30 30 30 30 30 30 30 30 30 30 30 30 30 30 30 30 30 30 30 30 30 30 30 30 30 30 30 30 30 30 30 30 30 30 30 30 30 30 30 30 30 30 30 30 30 30 30 30 30 30 30 30 30 30 30 30 30 30 30 30 30 30 30 30 30 30 30 30 30 30 30 30 245 157 223 245 157 223 245 157 223 245 157 223 245 157 223 245 157 223 245 157 223 245 157 223 245 157 223 245 157 223 245 157 223 245 157 223 245 157 223 245 157 223 245 157 223 245 157 223 245 157 223 245 157 223 245 157 223 245 157 223 245 157 223 245 157 223 245 157 223 245 157 223 245 157 223 245 157 223 245 157 223 245 157 223 245 157 223 245 157 223 245 157 223 245 157 223 245 157 223 245 157 223 245 157 223 245 157 223 245 157 223 245 157 223 245 157 223 245 157 223 245 157 223 245 157 223 245 157 223 245 157 223 245 157 223 245 157 223 245 157 223 245 157 223 245 157 223 245 157 223 
30 30 30 30 30 30 30 30 30 30 30 30 30 30 30 30 30 30 30 30 30 30 30 30 30 30 30 30 30 30 30 30 30 30 30 30 30 30 30 30 30 30 30 30 30 30 30 30 30 30 30 30 30 30 30 30 30 30 30 30 30 30 30 30 30 30 30 30 30 30 30 30 30 30 30 30 30 30 30 30 30 30 30 30 30 30 30 30 30 30 30 30 30 30 30 30 30 30 30 30 30 30 30 30 30 30 30 30 30 30 30 30 30 30 30 30 30 30 30 30 30 30 30 30 30 30 30 30 30 30 30 30 30 30 30 30 30 30 30 30 30 30 30 30 30 30 30 30 30 30 245 157 223 245 157 223 245 157 223 245 157 223 245 157 223 245 157 223 245 157 223 245 157 223 245 157 223 245 157 223 245 157 223 245 157 223 245 157 223 245 157 223 245 157 223 245 157 223 245 157 223 245 157 223 245 157 223 245 157 223 245 157 223 245 157 223 245 157 223 245 157 223 245 157 223 245 157 223 245 157 223 245 157 223 245 157 223 245 157 223 245 157 223 245 157 223 245 157 223 245 157 223 245 157 223 245 157 223 245 157 223 245 157 223 245 157 223 245 157 223 245 157 223 245 157 223 245 157 223 245 157 223 245 157 223 245 157 223 245 157 223 245 157 223 245 157 223 245 157 223 
30 30 30 30 30 30 30 30 30 30 30 30 30 30 30 30 30 30 30 30 30 30 30 30 30 30 30 30 30 30 30 30 30 30 30 30 30 30 30 30 30 30 30 30 30 30 30 30 30 30 30 30 30 30 30 30 30 30 30 30 30 30 30 30 30 30 30 30 30 30 30 30 30 30 30 30 30 30 30 30 30 30 30 30 30 30 30 30 30 30 30 30 30 30 30 30 30 30 30 30 30 30 30 30 30 30 30 30 30 30 30 30 30 30 30 30 30 30 30 30 30 30 30 30 30 30 30 30 30 30 30 30 30 30 30 30 30 30 30 30 30 30 30 30 30 30 30 30 30 30 245 157 223 245 157 223 245 157 223 245 157 223 245 157 223 245 157 223 245 157 223 245 157 223 245 157 223 245 157 223 245 157 223 245 157 223 245 157 223 245 157 223 245 157 223 245 157 223 245 157 223 245 157 223 245 157 223 245 157 223 245 157 223 245 157 223 245 157 223 245 157 223 245 157 223 245 157 223 245 157 223 245 157 223 245 157 223 245 157 223 245 157 223 245 157 223 245 157 223 245 157 223 245 157 223 245 157 223 245 157 223 245 157 223 245 157 223 245 157 223 245 157 223 245 157 223 245 157 223 245 157 223 245 157 223 245 157 223 245 157 223 245 157 223 245 157 223 245 157 223 
30 30 30 30 30 30 30 30 30 30 30 30 30 30 30 30 30 30 30 30 30 30 30 30 30 30 30 30 30 30 30 30 30 30 30 30 30 30 30 30 30 30 30 30 30 30 30 30 30 30 30 30 30 30 30 30 30 30 30 30 30 30 30 30 30 30 30 30 30 30 30 30 30 30 30 30 30 30 30 30 30 30 30 30 30 30 30 30 30 30 30 30 30 30 30 30 30 30 30 30 30 30 30 30 30 30 30 30 30 30 30 30 30 30 30 30 30 30 30 30 30 30 30 30 30 30 30 30 30 30 30 30 30 30 30 30 30 30 30 30 30 30 30 30 30 30 30 30 30 30 245 157 223 245 157 223 245 157 223 245 157 223 245 157 223 245 157 223 245 157 223 245 157 223 245 157 223 245 157 223 245 157 223 245 157 223 245 157 223 245 157 223 245 157 223 245 157 223 245 157 223 245 157 223 245 157 223 245 157 223 245 157 223 245 157 223 245 157 223 245 157 223 245 157 223 245 157 223 245 157 223 245 157 223 245 157 223 245 157 223 245 157 223 245 157 223 245 157 223 245 157 223 245 157 223 245 157 223 245 157 223 245 157 223 245 157 223 245 157 223 245 157 223 245 157 223 245 157 223 245 157 223 245 157 223 245 157 223 245 157 223 245 157 223 245 157 223 245 157 223 
30 30 30 30 30 30 30 30 30 30 30 30 30 30 30 30 30 30 30 30 30 30 30 30 30 30 30 30 30 30 30 30 30 30 30 30 30 30 30 30 30 30 30 30 30 30 30 30 30 30 30 30 30 30 30 30 30 30 30 30 30 30 30 30 30 30 30 30 30 30 30 30 30 30 30 30 30 30 30 30 30 30 30 30 30 30 30 30 30 30 30 30 30 30 30 30 30 30 30 30 30 30 30 30 30 30 30 30 30 30 30 30 30 30 30 30 30 30 30 30 30 30 30 30 30 30 30 30 30 30 30 30 30 30 30 30 30 30 30 30 30 30 30 30 30 30 30 30 30 30 245 157 223 245 157 223 245 157 223 245 157 223 245 157 223 245 157 223 245 157 223 245 157 223 245 157 223 245 157 223 245 157 223 245 157 223 245 157 223 245 157 223 245 157 223 245 157 223 245 157 223 245 157 223 245 157 223 245 157 223 245 157 223 245 157 223 245 157 223 245 157 223 245 157 223 245 157 223 245 157 223 245 157 223 245 157 223 245 157 223 245 157 223 245 157 223 245 157 223 245 157 223 245 157 223 245 157 223 245 157 223 245 157 223 245 157 223 245 157 223 245 157 223 245 157 223 245 157 223 245 157 223 245 157 223 245 157 223 245 157 223 245 157 223 245 157 223 245 157 223 
30 30 30 30 30 30 30 30 30 30 30 30 30 30 30 30 30 30 30 30 30 30 30 30 30 30 30 30 30 30 30 30 30 30 30 30 30 30 30 30 30 30 30 30 30 30 30 30 30 30 30 30 30 30 30 30 30 30 30 30 30 30 30 30 30 30 30 30 30 30 30 30 30 30 30 30 30 30 30 30 30 30 30 30 30 30 30 30 30 30 30 30 30 30 30 30 30 30 30 30 30 30 30 30 30 30 30 30 30 30 30 30 30 30 30 30 30 30 30 30 30 30 30 30 30 30 30 30 30 30 30 30 30 30 30 30 30 30 30 30 30 30 30 30 30 30 30 30 30 30 245 157 223 245 157 223 245 157 223 245 157 223 245 157 223 245 157 223 245 157 223 245 157 223 245 157 223 245 157 223 245 157 223 245 157 223 245 157 223 245 157 223 245 157 223 245 157 223 245 157 223 245 157 223 245 157 223 245 157 223 245 157 223 245 157 223 245 157 223 245 157 223 245 157 223 245 157 223 245 157 223 245 157 223 245 157 223 245 157 223 245 157 223 245 157 223 245 157 223 245 157 223 245 157 223 245 157 223 245 157 223 245 157 223 245 157 223 245 157 223 245 157 223 245 157 223 245 157 223 245 157 223 245 157 223 245 157 223 245 157 223 245 157 223 245 157 223 245 157 223 
30 30 30 30 30 30 30 30 30 30 30 30 30 30 30 30 30 30 30 30 30 30 30 30 30 30 30 30 30 30 30 30 30 30 30 30 30 30 30 30 30 30 30 30 30 30 30 30 30 30 30 30 30 30 30 30 30 30 30 30 30 30 30 30 30 30 30 30 30 30 30 30 30 30 30 30 30 30 30 30 30 30 30 30 30 30 30 30 30 30 30 30 30 30 30 30 30 30 30 30 30 30 30 30 30 30 30 30 30 30 30 30 30 30 30 30 30 30 30 30 30 30 30 30 30 30 30 30 30 30 30 30 30 30 30 30 30 30 30 30 30 30 30 30 30 30 30 30 30 30 245 157 223 245 157 223 245 157 223 245 157 223 245 157 223 245 157 223 245 157 223 245 157 223 245 157 223 245 157 223 245 157 223 245 157 223 245 157 223 245 157 223 245 157 223 245 157 223 245 157 223 245 157 223 245 157 223 245 157 223 245 157 223 245 157 223 245 157 223 245 157 223 245 157 223 245 157 223 245 157 223 245 157 223 245 157 223 245 157 223 245 157 223 245 157 223 245 157 223 245 157 223 245 157 223 245 157 223 245 157 223 245 157 223 245 157 223 245 157 223 245 157 223 245 157 223 245 157 223 245 157 223 245 157 223 245 157 223 245 157 223 245 157 223 245 157 223 245 157 223 
30 30 30 30 30 30 30 30 30 30 30 30 30 30 30 30 30 30 30 30 30 30 30 30 30 30 30 30 30 30 30 30 30 30 30 30 30 30 30 30 30 30 30 30 30 30 30 30 30 30 30 30 30 30 30 30 30 30 30 30 30 30 30 30 30 30 30 30 30 30 30 30 30 30 30 30 30 30 30 30 30 30 30 30 30 30 30 30 30 30 30 30 30 30 30 30 30 30 30 30 30 30 30 30 30 30 30 30 30 30 30 30 30 30 30 30 30 30 30 30 30 30 30 30 30 30 30 30 30 30 30 30 30 30 30 30 30 30 30 30 30 30 30 30 30 30 30 30 30 30 245 157 223 245 157 223 245 157 223 245 157 223 245 157 223 245 157 223 245 157 223 245 157 223 245 157 223 245 157 223 245 157 223 245 157 223 245 157 223 245 157 223 245 157 223 245 157 223 245 157 223 245 157 223 245 157 223 245 157 223 245 157 223 245 157 223 245 157 223 245 157 223 245 157 223 245 157 223 245 157 223 245 157 223 245 157 223 245 157 223 245 157 223 245 157 223 245 157 223 245 157 223 245 157 223 245 157 223 245 157 223 245 157 223 245 157 223 245 157 223 245 157 223 245 157 223 245 157 223 245 157 223 245 157 223 245 157 223 245 157 223 245 157 223 245 157 223 245 157 223 
30 30 30 30 30 30 30 30 30 30 30 30 30 30 30 30 30 30 30 30 30 30 30 30 30 30 30 30 30 30 30 30 30 30 30 30 30 30 30 30 30 30 30 30 30 30 30 30 30 30 30 30 30 30 30 30 30 30 30 30 30 30 30 30 30 30 30 30 30 30 30 30 30 30 30 30 30 30 30 30 30 30 30 30 30 30 30 30 30 30 30 30 30 30 30 30 30 30 30 30 30 30 30 30 30 30 30 30 30 30 30 30 30 30 30 30 30 30 30 30 30 30 30 30 30 30 30 30 30 30 30 30 30 30 30 30 30 30 30 30 30 30 30 30 30 30 30 30 30 30 245 157 223 245 157 223 245 157 223 245 157 223 245 157 223 245 157 223 245 157 223 245 157 223 245 157 223 245 157 223 245 157 223 245 157 223 245 157 223 245 157 223 245 157 223 245 157 223 245 157 223 245 157 223 245 157 223 245 157 223 245 157 223 245 157 223 245 157 223 245 157 223 245 157 223 245 157 223 245 157 223 245 157 223 245 157 223 245 157 223 245 157 223 245 157 223 245 157 223 245 157 223 245 157 223 245 157 223 245 157 223 245 157 223 245 157 223 245 157 223 245 157 223 245 157 223 245 157 223 245 157 223 245 157 223 245 157 223 245 157 223 245 157 223 245 157 223 245 157 223 
30 30 30 30 30 30 30 30 30 30 30 30 30 30 30 30 30 30 30 30 30 30 30 30 30 30 30 30 30 30 30 30 30 30 30 30 30 30 30 30 30 30 30 30 30 30 30 30 30 30 30 30 30 30 30 30 30 30 30 30 30 30 30 30 30 30 30 30 30 30 30 30 30 30 30 30 30 30 30 30 30 30 30 30 30 30 30 30 30 30 30 30 30 30 30 30 30 30 30 30 30 30 30 30 30 30 30 30 30 30 30 30 30 30 30 30 30 30 30 30 30 30 30 30 30 30 30 30 30 30 30 30 30 30 30 30 30 30 30 30 30 30 30 30 30 30 30 30 30 30 245 157 223 245 157 223 245 157 223 245 157 223 245 157 223 245 157 223 245 157 223 245 157 223 245 157 223 245 157 223 245 157 223 245 157 223 245 157 223 245 157 223 245 157 223 245 157 223 245 157 223 245 157 223 245 157 223 245 157 223 245 157 223 245 157 223 245 157 223 245 157 223 245 157 223 245 157 223 245 157 223 245 157 223 245 157 223 245 157 223 245 157 223 245 157 223 245 157 223 245 157 223 245 157 223 245 157 223 245 157 223 245 157 223 245 157 223 245 157 223 245 157 223 245 157 223 245 157 223 245 157 223 245 157 223 245 157 223 245 157 223 245 157 223 245 157 223 245 157 223 
30 30 30 30 30 30 30 30 30 30 30 30 30 30 30 30 30 30 30 30 30 30 30 30 30 30 30 30 30 30 30 30 30 30 30 30 30 30 30 30 30 30 30 30 30 30 30 30 30 30 30 30 30 30 30 30 30 30 30 30 30 30 30 30 30 30 30 30 30 30 30 30 30 30 30 30 30 30 30 30 30 30 30 30 30 30 30 30 30 30 30 30 30 30 30 30 30 30 30 30 30 30 30 30 30 30 30 30 30 30 30 30 30 30 30 30 30 30 30 30 30 30 30 30 30 30 30 30 30 30 30 30 30 30 30 30 30 30 30 30 30 30 30 30 30 30 30 30 30 30 245 157 223 245 157 223 245 157 223 245 157 223 245 157 223 245 157 223 245 157 223 245 157 223 245 157 223 245 157 223 245 157 223 245 157 223 245 157 223 245 157 223 245 157 223 245 157 223 245 157 223 245 157 223 245 157 223 245 157 223 245 157 223 245 157 223 245 157 223 245 157 223 245 157 223 245 157 223 245 157 223 245 157 223 245 157 223 245 157 223 245 157 223 245 157 223 245 157 223 245 157 223 245 157 223 245 157 223 245 157 223 245 157 223 245 157 223 245 157 223 245 157 223 245 157 223 245 157 223 245 157 223 245 157 223 245 157 223 245 157 223 245 157 223 245 157 223 245 157 223 
30 30 30 30 30 30 30 30 30 30 30 30 30 30 30 30 30 30 30 30 30 30 30 30 30 30 30 30 30 30 30 30 30 30 30 30 30 30 30 30 30 30 30 30 30 30 30 30 30 30 30 30 30 30 30 30 30 30 30 30 30 30 30 30 30 30 30 30 30 30 30 30 30 30 30 30 30 30 30 30 30 30 30 30 30 30 30 30 30 30 30 30 30 30 30 30 30 30 30 30 30 30 30 30 30 30 30 30 30 30 30 30 30 30 30 30 30 30 30 30 30 30 30 30 30 30 30 30 30 30 30 30 30 30 30 30 30 30 30 30 30 30 30 30 30 30 30 30 30 30 245 157 223 245 157 223 245 157 223 245 157 223 245 157 223 245 157 223 245 157 223 245 157 223 245 157 223 245 157 223 245 157 223 245 157 223 245 157 223 245 157 223 245 157 223 245 157 223 245 157 223 245 157 223 245 157 223 245 157 223 245 157 223 245 157 223 245 157 223 245 157 223 245 157 223 245 157 223 245 157 223 245 157 223 245 157 223 245 157 223 245 157 223 245 157 223 245 157 223 245 157 223 245 157 223 245 157 223 245 157 223 245 157 223 245 157 223 245 157 223 245 157 223 245 157 223 245 157 223 245 157 223 245 157 223 245 157 223 245 157 223 245 157 223 245 157 223 245 157 223 
30 30 30 30 30 30 30 30 30 30 30 30 30 30 30 30 30 30 30 30 30 30 30 30 30 30 30 30 30 30 30 30 30 30 30 30 30 30 30 30 30 30 30 30 30 30 30 30 30 30 30 30 30 30 30 30 30 30 30 30 30 30 30 30 30 30 30 30 30 30 30 30 30 30 30 30 30 30 30 30 30 30 30 30 30 30 30 30 30 30 30 30 30 30 30 30 30 30 30 30 30 30 30 30 30 30 30 30 30 30 30 30 30 30 30 30 30 30 30 30 30 30 30 30 30 30 30 30 30 30 30 30 30 30 30 30 30 30 30 30 30 30 30 30 30 30 30 30 30 30 245 157 223 245 157 223 245 157 223 245 157 223 245 157 223 245 157 223 245 157 223 245 157 223 245 157 223 245 157 223 245 157 223 245 157 223 245 157 223 245 157 223 245 157 223 245 157 223 245 157 223 245 157 223 245 157 223 245 157 223 245 157 223 245 157 223 245 157 223 245 157 223 245 157 223 245 157 223 245 157 223 245 157 223 245 157 223 245 157 223 245 157 223 245 157 223 245 157 223 245 157 223 245 157 223 245 157 223 245 157 223 245 157 223 245 157 223 245 157 223 245 157 223 245 157 223 245 157 223 245 157 223 245 157 223 245 157 223 245 157 223 245 157 223 245 157 223 245 157 223 
245 157 223 245 157 223 245 157 223 245 157 223 245 157 223 245 157 223 245 157 223 245 157 223 245 157 223 245 157 223 245 157 223 245 157 223 245 157 223 245 157 223 245 157 223 245 157 223 245 157 223 245 157 223 245 157 223 245 157 223 245 157 223 245 157 223 245 157 223 245 157 223 245 157 223 245 157 223 245 157 223 245 157 223 245 157 223 245 157 223 245 157 223 245 157 223 245 157 223 245 157 223 245 157 223 245 157 223 245 157 223 245 157 223 245 157 223 245 157 223 245 157 223 245 157 223 245 157 223 245 157 223 245 157 223 245 157 223 245 157 223 245 157 223 245 157 223 245 157 223 30 30 30 30 30 30 30 30 30 30 30 30 30 30 30 30 30 30 30 30 30 30 30 30 30 30 30 30 30 30 30 30 30 30 30 30 30 30 30 30 30 30 30 30 30 30 30 30 30 30 30 30 30 30 30 30 30 30 30 30 30 30 30 30 30 30 30 30 30 30 30 30 30 30 30 30 30 30 30 30 30 30 30 30 30 30 30 30 30 30 30 30 30 30 30 30 30 30 30 30 30 30 30 30 30 30 30 30 30 30 30 30 30 30 30 30 30 30 30 30 30 30 30 30 30 30 30 30 30 30 30 30 30 30 30 30 30 30 30 30 30 30 30 30 30 30 30 30 30 30 
245 157 223 245 157 223 245 157 223 245 157 223 245 157 223 245 157 223 245 157 223 245 157 223 245 157 223 245 157 223 245 157 223 245 157 223 245 157 223 245 157 223 245 157 223 245 157 223 245 157 223 245 157 223 245 157 223 245 157 223 245 157 223 245 157 223 245 157 223 245 157 223 245 157 223 245 157 223 245 157 223 245 157 223 245 157 223 245 157 223 245 157 223 245 157 223 245 157 223 245 157 223 245 157 223 245 157 223 245 157 223 245 157 223 245 157 223 245 157 223 245 157 223 245 157 223 245 157 223 245 157 223 245 157 223 245 157 223 245 157 223 245 157 223 245 157 223 245 157 223 30 30 30 30 30 30 30 30 30 30 30 30 30 30 30 30 30 30 30 30 30 30 30 30 30 30 30 30 30 30 30 30 30 30 30 30 30 30 30 30 30 30 30 30 30 30 30 30 30 30 30 30 30 30 30 30 30 30 30 30 30 30 30 30 30 30 30 30 30 30 30 30 30 30 30 30 30 30 30 30 30 30 30 30 30 30 30 30 30 30 30 30 30 30 30 30 30 30 30 30 30 30 30 30 30 30 30 30 30 30 30 30 30 30 30 30 30 30 30 30 30 30 30 30 30 30 30 30 30 30 30 30 30 30 30 30 30 30 30 30 30 30 30 30 30 30 30 30 30 30 
245 157 223 245 157 223 245 157 223 245 157 223 245 157 223 245 157 223 245 157 223 245 157 223 245 157 223 245 157 223 245 157 223 245 157 223 245 157 223 245 157 223 245 157 223 245 157 223 245 157 223 245 157 223 245 157 223 245 157 223 245 157 223 245 157 223 245 157 223 245 157 223 245 157 223 245 157 223 245 157 223 245 157 223 245 157 223 245 157 223 245 157 223 245 157 223 245 157 223 245 157 223 245 157 223 245 157 223 245 157 223 245 157 223 245 157 223 245 157 223 245 157 223 245 157 223 245 157 223 245 157 223 245 157 223 245 157 223 245 157 223 245 157 223 245 157 223 245 157 223 30 30 30 30 30 30 30 30 30 30 30 30 30 30 30 30 30 30 30 30 30 30 30 30 30 30 30 30 30 30 30 30 30 30 30 30 30 30 30 30 30 30 30 30 30 30 30 30 30 30 30 30 30 30 30 30 30 30 30 30 30 30 30 30 30 30 30 30 30 30 30 30 30 30 30 30 30 30 30 30 30 30 30 30 30 30 30 30 30 30 30 30 30 30 30 30 30 30 30 30 30 30 30 30 30 30 30 30 30 30 30 30 30 30 30 30 30 30 30 30 30 30 30 30 30 30 30 30 30 30 30 30 30 30 30 30 30 30 30 30 30 30 30 30 30 30 30 30 30 30 
245 157 223 245 157 223 245 157 223 245 157 223 245 157 223 245 157 223 245 157 223 245 157 223 245 157 223 245 157 223 245 157 223 245 157 223 245 157 223 245 157 223 245 157 223 245 157 223 245 157 223 245 157 223 245 157 223 245 157 223 245 157 223 245 157 223 245 157 223 245 157 223 245 157 223 245 157 223 245 157 223 245 157 223 245 157 223 245 157 223 245 157 223 245 157 223 245 157 223 245 157 223 245 157 223 245 157 223 245 157 223 245 157 223 245 157 223 245 157 223 245 157 223 245 157 223 245 157 223 245 157 223 245 157 223 245 157 223 245 157 223 245 157 223 245 157 223 245 157 223 30 30 30 30 30 30 30 30 30 30 30 30 30 30 30 30 30 30 30 30 30 30 30 30 30 30 30 30 30 30 30 30 30 30 30 30 30 30 30 30 30 30 30 30 30 30 30 30 30 30 30 30 30 30 30 30 30 30 30 30 30 30 30 30 30 30 30 30 30 30 30 30 30 30 30 30 30 30 30 30 30 30 30 30 30 30 30 30 30 30 30 30 30 30 30 30 30 30 30 30 30 30 30 30 30 30 30 30 30 30 30 30 30 30 30 30 30 30 30 30 30 30 30 30 30 30 30 30 30 30 30 30 30 30 30 30 30 30 30 30 30 30 30 30 30 30 30 30 30 30 
245 157 223 245 157 223 245 157 223 245 157 223 245 157 223 245 157 223 245 157 223 245 157 223 245 157 223 245 157 223 245 157 223 245 157 223 245 157 223 245 157 223 245 157 223 245 157 223 245 157 223 245 157 223 245 157 223 245 157 223 245 157 223 245 157 223 245 157 223 245 157 223 245 157 223 245 157 223 245 157 223 245 157 223 245 157 223 245 157 223 245 157 223 245 157 223 245 157 223 245 157 223 245 157 223 245 157 223 245 157 223 245 157 223 245 157 223 245 157 223 245 157 223 245 157 223 245 157 223 245 157 223 245 157 223 245 157 223 245 157 223 245 157 223 245 157 223 245 157 223 30 30 30 30 30 30 30 30 30 30 30 30 30 30 30 30 30 30 30 30 30 30 30 30 30 30 30 30 30 30 30 30 30 30 30 30 30 30 30 30 30 30 30 30 30 30 30 30 30 30 30 30 30 30 30 30 30 30 30 30 30 30 30 30 30 30 30 30 30 30 30 30 30 30 30 30 30 30 30 30 30 30 30 30 30 30 30 30 30 30 30 30 30 30 30 30 30 30 30 30 30 30 30 30 30 30 30 30 30 30 30 30 30 30 30 30 30 30 30 30 30 30 30 30 30 30 30 30 30 30 30 30 30 30 30 30 30 30 30 30 30 30 30 30 30 30 30 30 30 30 
245 157 223 245 157 223 245 157 223 245 157 223 245 157 223 245 157 223 245 157 223 245 157 223 245 157 223 245 157 223 245 157 223 245 157 223 245 157 223 245 157 223 245 157 223 245 157 223 245 157 223 245 157 223 245 157 223 245 157 223 245 157 223 245 157 223 245 157 223 245 157 223 245 157 223 245 157 223 245 157 223 245 157 223 245 157 223 245 157 223 245 157 223 245 157 223 245 157 223 245 157 223 245 157 223 245 157 223 245 157 223 245 157 223 245 157 223 245 157 223 245 157 223 245 157 223 245 157 223 245 157 223 245 157 223 245 157 223 245 157 223 245 157 223 245 157 223 245 157 223 30 30 30 30 30 30 30 30 30 30 30 30 30 30 30 30 30 30 30 30 30 30 30 30 30 30 30 30 30 30 30 30 30 30 30 30 30 30 30 30 30 30 30 30 30 30 30 30 30 30 30 30 30 30 30 30 30 30 30 30 30 30 30 30 30 30 30 30 30 30 30 30 30 30 30 30 30 30 30 30 30 30 30 30 30 30 30 30 30 30 30 30 30 30 30 30 30 30 30 30 30 30 30 30 30 30 30 30 30 30 30 30 30 30 30 30 30 30 30 30 30 30 30 30 30 30 30 30 30 30 30 30 30 30 30 30 30 30 30 30 30 30 30 30 30 30 30 30 30 30 
245 157 223 245 157 223 245 157 223 245 157 223 245 157 223 245 157 223 245 157 223 245 157 223 245 157 223 245 157 223 245 157 223 245 157 223 245 157 223 245 157 223 245 157 223 245 157 223 245 157 223 245 157 223 245 157 223 245 157 223 245 157 223 245 157 223 245 157 223 245 157 223 245 157 223 245 157 223 245 157 223 245 157 223 245 157 223 245 157 223 245 157 223 245 157 223 245 157 223 245 157 223 245 157 223 245 157 223 245 157 223 245 157 223 245 157 223 245 157 223 245 157 223 245 157 223 245 157 223 245 157 223 245 157 223 245 157 223 245 157 223 245 157 223 245 157 223 245 157 223 30 30 30 30 30 30 30 30 30 30 30 30 30 30 30 30 30 30 30 30 30 30 30 30 30 30 30 30 30 30 30 30 30 30 30 30 30 30 30 30 30 30 30 30 30 30 30 30 30 30 30 30 30 30 30 30 30 30 30 30 30 30 30 30 30 30 30 30 30 30 30 30 30 30 30 30 30 30 30 30 30 30 30 30 30 30 30 30 30 30 30 30 30 30 30 30 30 30 30 30 30 30 30 30 30 30 30 30 30 30 30 30 30 30 30 30 30 30 30 30 30 30 30 30 30 30 30 30 30 30 30 30 30 30 30 30 30 30 30 30 30 30 30 30 30 30 30 30 30 30 
245 157 223 245 157 223 245 157 223 245 157 223 245 157 223 245 157 223 245 157 223 245 157 223 245 157 223 245 157 223 245 157 223 245 157 223 245 157 223 245 157 223 245 157 223 245 157 223 245 157 223 245 157 223 245 157 223 245 157 223 245 157 223 245 157 223 245 157 223 245 157 223 245 157 223 245 157 223 245 157 223 245 157 223 245 157 223 245 157 223 245 157 223 245 157 223 245 157 223 245 157 223 245 157 223 245 157 223 245 157 223 245 157 223 245 157 223 245 157 223 245 157 223 245 157 223 245 157 223 245 157 223 245 157 223 245 157 223 245 157 223 245 157 223 245 157 223 245 157 223 30 30 30 30 30 30 30 30 30 30 30 30 30 30 30 30 30 30 30 30 30 30 30 30 30 30 30 30 30 30 30 30 30 30 30 30 30 30 30 30 30 30 30 30 30 30 30 30 30 30 30 30 30 30 30 30 30 30 30 30 30 30 30 30 30 30 30 30 30 30 30 30 30 30 30 30 30 30 30 30 30 30 30 30 30 30 30 30 30 30 30 30 30 30 30 30 30 30 30 30 30 30 30 30 30 30 30 30 30 30 30 30 30 30 30 30 30 30 30 30 30 30 30 30 30 30 30 30 30 30 30 30 30 30 30 30 30 30 30 30 30 30 30 30 30 30 30 30 30 30 
245 157 223 245 157 223 245 157 223 245 157 223 245 157 223 245 157 223 245 157 223 245 157 223 245 157 223 245 157 223 245 157 223 245 157 223 245 157 223 245 157 223 245 157 223 245 157 223 245 157 223 245 157 223 245 157 223 245 157 223 245 157 223 245 157 223 245 157 223 245 157 223 245 157 223 245 157 223 245 157 223 245 157 223 245 157 223 245 157 223 245 157 223 245 157 223 245 157 223 245 157 223 245 157 223 245 157 223 245 157 223 245 157 223 245 157 223 245 157 223 245 157 223 245 157 223 245 157 223 245 157 223 245 157 223 245 157 223 245 157 223 245 157 223 245 157 223 245 157 223 30 30 30 30 30 30 30 30 30 30 30 30 30 30 30 30 30 30 30 30 30 30 30 30 30 30 30 30 30 30 30 30 30 30 30 30 30 30 30 30 30 30 30 30 30 30 30 30 30 30 30 30 30 30 30 30 30 30 30 30 30 30 30 30 30 30 30 30 30 30 30 30 30 30 30 30 30 30 30 30 30 30 30 30 30 30 30 30 30 30 30 30 30 30 30 30 30 30 30 30 30 30 30 30 30 30 30 30 30 30 30 30 30 30 30 30 30 30 30 30 30 30 30 30 30 30 30 30 30 30 30 30 30 30 30 30 30 30 30 30 30 30 30 30 30 30 30 30 30 30 
245 157 223 245 157 223 245 157 223 245 157 223 245 157 223 245 157 223 245 157 223 245 157 223 245 157 223 245 157 223 245 157 223 245 157 223 245 157 223 245 157 223 245 157 223 245 157 223 245 157 223 245 157 223 245 157 223 245 157 223 245 157 223 245 157 223 245 157 223 245 157 223 245 157 223 245 157 223 245 157 223 245 157 223 245 157 223 245 157 223 245 157 223 245 157 223 245 157 223 245 157 223 245 157 223 245 157 223 245 157 223 245 157 223 245 157 223 245 157 223 245 157 223 245 157 223 245 157 223 245 157 223 245 157 223 245 157 223 245 157 223 245 157 223 245 157 223 245 157 223 30 30 30 30 30 30 30 30 30 30 30 30 30 30 30 30 30 30 30 30 30 30 30 30 30 30 30 30 30 30 30 30 30 30 30 30 30 30 30 30 30 30 30 30 30 30 30 30 30 30 30 30 30 30 30 30 30 30 30 30 30 30 30 30 30 30 30 30 30 30 30 30 30 30 30 30 30 30 30 30 30 30 30 30 30 30 30 30 30 30 30 30 30 30 30 30 30 30 30 30 30 30 30 30 30 30 30 30 30 30 30 30 30 30 30 30 30 30 30 30 30 30 30 30 30 30 30 30 30 30 30 30 30 30 30 30 30 30 30 30 30 30 30 30 30 30 30 30 30 30 
245 157 223 245 157 223 245 157 223 245 157 223 245 157 223 245 157 223 245 157 223 245 157 223 245 157 223 245 157 223 245 157 223 245 157 223 245 157 223 245 157 223 245 157 223 245 157 223 245 157 223 245 157 223 245 157 223 245 157 223 245 157 223 245 157 223 245 157 223 245 157 223 245 157 223 245 157 223 245 157 223 245 157 223 245 157 223 245 157 223 245 157 223 245 157 223 245 157 223 245 157 223 245 157 223 245 157 223 245 157 223 245 157 223 245 157 223 245 157 223 245 157 223 245 157 223 245 157 223 245 157 223 245 157 223 245 157 223 245 157 223 245 157 223 245 157 223 245 157 223 30 30 30 30 30 30 30 30 30 30 30 30 30 30 30 30 30 30 30 30 30 30 30 30 30 30 30 30 30 30 30 30 30 30 30 30 30 30 30 30 30 30 30 30 30 30 30 30 30 30 30 30 30 30 30 30 30 30 30 30 30 30 30 30 30 30 30 30 30 30 30 30 30 30 30 30 30 30 30 30 30 30 30 30 30 30 30 30 30 30 30 30 30 30 30 30 30 30 30 30 30 30 30 30 30 30 30 30 30 30 30 30 30 30 30 30 30 30 30 30 30 30 30 30 30 30 30 30 30 30 30 30 30 30 30 30 30 30 30 30 30 30 30 30 30 30 30 30 30 30 
245 157 223 245 157 223 245 157 223 245 157 223 245 157 223 245 157 223 245 157 223 245 157 223 245 157 223 245 157 223 245 157 223 245 157 223 245 157 223 245 157 223 245 157 223 245 157 223 245 157 223 245 157 223 245 157 223 245 157 223 245 157 223 245 157 223 245 157 223 245 157 223 245 157 223 245 157 223 245 157 223 245 157 223 245 157 223 245 157 223 245 157 223 245 157 223 245 157 223 245 157 223 245 157 223 245 157 223 245 157 223 245 157 223 245 157 223 245 157 223 245 157 223 245 157 223 245 157 223 245 157 223 245 157 223 245 157 223 245 157 223 245 157 223 245 157 223 245 157 223 30 30 30 30 30 30 30 30 30 30 30 30 30 30 30 30 30 30 30 30 30 30 30 30 30 30 30 30 30 30 30 30 30 30 30 30 30 30 30 30 30 30 30 30 30 30 30 30 30 30 30 30 30 30 30 30 30 30 30 30 30 30 30 30 30 30 30 30 30 30 30 30 30 30 30 30 30 30 30 30 30 30 30 30 30 30 30 30 30 30 30 30 30 30 30 30 30 30 30 30 30 30 30 30 30 30 30 30 30 30 30 30 30 30 30 30 30 30 30 30 30 30 30 30 30 30 30 30 30 30 30 30 30 30 30 30 30 30 30 30 30 30 30 30 30 30 30 30 30 30 
245 157 223 245 157 223 245 157 223 245 157 223 245 157 223 245 157 223 245 157 223 245 157 223 245 157 223 245 157 223 245 157 223 245 157 223 245 157 223 245 157 223 245 157 223 245 157 223 245 157 223 245 157 223 245 157 223 245 157 223 245 157 223 245 157 223 245 157 223 245 157 223 245 157 223 245 157 223 245 157 223 245 157 223 245 157 223 245 157 223 245 157 223 245 157 223 245 157 223 245 157 223 245 157 223 245 157 223 245 157 223 245 157 223 245 157 223 245 157 223 245 157 223 245 157 223 245 157 223 245 157 223 245 157 223 245 157 223 245 157 223 245 157 223 245 157 223 245 157 223 30 30 30 30 30 30 30 30 30 30 30 30 30 30 30 30 30 30 30 30 30 30 30 30 30 30 30 30 30 30 30 30 30 30 30 30 30 30 30 30 30 30 30 30 30 30 30 30 30 30 30 30 30 30 30 30 30 30 30 30 30 30 30 30 30 30 30 30 30 30 30 30 30 30 30 30 30 30 30 30 30 30 30 30 30 30 30 30 30 30 30 30 30 30 30 30 30 30 30 30 30 30 30 30 30 30 30 30 30 30 30 30 30 30 30 30 30 30 30 30 30 30 30 30 30 30 30 30 30 30 30 30 30 30 30 30 30 30 30 30 30 30 30 30 30 30 30 30 30 30 
245 157 223 245 157 223 245 157 223 245 157 223 245 157 223 245 157 223 245 157 223 245 157 223 245 157 223 245 157 223 245 157 223 245 157 223 245 157 223 245 157 223 245 157 223 245 157 223 245 157 223 245 157 223 245 157 223 245 157 223 245 157 223 245 157 223 245 157 223 245 157 223 245 157 223 245 157 223 245 157 223 245 157 223 245 157 223 245 157 223 245 157 223 245 157 223 245 157 223 245 157 223 245 157 223 245 157 223 245 157 223 245 157 223 245 157 223 245 157 223 245 157 223 245 157 223 245 157 223 245 157 223 245 157 223 245 157 223 245 157 223 245 157 223 245 157 223 245 157 223 30 30 30 30 30 30 30 30 30 30 30 30 30 30 30 30 30 30 30 30 30 30 30 30 30 30 30 30 30 30 30 30 30 30 30 30 30 30 30 30 30 30 30 30 30 30 30 30 30 30 30 30 30 30 30 30 30 30 30 30 30 30 30 30 30 30 30 30 30 30 30 30 30 30 30 30 30 30 30 30 30 30 30 30 30 30 30 30 30 30 30 30 30 30 30 30 30 30 30 30 30 30 30 30 30 30 30 30 30 30 30 30 30 30 30 30 30 30 30 30 30 30 30 30 30 30 30 30 30 30 30 30 30 30 30 30 30 30 30 30 30 30 30 30 30 30 30 30 30 30 
245 157 223 245 157 223 245 157 223 245 157 223 245 157 223 245 157 223 245 157 223 245 157 223 245 157 223 245 157 223 245 157 223 245 157 223 245 157 223 245 157 223 245 157 223 245 157 223 245 157 223 245 157 223 245 157 223 245 157 223 245 157 223 245 157 223 245 157 223 245 157 223 245 157 223 245 157 223 245 157 223 245 157 223 245 157 223 245 157 223 245 157 223 245 157 223 245 157 223 245 157 223 245 157 223 245 157 223 245 157 223 245 157 223 245 157 223 245 157 223 245 157 223 245 157 223 245 157 223 245 157 223 245 157 223 245 157 223 245 157 223 245 157 223 245 157 223 245 157 223 30 30 30 30 30 30 30 30 30 30 30 30 30 30 30 30 30 30 30 30 30 30 30 30 30 30 30 30 30 30 30 30 30 30 30 30 30 30 30 30 30 30 30 30 30 30 30 30 30 30 30 30 30 30 30 30 30 30 30 30 30 30 30 30 30 30 30 30 30 30 30 30 30 30 30 30 30 30 30 30 30 30 30 30 30 30 30 30 30 30 30 30 30 30 30 30 30 30 30 30 30 30 30 30 30 30 30 30 30 30 30 30 30 30 30 30 30 30 30 30 30 30 30 30 30 30 30 30 30 30 30 30 30 30 30 30 30 30 30 30 30 30 30 30 30 30 30 30 30 30 
245 157 223 245 157 223 245 157 223 245 157 223 245 157 223 245 157 223 245 157 223 245 157 223 245 157 223 245 157 223 245 157 223 245 157 223 245 157 223 245 157 223 245 157 223 245 157 223 245 157 223 245 157 223 245 157 223 245 157 223 245 157 223 245 157 223 245 157 223 245 157 223 245 157 223 245 157 223 245 157 223 245 157 223 245 157 223 245 157 223 245 157 223 245 157 223 245 157 223 245 157 223 245 157 223 245 157 223 245 157 223 245 157 223 245 157 223 245 157 223 245 157 223 245 157 223 245 157 223 245 157 223 245 157 223 245 157 223 245 157 223 245 157 223 245 157 223 245 157 223 30 30 30 30 30 30 30 30 30 30 30 30 30 30 30 30 30 30 30 30 30 30 30 30 30 30 30 30 30 30 30 30 30 30 30 30 30 30 30 30 30 30 30 30 30 30 30 30 30 30 30 30 30 30 30 30 30 30 30 30 30 30 30 30 30 30 30 30 30 30 30 30 30 30 30 30 30 30 30 30 30 30 30 30 30 30 30 30 30 30 30 30 30 30 30 30 30 30 30 30 30 30 30 30 30 30 30 30 30 30 30 30 30 30 30 30 30 30 30 30 30 30 30 30 30 30 30 30 30 30 30 30 30 30 30 30 30 30 30 30 30 30 30 30 30 30 30 30 30 30 
245 157 223 245 157 223 245 157 223 245 157 223 245 157 223 245 157 223 245 157 223 245 157 223 245 157 223 245 157 223 245 157 223 245 157 223 245 157 223 245 157 223 245 157 223 245 157 223 245 157 223 245 157 223 245 157 223 245 157 223 245 157 223 245 157 223 245 157 223 245 157 223 245 157 223 245 157 223 245 157 223 245 157 223 245 157 223 245 157 223 245 157 223 245 157 223 245 157 223 245 157 223 245 157 223 245 157 223 245 157 223 245 157 223 245 157 223 245 157 223 245 157 223 245 157 223 245 157 223 245 157 223 245 157 223 245 157 223 245 157 223 245 157 223 245 157 223 245 157 223 30 30 30 30 30 30 30 30 30 30 30 30 30 30 30 30 30 30 30 30 30 30 30 30 30 30 30 30 30 30 30 30 30 30 30 30 30 30 30 30 30 30 30 30 30 30 30 30 30 30 30 30 30 30 30 30 30 30 30 30 30 30 30 30 30 30 30 30 30 30 30 30 30 30 30 30 30 30 30 30 30 30 30 30 30 30 30 30 30 30 30 30 30 30 30 30 30 30 30 30 30 30 30 30 30 30 30 30 30 30 30 30 30 30 30 30 30 30 30 30 30 30 30 30 30 30 30 30 30 30 30 30 30 30 30 30 30 30 30 30 30 30 30 30 30 30 30 30 30 30 
245 157 223 245 157 223 245 157 223 245 157 223 245 157 223 245 157 223 245 157 223 245 157 223 245 157 223 245 157 223 245 157 223 245 157 223 245 157 223 245 157 223 245 157 223 245 157 223 245 157 223 245 157 223 245 157 223 245 157 223 245 157 223 245 157 223 245 157 223 245 157 223 245 157 223 245 157 223 245 157 223 245 157 223 245 157 223 245 157 223 245 157 223 245 157 223 245 157 223 245 157 223 245 157 223 245 157 223 245 157 223 245 157 223 245 157 223 245 157 223 245 157 223 245 157 223 245 157 223 245 157 223 245 157 223 245 157 223 245 157 223 245 157 223 245 157 223 245 157 223 30 30 30 30 30 30 30 30 30 30 30 30 30 30 30 30 30 30 30 30 30 30 30 30 30 30 30 30 30 30 30 30 30 30 30 30 30 30 30 30 30 30 30 30 30 30 30 30 30 30 30 30 30 30 30 30 30 30 30 30 30 30 30 30 30 30 30 30 30 30 30 30 30 30 30 30 30 30 30 30 30 30 30 30 30 30 30 30 30 30 30 30 30 30 30 30 30 30 30 30 30 30 30 30 30 30 30 30 30 30 30 30 30 30 30 30 30 30 30 30 30 30 30 30 30 30 30 30 30 30 30 30 30 30 30 30 30 30 30 30 30 30 30 30 30 30 30 30 30 30 
245 157 223 245 157 223 245 157 223 245 157 223 245 157 223 245 157 223 245 157 223 245 157 223 245 157 223 245 157 223 245 157 223 245 157 223 245 157 223 245 157 223 245 157 223 245 157 223 245 157 223 245 157 223 245 157 223 245 157 223 245 157 223 245 157 223 245 157 223 245 157 223 245 157 223 245 157 223 245 157 223 245 157 223 245 157 223 245 157 223 245 157 223 245 157 223 245 157 223 245 157 223 245 157 223 245 157 223 245 157 223 245 157 223 245 157 223 245 157 223 245 157 223 245 157 223 245 157 223 245 157 223 245 157 223 245 157 223 245 157 223 245 157 223 245 157 223 245 157 223 30 30 30 30 30 30 30 30 30 30 30 30 30 30 30 30 30 30 30 30 30 30 30 30 30 30 30 30 30 30 30 30 30 30 30 30 30 30 30 30 30 30 30 30 30 30 30 30 30 30 30 30 30 30 30 30 30 30 30 30 30 30 30 30 30 30 30 30 30 30 30 30 30 30 30 30 30 30 30 30 30 30 30 30 30 30 30 30 30 30 30 30 30 30 30 30 30 30 30 30 30 30 30 30 30 30 30 30 30 30 30 30 30 30 30 30 30 30 30 30 30 30 30 30 30 30 30 30 30 30 30 30 30 30 30 30 30 30 30 30 30 30 30 30 30 30 30 30 30 30 
245 157 223 245 157 223 245 157 223 245 157 223 245 157 223 245 157 223 245 157 223 245 157 223 245 157 223 245 157 223 245 157 223 245 157 223 245 157 223 245 157 223 245 157 223 245 157 223 245 157 223 245 157 223 245 157 223 245 157 223 245 157 223 245 157 223 245 157 223 245 157 223 245 157 223 245 157 223 245 157 223 245 157 223 245 157 223 245 157 223 245 157 223 245 157 223 245 157 223 245 157 223 245 157 223 245 157 223 245 157 223 245 157 223 245 157 223 245 157 223 245 157 223 245 157 223 245 157 223 245 157 223 245 157 223 245 157 223 245 157 223 245 157 223 245 157 223 245 157 223 30 30 30 30 30 30 30 30 30 30 30 30 30 30 30 30 30 30 30 30 30 30 30 30 30 30 30 30 30 30 30 30 30 30 30 30 30 30 30 30 30 30 30 30 30 30 30 30 30 30 30 30 30 30 30 30 30 30 30 30 30 30 30 30 30 30 30 30 30 30 30 30 30 30 30 30 30 30 30 30 30 30 30 30 30 30 30 30 30 30 30 30 30 30 30 30 30 30 30 30 30 30 30 30 30 30 30 30 30 30 30 30 30 30 30 30 30 30 30 30 30 30 30 30 30 30 30 30 30 30 30 30 30 30 30 30 30 30 30 30 30 30 30 30 30 30 30 30 30 30 
245 157 223 245 157 223 245 157 223 245 157 223 245 157 223 245 157 223 245 157 223 245 157 223 245 157 223 245 157 223 245 157 223 245 157 223 245 157 223 245 157 223 245 157 223 245 157 223 245 157 223 245 157 223 245 157 223 245 157 223 245 157 223 245 157 223 245 157 223 245 157 223 245 157 223 245 157 223 245 157 223 245 157 223 245 157 223 245 157 223 245 157 223 245 157 223 245 157 223 245 157 223 245 157 223 245 157 223 245 157 223 245 157 223 245 157 223 245 157 223 245 157 223 245 157 223 245 157 223 245 157 223 245 157 223 245 157 223 245 157 223 245 157 223 245 157 223 245 157 223 30 30 30 30 30 30 30 30 30 30 30 30 30 30 30 30 30 30 30 30 30 30 30 30 30 30 30 30 30 30 30 30 30 30 30 30 30 30 30 30 30 30 30 30 30 30 30 30 30 30 30 30 30 30 30 30 30 30 30 30 30 30 30 30 30 30 30 30 30 30 30 30 30 30 30 30 30 30 30 30 30 30 30 30 30 30 30 30 30 30 30 30 30 30 30 30 30 30 30 30 30 30 30 30 30 30 30 30 30 30 30 30 30 30 30 30 30 30 30 30 30 30 30 30 30 30 30 30 30 30 30 30 30 30 30 30 30 30 30 30 30 30 30 30 30 30 30 30 30 30 
245 157 223 245 157 223 245 157 223 245 157 223 245 157 223 245 157 223 245 157 223 245 157 223 245 157 223 245 157 223 245 157 223 245 157 223 245 157 223 245 157 223 245 157 223 245 157 223 245 157 223 245 157 223 245 157 223 245 157 223 245 157 223 245 157 223 245 157 223 245 157 223 245 157 223 245 157 223 245 157 223 245 157 223 245 157 223 245 157 223 245 157 223 245 157 223 245 157 223 245 157 223 245 157 223 245 157 223 245 157 223 245 157 223 245 157 223 245 157 223 245 157 223 245 157 223 245 157 223 245 157 223 245 157 223 245 157 223 245 157 223 245 157 223 245 157 223 245 157 223 30 30 30 30 30 30 30 30 30 30 30 30 30 30 30 30 30 30 30 30 30 30 30 30 30 30 30 30 30 30 30 30 30 30 30 30 30 30 30 30 30 30 30 30 30 30 30 30 30 30 30 30 30 30 30 30 30 30 30 30 30 30 30 30 30 30 30 30 30 30 30 30 30 30 30 30 30 30 30 30 30 30 30 30 30 30 30 30 30 30 30 30 30 30 30 30 30 30 30 30 30 30 30 30 30 30 30 30 30 30 30 30 30 30 30 30 30 30 30 30 30 30 30 30 30 30 30 30 30 30 30 30 30 30 30 30 30 30 30 30 30 30 30 30 30 30 30 30 30 30 
245 157 223 245 157 223 245 157 223 245 157 223 245 157 223 245 157 223 245 157 223 245 157 223 245 157 223 245 157 223 245 157 223 245 157 223 245 157 223 245 157 223 245 157 223 245 157 223 245 157 223 245 157 223 245 157 223 245 157 223 245 157 223 245 157 223 245 157 223 245 157 223 245 157 223 245 157 223 245 157 223 245 157 223 245 157 223 245 157 223 245 157 223 245 157 223 245 157 223 245 157 223 245 157 223 245 157 223 245 157 223 245 157 223 245 157 223 245 157 223 245 157 223 245 157 223 245 157 223 245 157 223 245 157 223 245 157 223 245 157 223 245 157 223 245 157 223 245 157 223 30 30 30 30 30 30 30 30 30 30 30 30 30 30 30 30 30 30 30 30 30 30 30 30 30 30 30 30 30 30 30 30 30 30 30 30 30 30 30 30 30 30 30 30 30 30 30 30 30 30 30 30 30 30 30 30 30 30 30 30 30 30 30 30 30 30 30 30 30 30 30 30 30 30 30 30 30 30 30 30 30 30 30 30 30 30 30 30 30 30 30 30 30 30 30 30 30 30 30 30 30 30 30 30 30 30 30 30 30 30 30 30 30 30 30 30 30 30 30 30 30 30 30 30 30 30 30 30 30 30 30 30 30 30 30 30 30 30 30 30 30 30 30 30 30 30 30 30 30 30 
245 157 223 245 157 223 245 157 223 245 157 223 245 157 223 245 157 223 245 157 223 245 157 223 245 157 223 245 157 223 245 157 223 245 157 223 245 157 223 245 157 223 245 157 223 245 157 223 245 157 223 245 157 223 245 157 223 245 157 223 245 157 223 245 157 223 245 157 223 245 157 223 245 157 223 245 157 223 245 157 223 245 157 223 245 157 223 245 157 223 245 157 223 245 157 223 245 157 223 245 157 223 245 157 223 245 157 223 245 157 223 245 157 223 245 157 223 245 157 223 245 157 223 245 157 223 245 157 223 245 157 223 245 157 223 245 157 223 245 157 223 245 157 223 245 157 223 245 157 223 30 30 30 30 30 30 30 30 30 30 30 30 30 30 30 30 30 30 30 30 30 30 30 30 30 30 30 30 30 30 30 30 30 30 30 30 30 30 30 30 30 30 30 30 30 30 30 30 30 30 30 30 30 30 30 30 30 30 30 30 30 30 30 30 30 30 30 30 30 30 30 30 30 30 30 30 30 30 30 30 30 30 30 30 30 30 30 30 30 30 30 30 30 30 30 30 30 30 30 30 30 30 30 30 30 30 30 30 30 30 30 30 30 30 30 30 30 30 30 30 30 30 30 30 30 30 30 30 30 30 30 30 30 30 30 30 30 30 30 30 30 30 30 30 30 30 30 30 30 30 
245 157 223 245 157 223 245 157 223 245 157 223 245 157 223 245 157 223 245 157 223 245 157 223 245 157 223 245 157 223 245 157 223 245 157 223 245 157 223 245 157 223 245 157 223 245 157 223 245 157 223 245 157 223 245 157 223 245 157 223 245 157 223 245 157 223 245 157 223 245 157 223 245 157 223 245 157 223 245 157 223 245 157 223 245 157 223 245 157 223 245 157 223 245 157 223 245 157 223 245 157 223 245 157 223 245 157 223 245 157 223 245 157 223 245 157 223 245 157 223 245 157 223 245 157 223 245 157 223 245 157 223 245 157 223 245 157 223 245 157 223 245 157 223 245 157 223 245 157 223 30 30 30 30 30 30 30 30 30 30 30 30 30 30 30 30 30 30 30 30 30 30 30 30 30 30 30 30 30 30 30 30 30 30 30 30 30 30 30 30 30 30 30 30 30 30 30 30 30 30 30 30 30 30 30 30 30 30 30 30 30 30 30 30 30 30 30 30 30 30 30 30 30 30 30 30 30 30 30 30 30 30 30 30 30 30 30 30 30 30 30 30 30 30 30 30 30 30 30 30 30 30 30 30 30 30 30 30 30 30 30 30 30 30 30 30 30 30 30 30 30 30 30 30 30 30 30 30 30 30 30 30 30 30 30 30 30 30 30 30 30 30 30 30 30 30 30 30 30 30 
245 157 223 245 157 223 245 157 223 245 157 223 245 157 223 245 157 223 245 157 223 245 157 223 245 157 223 245 157 223 245 157 223 245 157 223 245 157 223 245 157 223 245 157 223 245 157 223 245 157 223 245 157 223 245 157 223 245 157 223 245 157 223 245 157 223 245 157 223 245 157 223 245 157 223 245 157 223 245 157 223 245 157 223 245 157 223 245 157 223 245 157 223 245 157 223 245 157 223 245 157 223 245 157 223 245 157 223 245 157 223 245 157 223 245 157 223 245 157 223 245 157 223 245 157 223 245 157 223 245 157 223 245 157 223 245 157 223 245 157 223 245 157 223 245 157 223 245 157 223 30 30 30 30 30 30 30 30 30 30 30 30 30 30 30 30 30 30 30 30 30 30 30 30 30 30 30 30 30 30 30 30 30 30 30 30 30 30 30 30 30 30 30 30 30 30 30 30 30 30 30 30 30 30 30 30 30 30 30 30 30 30 30 30 30 30 30 30 30 30 30 30 30 30 30 30 30 30 30 30 30 30 30 30 30 30 30 30 30 30 30 30 30 30 30 30 30 30 30 30 30 30 30 30 30 30 30 30 30 30 30 30 30 30 30 30 30 30 30 30 30 30 30 30 30 30 30 30 30 30 30 30 30 30 30 30 30 30 30 30 30 30 30 30 30 30 30 30 30 30 
245 157 223 245 157 223 245 157 223 245 157 223 245 157 223 245 157 223 245 157 223 245 157 223 245 157 223 245 157 223 245 157 223 245 157 223 245 157 223 245 157 223 245 157 223 245 157 223 245 157 223 245 157 223 245 157 223 245 157 223 245 157 223 245 157 223 245 157 223 245 157 223 245 157 223 245 157 223 245 157 223 245 157 223 245 157 223 245 157 223 245 157 223 245 157 223 245 157 223 245 157 223 245 157 223 245 157 223 245 157 223 245 157 223 245 157 223 245 157 223 245 157 223 245 157 223 245 157 223 245 157 223 245 157 223 245 157 223 245 157 223 245 157 223 245 157 223 245 157 223 30 30 30 30 30 30 30 30 30 30 30 30 30 30 30 30 30 30 30 30 30 30 30 30 30 30 30 30 30 30 30 30 30 30 30 30 30 30 30 30 30 30 30 30 30 30 30 30 30 30 30 30 30 30 30 30 30 30 30 30 30 30 30 30 30 30 30 30 30 30 30 30 30 30 30 30 30 30 30 30 30 30 30 30 30 30 30 30 30 30 30 30 30 30 30 30 30 30 30 30 30 30 30 30 30 30 30 30 30 30 30 30 30 30 30 30 30 30 30 30 30 30 30 30 30 30 30 30 30 30 30 30 30 30 30 30 30 30 30 30 30 30 30 30 30 30 30 30 30 30 
245 157 223 245 157 223 245 157 223 245 157 223 245 157 223 245 157 223 245 157 223 245 157 223 245 157 223 245 157 223 245 157 223 245 157 223 245 157 223 245 157 223 245 157 223 245 157 223 245 157 223 245 157 223 245 157 223 245 157 223 245 157 223 245 157 223 245 157 223 245 157 223 245 157 223 245 157 223 245 157 223 245 157 223 245 157 223 245 157 223 245 157 223 245 157 223 245 157 223 245 157 223 245 157 223 245 157 223 245 157 223 245 157 223 245 157 223 245 157 223 245 157 223 245 157 223 245 157 223 245 157 223 245 157 223 245 157 223 245 157 223 245 157 223 245 157 223 245 157 223 30 30 30 30 30 30 30 30 30 30 30 30 30 30 30 30 30 30 30 30 30 30 30 30 30 30 30 30 30 30 30 30 30 30 30 30 30 30 30 30 30 30 30 30 30 30 30 30 30 30 30 30 30 30 30 30 30 30 30 30 30 30 30 30 30 30 30 30 30 30 30 30 30 30 30 30 30 30 30 30 30 30 30 30 30 30 30 30 30 30 30 30 30 30 30 30 30 30 30 30 30 30 30 30 30 30 30 30 30 30 30 30 30 30 30 30 30 30 30 30 30 30 30 30 30 30 30 30 30 30 30 30 30 30 30 30 30 30 30 30 30 30 30 30 30 30 30 30 30 30 
245 157 223 245 157 223 245 157 223 245 157 223 245 157 223 245 157 223 245 157 223 245 157 223 245 157 223 245 157 223 245 157 223 245 157 223 245 157 223 245 157 223 245 157 223 245 157 223 245 157 223 245 157 223 245 157 223 245 157 223 245 157 223 245 157 223 245 157 223 245 157 223 245 157 223 245 157 223 245 157 223 245 157 223 245 157 223 245 157 223 245 157 223 245 157 223 245 157 223 245 157 223 245 157 223 245 157 223 245 157 223 245 157 223 245 157 223 245 157 223 245 157 223 245 157 223 245 157 223 245 157 223 245 157 223 245 157 223 245 157 223 245 157 223 245 157 223 245 157 223 30 30 30 30 30 30 30 30 30 30 30 30 30 30 30 30 30 30 30 30 30 30 30 30 30 30 30 30 30 30 30 30 30 30 30 30 30 30 30 30 30 30 30 30 30 30 30 30 30 30 30 30 30 30 30 30 30 30 30 30 30 30 30 30 30 30 30 30 30 30 30 30 30 30 30 30 30 30 30 30 30 30 30 30 30 30 30 30 30 30 30 30 30 30 30 30 30 30 30 30 30 30 30 30 30 30 30 30 30 30 30 30 30 30 30 30 30 30 30 30 30 30 30 30 30 30 30 30 30 30 30 30 30 30 30 30 30 30 30 30 30 30 30 30 30 30 30 30 30 30 
245 157 223 245 157 223 245 157 223 245 157 223 245 157 223 245 157 223 245 157 223 245 157 223 245 157 223 245 157 223 245 157 223 245 157 223 245 157 223 245 157 223 245 157 223 245 157 223 245 157 223 245 157 223 245 157 223 245 157 223 245 157 223 245 157 223 245 157 223 245 157 223 245 157 223 245 157 223 245 157 223 245 157 223 245 157 223 245 157 223 245 157 223 245 157 223 245 157 223 245 157 223 245 157 223 245 157 223 245 157 223 245 157 223 245 157 223 245 157 223 245 157 223 245 157 223 245 157 223 245 157 223 245 157 223 245 157 223 245 157 223 245 157 223 245 157 223 245 157 223 30 30 30 30 30 30 30 30 30 30 30 30 30 30 30 30 30 30 30 30 30 30 30 30 30 30 30 30 30 30 30 30 30 30 30 30 30 30 30 30 30 30 30 30 30 30 30 30 30 30 30 30 30 30 30 30 30 30 30 30 30 30 30 30 30 30 30 30 30 30 30 30 30 30 30 30 30 30 30 30 30 30 30 30 30 30 30 30 30 30 30 30 30 30 30 30 30 30 30 30 30 30 30 30 30 30 30 30 30 30 30 30 30 30 30 30 30 30 30 30 30 30 30 30 30 30 30 30 30 30 30 30 30 30 30 30 30 30 30 30 30 30 30 30 30 30 30 30 30 30 
245 157 223 245 157 223 245 157 223 245 157 223 245 157 223 245 157 223 245 157 223 245 157 223 245 157 223 245 157 223 245 157 223 245 157 223 245 157 223 245 157 223 245 157 223 245 157 223 245 157 223 245 157 223 245 157 223 245 157 223 245 157 223 245 157 223 245 157 223 245 157 223 245 157 223 245 157 223 245 157 223 245 157 223 245 157 223 245 157 223 245 157 223 245 157 223 245 157 223 245 157 223 245 157 223 245 157 223 245 157 223 245 157 223 245 157 223 245 157 223 245 157 223 245 157 223 245 157 223 245 157 223 245 157 223 245 157 223 245 157 223 245 157 223 245 157 223 245 157 223 30 30 30 30 30 30 30 30 30 30 30 30 30 30 30 30 30 30 30 30 30 30 30 30 30 30 30 30 30 30 30 30 30 30 30 30 30 30 30 30 30 30 30 30 30 30 30 30 30 30 30 30 30 30 30 30 30 30 30 30 30 30 30 30 30 30 30 30 30 30 30 30 30 30 30 30 30 30 30 30 30 30 30 30 30 30 30 30 30 30 30 30 30 30 30 30 30 30 30 30 30 30 30 30 30 30 30 30 30 30 30 30 30 30 30 30 30 30 30 30 30 30 30 30 30 30 30 30 30 30 30 30 30 30 30 30 30 30 30 30 30 30 30 30 30 30 30 30 30 30 
245 157 223 245 157 223 245 157 223 245 157 223 245 157 223 245 157 223 245 157 223 245 157 223 245 157 223 245 157 223 245 157 223 245 157 223 245 157 223 245 157 223 245 157 223 245 157 223 245 157 223 245 157 223 245 157 223 245 157 223 245 157 223 245 157 223 245 157 223 245 157 223 245 157 223 245 157 223 245 157 223 245 157 223 245 157 223 245 157 223 245 157 223 245 157 223 245 157 223 245 157 223 245 157 223 245 157 223 245 157 223 245 157 223 245 157 223 245 157 223 245 157 223 245 157 223 245 157 223 245 157 223 245 157 223 245 157 223 245 157 223 245 157 223 245 157 223 245 157 223 30 30 30 30 30 30 30 30 30 30 30 30 30 30 30 30 30 30 30 30 30 30 30 30 30 30 30 30 30 30 30 30 30 30 30 30 30 30 30 30 30 30 30 30 30 30 30 30 30 30 30 30 30 30 30 30 30 30 30 30 30 30 30 30 30 30 30 30 30 30 30 30 30 30 30 30 30 30 30 30 30 30 30 30 30 30 30 30 30 30 30 30 30 30 30 30 30 30 30 30 30 30 30 30 30 30 30 30 30 30 30 30 30 30 30 30 30 30 30 30 30 30 30 30 30 30 30 30 30 30 30 30 30 30 30 30 30 30 30 30 30 30 30 30 30 30 30 30 30 30 
245 157 223 245 157 223 245 157 223 245 157 223 245 157 223 245 157 223 245 157 223 245 157 223 245 157 223 245 157 223 245 157 223 245 157 223 245 157 223 245 157 223 245 157 223 245 157 223 245 157 223 245 157 223 245 157 223 245 157 223 245 157 223 245 157 223 245 157 223 245 157 223 245 157 223 245 157 223 245 157 223 245 157 223 245 157 223 245 157 223 245 157 223 245 157 223 245 157 223 245 157 223 245 157 223 245 157 223 245 157 223 245 157 223 245 157 223 245 157 223 245 157 223 245 157 223 245 157 223 245 157 223 245 157 223 245 157 223 245 157 223 245 157 223 245 157 223 245 157 223 30 30 30 30 30 30 30 30 30 30 30 30 30 30 30 30 30 30 30 30 30 30 30 30 30 30 30 30 30 30 30 30 30 30 30 30 30 30 30 30 30 30 30 30 30 30 30 30 30 30 30 30 30 30 30 30 30 30 30 30 30 30 30 30 30 30 30 30 30 30 30 30 30 30 30 30 30 30 30 30 30 30 30 30 30 30 30 30 30 30 30 30 30 30 30 30 30 30 30 30 30 30 30 30 30 30 30 30 30 30 30 30 30 30 30 30 30 30 30 30 30 30 30 30 30 30 30 30 30 30 30 30 30 30 30 30 30 30 30 30 30 30 30 30 30 30 30 30 30 30 
245 157 223 245 157 223 245 157 223 245 157 223 245 157 223 245 157 223 245 157 223 245 157 223 245 157 223 245 157 223 245 157 223 245 157 223 245 157 223 245 157 223 245 157 223 245 157 223 245 157 223 245 157 223 245 157 223 245 157 223 245 157 223 245 157 223 245 157 223 245 157 223 245 157 223 245 157 223 245 157 223 245 157 223 245 157 223 245 157 223 245 157 223 245 157 223 245 157 223 245 157 223 245 157 223 245 157 223 245 157 223 245 157 223 245 157 223 245 157 223 245 157 223 245 157 223 245 157 223 245 157 223 245 157 223 245 157 223 245 157 223 245 157 223 245 157 223 245 157 223 30 30 30 30 30 30 30 30 30 30 30 30 30 30 30 30 30 30 30 30 30 30 30 30 30 30 30 30 30 30 30 30 30 30 30 30 30 30 30 30 30 30 30 30 30 30 30 30 30 30 30 30 30 30 30 30 30 30 30 30 30 30 30 30 30 30 30 30 30 30 30 30 30 30 30 30 30 30 30 30 30 30 30 30 30 30 30 30 30 30 30 30 30 30 30 30 30 30 30 30 30 30 30 30 30 30 30 30 30 30 30 30 30 30 30 30 30 30 30 30 30 30 30 30 30 30 30 30 30 30 30 30 30 30 30 30 30 30 30 30 30 30 30 30 30 30 30 30 30 30 
245 157 223 245 157 223 245 157 223 245 157 223 245 157 223 245 157 223 245 157 223 245 157 223 245 157 223 245 157 223 245 157 223 245 157 223 245 157 223 245 157 223 245 157 223 245 157 223 245 157 223 245 157 223 245 157 223 245 157 223 245 157 223 245 157 223 245 157 223 245 157 223 245 157 223 245 157 223 245 157 223 245 157 223 245 157 223 245 157 223 245 157 223 245 157 223 245 157 223 245 157 223 245 157 223 245 157 223 245 157 223 245 157 223 245 157 223 245 157 223 245 157 223 245 157 223 245 157 223 245 157 223 245 157 223 245 157 223 245 157 223 245 157 223 245 157 223 245 157 223 30 30 30 30 30 30 30 30 30 30 30 30 30 30 30 30 30 30 30 30 30 30 30 30 30 30 30 30 30 30 30 30 30 30 30 30 30 30 30 30 30 30 30 30 30 30 30 30 30 30 30 30 30 30 30 30 30 30 30 30 30 30 30 30 30 30 30 30 30 30 30 30 30 30 30 30 30 30 30 30 30 30 30 30 30 30 30 30 30 30 30 30 30 30 30 30 30 30 30 30 30 30 30 30 30 30 30 30 30 30 30 30 30 30 30 30 30 30 30 30 30 30 30 30 30 30 30 30 30 30 30 30 30 30 30 30 30 30 30 30 30 30 30 30 30 30 30 30 30 30 
245 157 223 245 157 223 245 157 223 245 157 223 245 157 223 245 157 223 245 157 223 245 157 223 245 157 223 245 157 223 245 157 223 245 157 223 245 157 223 245 157 223 245 157 223 245 157 223 245 157 223 245 157 223 245 157 223 245 157 223 245 157 223 245 157 223 245 157 223 245 157 223 245 157 223 245 157 223 245 157 223 245 157 223 245 157 223 245 157 223 245 157 223 245 157 223 245 157 223 245 157 223 245 157 223 245 157 223 245 157 223 245 157 223 245 157 223 245 157 223 245 157 223 245 157 223 245 157 223 245 157 223 245 157 223 245 157 223 245 157 223 245 157 223 245 157 223 245 157 223 30 30 30 30 30 30 30 30 30 30 30 30 30 30 30 30 30 30 30 30 30 30 30 30 30 30 30 30 30 30 30 30 30 30 30 30 30 30 30 30 30 30 30 30 30 30 30 30 30 30 30 30 30 30 30 30 30 30 30 30 30 30 30 30 30 30 30 30 30 30 30 30 30 30 30 30 30 30 30 30 30 30 30 30 30 30 30 30 30 30 30 30 30 30 30 30 30 30 30 30 30 30 30 30 30 30 30 30 30 30 30 30 30 30 30 30 30 30 30 30 30 30 30 30 30 30 30 30 30 30 30 30 30 30 30 30 30 30 30 30 30 30 30 30 30 30 30 30 30 30 
245 157 223 245 157 223 245 157 223 245 157 223 245 157 223 245 157 223 245 157 223 245 157 223 245 157 223 245 157 223 245 157 223 245 157 223 245 157 223 245 157 223 245 157 223 245 157 223 245 157 223 245 157 223 245 157 223 245 157 223 245 157 223 245 157 223 245 157 223 245 157 223 245 157 223 245 157 223 245 157 223 245 157 223 245 157 223 245 157 223 245 157 223 245 157 223 245 157 223 245 157 223 245 157 223 245 157 223 245 157 223 245 157 223 245 157 223 245 157 223 245 157 223 245 157 223 245 157 223 245 157 223 245 157 223 245 157 223 245 157 223 245 157 223 245 157 223 245 157 223 30 30 30 30 30 30 30 30 30 30 30 30 30 30 30 30 30 30 30 30 30 30 30 30 30 30 30 30 30 30 30 30 30 30 30 30 30 30 30 30 30 30 30 30 30 30 30 30 30 30 30 30 30 30 30 30 30 30 30 30 30 30 30 30 30 30 30 30 30 30 30 30 30 30 30 30 30 30 30 30 30 30 30 30 30 30 30 30 30 30 30 30 30 30 30 30 30 30 30 30 30 30 30 30 30 30 30 30 30 30 30 30 30 30 30 30 30 30 30 30 30 30 30 30 30 30 30 30 30 30 30 30 30 30 30 30 30 30 30 30 30 30 30 30 30 30 30 30 30 30 
245 157 223 245 157 223 245 157 223 245 157 223 245 157 223 245 157 223 245 157 223 245 157 223 245 157 223 245 157 223 245 157 223 245 157 223 245 157 223 245 157 223 245 157 223 245 157 223 245 157 223 245 157 223 245 157 223 245 157 223 245 157 223 245 157 223 245 157 223 245 157 223 245 157 223 245 157 223 245 157 223 245 157 223 245 157 223 245 157 223 245 157 223 245 157 223 245 157 223 245 157 223 245 157 223 245 157 223 245 157 223 245 157 223 245 157 223 245 157 223 245 157 223 245 157 223 245 157 223 245 157 223 245 157 223 245 157 223 245 157 223 245 157 223 245 157 223 245 157 223 30 30 30 30 30 30 30 30 30 30 30 30 30 30 30 30 30 30 30 30 30 30 30 30 30 30 30 30 30 30 30 30 30 30 30 30 30 30 30 30 30 30 30 30 30 30 30 30 30 30 30 30 30 30 30 30 30 30 30 30 30 30 30 30 30 30 30 30 30 30 30 30 30 30 30 30 30 30 30 30 30 30 30 30 30 30 30 30 30 30 30 30 30 30 30 30 30 30 30 30 30 30 30 30 30 30 30 30 30 30 30 30 30 30 30 30 30 30 30 30 30 30 30 30 30 30 30 30 30 30 30 30 30 30 30 30 30 30 30 30 30 30 30 30 30 30 30 30 30 30 
245 157 223 245 157 223 245 157 223 245 157 223 245 157 223 245 157 223 245 157 223 245 157 223 245 157 223 245 157 223 245 157 223 245 157 223 245 157 223 245 157 223 245 157 223 245 157 223 245 157 223 245 157 223 245 157 223 245 157 223 245 157 223 245 157 223 245 157 223 245 157 223 245 157 223 245 157 223 245 157 223 245 157 223 245 157 223 245 157 223 245 157 223 245 157 223 245 157 223 245 157 223 245 157 223 245 157 223 245 157 223 245 157 223 245 157 223 245 157 223 245 157 223 245 157 223 245 157 223 245 157 223 245 157 223 245 157 223 245 157 223 245 157 223 245 157 223 245 157 223 30 30 30 30 30 30 30 30 30 30 30 30 30 30 30 30 30 30 30 30 30 30 30 30 30 30 30 30 30 30 30 30 30 30 30 30 30 30 30 30 30 30 30 30 30 30 30 30 30 30 30 30 30 30 30 30 30 30 30 30 30 30 30 30 30 30 30 30 30 30 30 30 30 30 30 30 30 30 30 30 30 30 30 30 30 30 30 30 30 30 30 30 30 30 30 30 30 30 30 30 30 30 30 30 30 30 30 30 30 30 30 30 30 30 30 30 30 30 30 30 30 30 30 30 30 30 30 30 30 30 30 30 30 30 30 30 30 30 30 30 30 30 30 30 30 30 30 30 30 30 
245 157 223 245 157 223 245 157 223 245 157 223 245 157 223 245 157 223 245 157 223 245 157 223 245 157 223 245 157 223 245 157 223 245 157 223 245 157 223 245 157 223 245 157 223 245 157 223 245 157 223 245 157 223 245 157 223 245 157 223 245 157 223 245 157 223 245 157 223 245 157 223 245 157 223 245 157 223 245 157 223 245 157 223 245 157 223 245 157 223 245 157 223 245 157 223 245 157 223 245 157 223 245 157 223 245 157 223 245 157 223 245 157 223 245 157 223 245 157 223 245 157 223 245 157 223 245 157 223 245 157 223 245 157 223 245 157 223 245 157 223 245 157 223 245 157 223 245 157 223 30 30 30 30 30 30 30 30 30 30 30 30 30 30 30 30 30 30 30 30 30 30 30 30 30 30 30 30 30 30 30 30 30 30 30 30 30 30 30 30 30 30 30 30 30 30 30 30 30 30 30 30 30 30 30 30 30 30 30 30 30 30 30 30 30 30 30 30 30 30 30 30 30 30 30 30 30 30 30 30 30 30 30 30 30 30 30 30 30 30 30 30 30 30 30 30 30 30 30 30 30 30 30 30 30 30 30 30 30 30 30 30 30 30 30 30 30 30 30 30 30 30 30 30 30 30 30 30 30 30 30 30 30 30 30 30 30 30 30 30 30 30 30 30 30 30 30 30 30 30 
245 157 223 245 157 223 245 157 223 245 157 223 245 157 223 245 157 223 245 157 223 245 157 223 245 157 223 245 157 223 245 157 223 245 157 223 245 157 223 245 157 223 245 157 223 245 157 223 245 157 223 245 157 223 245 157 223 245 157 223 245 157 223 245 157 223 245 157 223 245 157 223 245 157 223 245 157 223 245 157 223 245 157 223 245 157 223 245 157 223 245 157 223 245 157 223 245 157 223 245 157 223 245 157 223 245 157 223 245 157 223 245 157 223 245 157 223 245 157 223 245 157 223 245 157 223 245 157 223 245 157 223 245 157 223 245 157 223 245 157 223 245 157 223 245 157 223 245 157 223 30 30 30 30 30 30 30 30 30 30 30 30 30 30 30 30 30 30 30 30 30 30 30 30 30 30 30 30 30 30 30 30 30 30 30 30 30 30 30 30 30 30 30 30 30 30 30 30 30 30 30 30 30 30 30 30 30 30 30 30 30 30 30 30 30 30 30 30 30 30 30 30 30 30 30 30 30 30 30 30 30 30 30 30 30 30 30 30 30 30 30 30 30 30 30 30 30 30 30 30 30 30 30 30 30 30 30 30 30 30 30 30 30 30 30 30 30 30 30 30 30 30 30 30 30 30 30 30 30 30 30 30 30 30 30 30 30 30 30 30 30 30 30 30 30 30 30 30 30 30 
245 157 223 245 157 223 245 157 223 245 157 223 245 157 223 245 157 223 245 157 223 245 157 223 245 157 223 245 157 223 245 157 223 245 157 223 245 157 223 245 157 223 245 157 223 245 157 223 245 157 223 245 157 223 245 157 223 245 157 223 245 157 223 245 157 223 245 157 223 245 157 223 245 157 223 245 157 223 245 157 223 245 157 223 245 157 223 245 157 223 245 157 223 245 157 223 245 157 223 245 157 223 245 157 223 245 157 223 245 157 223 245 157 223 245 157 223 245 157 223 245 157 223 245 157 223 245 157 223 245 157 223 245 157 223 245 157 223 245 157 223 245 157 223 245 157 223 245 157 223 30 30 30 30 30 30 30 30 30 30 30 30 30 30 30 30 30 30 30 30 30 30 30 30 30 30 30 30 30 30 30 30 30 30 30 30 30 30 30 30 30 30 30 30 30 30 30 30 30 30 30 30 30 30 30 30 30 30 30 30 30 30 30 30 30 30 30 30 30 30 30 30 30 30 30 30 30 30 30 30 30 30 30 30 30 30 30 30 30 30 30 30 30 30 30 30 30 30 30 30 30 30 30 30 30 30 30 30 30 30 30 30 30 30 30 30 30 30 30 30 30 30 30 30 30 30 30 30 30 30 30 30 30 30 30 30 30 30 30 30 30 30 30 30 30 30 30 30 30 30 
245 157 223 245 157 223 245 157 223 245 157 223 245 157 223 245 157 223 245 157 223 245 157 223 245 157 223 245 157 223 245 157 223 245 157 223 245 157 223 245 157 223 245 157 223 245 157 223 245 157 223 245 157 223 245 157 223 245 157 223 245 157 223 245 157 223 245 157 223 245 157 223 245 157 223 245 157 223 245 157 223 245 157 223 245 157 223 245 157 223 245 157 223 245 157 223 245 157 223 245 157 223 245 157 223 245 157 223 245 157 223 245 157 223 245 157 223 245 157 223 245 157 223 245 157 223 245 157 223 245 157 223 245 157 223 245 157 223 245 157 223 245 157 223 245 157 223 245 157 223 30 30 30 30 30 30 30 30 30 30 30 30 30 30 30 30 30 30 30 30 30 30 30 30 30 30 30 30 30 30 30 30 30 30 30 30 30 30 30 30 30 30 30 30 30 30 30 30 30 30 30 30 30 30 30 30 30 30 30 30 30 30 30 30 30 30 30 30 30 30 30 30 30 30 30 30 30 30 30 30 30 30 30 30 30 30 30 30 30 30 30 30 30 30 30 30 30 30 30 30 30 30 30 30 30 30 30 30 30 30 30 30 30 30 30 30 30 30 30 30 30 30 30 30 30 30 30 30 30 30 30 30 30 30 30 30 30 30 30 30 30 30 30 30 30 30 30 30 30 30 
245 157 223 245 157 223 245 157 223 245 157 223 245 157 223 245 157 223 245 157 223 245 157 223 245 157 223 245 157 223 245 157 223 245 157 223 245 157 223 245 157 223 245 157 223 245 157 223 245 157 223 245 157 223 245 157 223 245 157 223 245 157 223 245 157 223 245 157 223 245 157 223 245 157 223 245 157 223 245 157 223 245 157 223 245 157 223 245 157 223 245 157 223 245 157 223 245 157 223 245 157 223 245 157 223 245 157 223 245 157 223 245 157 223 245 157 223 245 157 223 245 157 223 245 157 223 245 157 223 245 157 223 245 157 223 245 157 223 245 157 223 245 157 223 245 157 223 245 157 223 30 30 30 30 30 30 30 30 30 30 30 30 30 30 30 30 30 30 30 30 30 30 30 30 30 30 30 30 30 30 30 30 30 30 30 30 30 30 30 30 30 30 30 30 30 30 30 30 30 30 30 30 30 30 30 30 30 30 30 30 30 30 30 30 30 30 30 30 30 30 30 30 30 30 30 30 30 30 30 30 30 30 30 30 30 30 30 30 30 30 30 30 30 30 30 30 30 30 30 30 30 30 30 30 30 30 30 30 30 30 30 30 30 30 30 30 30 30 30 30 30 30 30 30 30 30 30 30 30 30 30 30 30 30 30 30 30 30 30 30 30 30 30 30 30 30 30 30 30 30 
245 157 223 245 157 223 245 157 223 245 157 223 245 157 223 245 157 223 245 157 223 245 157 223 245 157 223 245 157 223 245 157 223 245 157 223 245 157 223 245 157 223 245 157 223 245 157 223 245 157 223 245 157 223 245 157 223 245 157 223 245 157 223 245 157 223 245 157 223 245 157 223 245 157 223 245 157 223 245 157 223 245 157 223 245 157 223 245 157 223 245 157 223 245 157 223 245 157 223 245 157 223 245 157 223 245 157 223 245 157 223 245 157 223 245 157 223 245 157 223 245 157 223 245 157 223 245 157 223 245 157 223 245 157 223 245 157 223 245 157 223 245 157 223 245 157 223 245 157 223 30 30 30 30 30 30 30 30 30 30 30 30 30 30 30 30 30 30 30 30 30 30 30 30 30 30 30 30 30 30 30 30 30 30 30 30 30 30 30 30 30 30 30 30 30 30 30 30 30 30 30 30 30 30 30 30 30 30 30 30 30 30 30 30 30 30 30 30 30 30 30 30 30 30 30 30 30 30 30 30 30 30 30 30 30 30 30 30 30 30 30 30 30 30 30 30 30 30 30 30 30 30 30 30 30 30 30 30 30 30 30 30 30 30 30 30 30 30 30 30 30 30 30 30 30 30 30 30 30 30 30 30 30 30 30 30 30 30 30 30 30 30 30 30 30 30 30 30 30 30 
245 157 223 245 157 223 245 157 223 245 157 223 245 157 223 245 157 223 245 157 223 245 157 223 245 157 223 245 157 223 245 157 223 245 157 223 245 157 223 245 157 223 245 157 223 245 157 223 245 157 223 245 157 223 245 157 223 245 157 223 245 157 223 245 157 223 245 157 223 245 157 223 245 157 223 245 157 223 245 157 223 245 157 223 245 157 223 245 157 223 245 157 223 245 157 223 245 157 223 245 157 223 245 157 223 245 157 223 245 157 223 245 157 223 245 157 223 245 157 223 245 157 223 245 157 223 245 157 223 245 157 223 245 157 223 245 157 223 245 157 223 245 157 223 245 157 223 245 157 223 30 30 30 30 30 30 30 30 30 30 30 30 30 30 30 30 30 30 30 30 30 30 30 30 30 30 30 30 30 30 30 30 30 30 30 30 30 30 30 30 30 30 30 30 30 30 30 30 30 30 30 30 30 30 30 30 30 30 30 30 30 30 30 30 30 30 30 30 30 30 30 30 30 30 30 30 30 30 30 30 30 30 30 30 30 30 30 30 30 30 30 30 30 30 30 30 30 30 30 30 30 30 30 30 30 30 30 30 30 30 30 30 30 30 30 30 30 30 30 30 30 30 30 30 30 30 30 30 30 30 30 30 30 30 30 30 30 30 30 30 30 30 30 30 30 30 30 30 30 30 
245 157 223 245 157 223 245 157 223 245 157 223 245 157 223 245 157 223 245 157 223 245 157 223 245 157 223 245 157 223 245 157 223 245 157 223 245 157 223 245 157 223 245 157 223 245 157 223 245 157 223 245 157 223 245 157 223 245 157 223 245 157 223 245 157 223 245 157 223 245 157 223 245 157 223 245 157 223 245 157 223 245 157 223 245 157 223 245 157 223 245 157 223 245 157 223 245 157 223 245 157 223 245 157 223 245 157 223 245 157 223 245 157 223 245 157 223 245 157 223 245 157 223 245 157 223 245 157 223 245 157 223 245 157 223 245 157 223 245 157 223 245 157 223 245 157 223 245 157 223 30 30 30 30 30 30 30 30 30 30 30 30 30 30 30 30 30 30 30 30 30 30 30 30 30 30 30 30 30 30 30 30 30 30 30 30 30 30 30 30 30 30 30 30 30 30 30 30 30 30 30 30 30 30 30 30 30 30 30 30 30 30 30 30 30 30 30 30 30 30 30 30 30 30 30 30 30 30 30 30 30 30 30 30 30 30 30 30 30 30 30 30 30 30 30 30 30 30 30 30 30 30 30 30 30 30 30 30 30 30 30 30 30 30 30 30 30 30 30 30 30 30 30 30 30 30 30 30 30 30 30 30 30 30 30 30 30 30 30 30 30 30 30 30 30 30 30 30 30 30 
245 157 223 245 157 223 245 157 223 245 157 223 245 157 223 245 157 223 245 157 223 245 157 223 245 157 223 245 157 223 245 157 223 245 157 223 245 157 223 245 157 223 245 157 223 245 157 223 245 157 223 245 157 223 245 157 223 245 157 223 245 157 223 245 157 223 245 157 223 245 157 223 245 157 223 245 157 223 245 157 223 245 157 223 245 157 223 245 157 223 245 157 223 245 157 223 245 157 223 245 157 223 245 157 223 245 157 223 245 157 223 245 157 223 245 157 223 245 157 223 245 157 223 245 157 223 245 157 223 245 157 223 245 157 223 245 157 223 245 157 223 245 157 223 245 157 223 245 157 223 30 30 30 30 30 30 30 30 30 30 30 30 30 30 30 30 30 30 30 30 30 30 30 30 30 30 30 30 30 30 30 30 30 30 30 30 30 30 30 30 30 30 30 30 30 30 30 30 30 30 30 30 30 30 30 30 30 30 30 30 30 30 30 30 30 30 30 30 30 30 30 30 30 30 30 30 30 30 30 30 30 30 30 30 30 30 30 30 30 30 30 30 30 30 30 30 30 30 30 30 30 30 30 30 30 30 30 30 30 30 30 30 30 30 30 30 30 30 30 30 30 30 30 30 30 30 30 30 30 30 30 30 30 30 30 30 30 30 30 30 30 30 30 30 30 30 30 30 30 30 
245 157 223 245 157 223 245 157 223 245 157 223 245 157 223 245 157 223 245 157 223 245 157 223 245 157 223 245 157 223 245 157 223 245 157 223 245 157 223 245 157 223 245 157 223 245 157 223 245 157 223 245 157 223 245 157 223 245 157 223 245 157 223 245 157 223 245 157 223 245 157 223 245 157 223 245 157 223 245 157 223 245 157 223 245 157 223 245 157 223 245 157 223 245 157 223 245 157 223 245 157 223 245 157 223 245 157 223 245 157 223 245 157 223 245 157 223 245 157 223 245 157 223 245 157 223 245 157 223 245 157 223 245 157 223 245 157 223 245 157 223 245 157 223 245 157 223 245 157 223 30 30 30 30 30 30 30 30 30 30 30 30 30 30 30 30 30 30 30 30 30 30 30 30 30 30 30 30 30 30 30 30 30 30 30 30 30 30 30 30 30 30 30 30 30 30 30 30 30 30 30 30 30 30 30 30 30 30 30 30 30 30 30 30 30 30 30 30 30 30 30 30 30 30 30 30 30 30 30 30 30 30 30 30 30 30 30 30 30 30 30 30 30 30 30 30 30 30 30 30 30 30 30 30 30 30 30 30 30 30 30 30 30 30 30 30 30 30 30 30 30 30 30 30 30 30 30 30 30 30 30 30 30 30 30 30 30 30 30 30 30 30 30 30 30 30 30 30 30 30 
245 157 223 245 157 223 245 157 223 245 157 223 245 157 223 245 157 223 245 157 223 245 157 223 245 157 223 245 157 223 245 157 223 245 157 223 245 157 223 245 157 223 245 157 223 245 157 223 245 157 223 245 157 223 245 157 223 245 157 223 245 157 223 245 157 223 245 157 223 245 157 223 245 157 223 245 157 223 245 157 223 245 157 223 245 157 223 245 157 223 245 157 223 245 157 223 245 157 223 245 157 223 245 157 223 245 157 223 245 157 223 245 157 223 245 157 223 245 157 223 245 157 223 245 157 223 245 157 223 245 157 223 245 157 223 245 157 223 245 157 223 245 157 223 245 157 223 245 157 223 30 30 30 30 30 30 30 30 30 30 30 30 30 30 30 30 30 30 30 30 30 30 30 30 30 30 30 30 30 30 30 30 30 30 30 30 30 30 30 30 30 30 30 30 30 30 30 30 30 30 30 30 30 30 30 30 30 30 30 30 30 30 30 30 30 30 30 30 30 30 30 30 30 30 30 30 30 30 30 30 30 30 30 30 30 30 30 30 30 30 30 30 30 30 30 30 30 30 30 30 30 30 30 30 30 30 30 30 30 30 30 30 30 30 30 30 30 30 30 30 30 30 30 30 30 30 30 30 30 30 30 30 30 30 30 30 30 30 30 30 30 30 30 30 30 30 30 30 30 30 
