P3
152 182
255
50 46 44 46 43 41 46 45 43 45 45 46 43 44 47 43 45 46 39 41 40
40 42 42 45 48 47 45 47 46 43 45 44 45 48 47 43 45 44 39 41 41
44 46 46 43 45 44 43 45 44 44 46 45 44 46 45 44 46 45 44 46 45
45 47 46 45 47 46 44 46 45 44 46 45 44 46 45 44 46 45 44 46 45
44 46 45 44 46 45 44 46 45 44 46 45 44 46 45 44 46 45 43 45 44
43 45 44 43 45 44 43 45 44 41 43 43 47 49 48 41 43 42 43 45 45
50 52 51 84 86 86 48 49 51 41 42 44 39 41 42 44 46 47 41 42 44
40 41 43 40 41 43 40 41 43 40 41 43 40 41 43 40 41 43 40 41 43
40 41 43 40 42 44 41 42 44 40 41 43 40 41 43 39 41 42 40 42 43
40 42 43 40 41 43 40 41 43 39 40 42 39 41 43 40 41 43 40 41 43
40 41 43 40 41 43 39 40 43 42 44 45 42 44 44 38 40 38 42 45 42
42 44 42 41 43 43 41 43 45 41 42 45 42 43 45 41 43 44 41 42 44
41 42 44 42 43 45 41 43 44 40 42 43 41 43 44 42 44 45 41 43 44
42 43 45 42 43 45 42 43 45 42 43 45 41 43 44 41 42 44 41 42 44
41 42 44 41 42 44 41 43 43 41 43 42 41 43 43 42 44 43 42 44 43
42 44 43 42 44 43 41 43 42 41 43 42 41 43 42 42 44 43 42 44 43
42 44 43 42 44 43 41 43 42 41 43 43 42 44 43 42 44 43 41 43 42
41 43 42 41 43 42 41 43 43 42 44 43 42 44 43 43 45 44 43 45 44
43 45 44 43 45 44 44 46 45 45 45 45 43 43 43 43 43 43 41 41 41
41 41 41 43 43 43 45 45 45 42 42 42 43 43 43 45 44 44 55 54 55
64 62 63 46 45 44 43 42 39 45 44 41 47 45 44 49 47 47 45 44 45
42 42 43 42 44 43 42 44 44 44 46 45 42 44 43 47 45 43 47 46 44
45 44 44 42 42 44 44 43 47 42 43 44 41 44 43 41 43 42 42 45 44
45 47 46 44 46 45 45 47 46 43 45 44 44 46 45 43 45 44 43 45 44
43 45 44 44 46 45 44 46 45 44 46 45 44 46 45 45 47 46 45 47 46
44 46 45 44 46 45 44 46 45 44 46 45 44 46 45 44 46 45 43 45 44
43 45 44 44 46 45 44 46 45 44 46 45 43 45 44 43 45 44 43 45 44
43 45 44 43 45 44 45 47 47 39 41 41 43 45 45 41 43 43 60 62 62
47 49 50 43 44 46 42 44 45 39 41 42 39 41 43 40 41 43 40 41 43
40 41 43 40 41 43 40 41 43 40 41 43 40 41 43 39 41 42 40 41 43
41 42 44 40 41 43 40 41 43 39 41 42 40 42 43 40 42 43 40 41 43
40 41 43 39 40 42 39 41 43 40 41 43 40 41 43 40 41 43 40 41 43
39 40 43 41 42 44 43 45 45 76 78 76 85 88 85 43 46 43 39 41 41
40 42 43 40 42 44 42 44 46 41 43 44 41 42 44 41 42 44 42 43 45
41 43 44 40 42 43 41 43 44 42 44 45 41 43 44 42 43 45 42 43 45
42 43 45 42 43 45 41 43 44 41 42 44 41 42 44 41 42 44 41 42 44
41 43 43 41 43 42 41 43 43 42 44 43 42 44 43 42 44 43 42 44 43
41 43 42 41 43 42 41 43 42 42 44 43 42 44 43 42 44 43 42 44 43
42 44 44 43 45 44 42 44 43 41 43 42 40 42 41 40 42 42 41 43 42
41 43 43 42 44 43 42 44 43 43 45 44 43 45 44 43 45 44 43 45 44
44 45 45 44 44 44 43 43 43 44 44 44 43 43 43 43 43 43 43 43 43
42 42 42 45 45 45 45 45 45 52 52 53 54 54 55 44 43 45 44 44 44
45 45 45 45 45 45 49 49 49 47 47 48 45 45 47 46 46 47 42 44 44
41 43 42 43 45 44 43 45 44 43 41 41 44 44 44 45 45 46 45 45 47
43 43 45 42 43 44 42 45 44 43 45 44 42 44 43 44 46 45 43 45 44
44 46 45 44 46 45 44 46 45 43 45 44 45 47 46 45 47 46 45 47 46
45 47 46 44 46 45 43 45 44 44 46 45 44 46 45 43 45 44 43 46 45
44 46 45 44 46 45 43 45 44 41 43 42 43 45 45 44 46 45 44 46 45
44 46 45 44 46 45 42 45 44 43 45 44 44 47 46 45 47 46 44 46 45
43 45 44 43 45 44 43 45 44 43 45 44 39 41 42 57 59 60 47 48 50
41 42 44 42 44 45 40 41 43 39 41 42 39 40 42 39 40 42 40 41 43
39 41 43 40 42 44 41 43 45 42 43 45 41 42 44 41 42 44 40 41 43
40 41 43 39 41 42 40 42 43 40 41 43 39 40 42 39 40 42 41 42 44
41 42 44 41 42 44 40 41 43 39 40 42 40 41 43 40 41 43 44 46 46
52 54 53 115 117 114 105 108 104 42 44 40 40 42 40 41 43 42 39 41 42
41 42 44 41 42 44 41 42 44 41 42 44 41 42 44 43 44 46 43 44 46
42 43 45 41 43 44 41 42 44 41 42 44 41 42 44 41 42 44 41 42 44
41 43 44 42 43 45 42 43 45 42 43 45 42 43 45 40 42 42 39 41 40
40 42 41 41 43 42 43 45 44 41 43 42 41 43 42 41 43 43 42 44 43
41 43 43 40 42 41 40 42 41 41 43 42 41 43 42 42 44 43 43 45 44
42 44 43 42 44 43 42 44 43 42 44 43 41 43 42 41 43 42 41 43 42
42 44 43 44 46 45 42 44 43 40 42 42 41 43 43 43 45 44 43 43 43
41 41 41 45 45 45 44 44 44 42 42 42 44 44 44 44 44 44 43 43 43
47 47 47 49 48 49 44 44 46 44 43 45 44 44 46 43 43 45 45 45 46
45 45 46 46 45 47 46 46 48 45 46 47 44 46 45 43 45 44 42 44 43
41 43 42 42 42 43 43 44 46 44 45 48 44 45 48 43 43 45 42 43 44
41 43 42 41 43 42 43 46 45 44 46 45 45 48 47 44 46 45 42 44 43
43 45 44 44 46 45 44 46 45 44 46 45 44 46 45 44 46 45 44 46 45
43 45 44 44 46 45 44 46 45 43 45 44 43 45 44 43 45 44 44 46 45
43 45 44 42 44 43 43 45 45 44 46 45 44 46 45 44 46 45 44 46 45
42 45 44 43 45 44 44 46 45 44 46 45 44 46 45 43 45 44 43 45 44
43 45 44 43 45 44 42 44 44 46 48 49 55 56 58 40 41 43 40 42 44
39 41 42 39 41 42 39 40 42 39 40 42 40 41 43 40 42 44 41 42 44
41 42 44 40 42 43 40 42 43 41 42 44 40 41 43 40 41 43 39 41 42
40 42 43 40 41 43 39 41 42 39 41 43 40 42 44 41 42 44 40 42 43
40 41 43 39 41 42 39 40 42 39 41 42 48 50 50 121 124 121 184 187 183
104 107 102 43 46 42 40 42 40 39 42 41 40 42 42 41 43 44 41 42 44
41 42 44 41 42 44 41 42 44 43 44 46 43 44 46 42 43 45 42 43 45
42 43 45 41 42 44 41 42 44 41 42 44 41 42 44 41 42 44 41 42 44
41 42 44 41 42 44 41 42 44 40 42 42 40 42 41 40 42 41 40 42 42
42 44 44 41 43 42 41 43 42 41 43 43 42 44 43 42 44 43 41 43 42
42 44 43 42 44 43 42 44 43 43 45 44 43 45 44 42 44 43 42 44 43
42 44 43 42 44 43 41 43 42 41 43 42 41 43 42 42 44 43 42 44 43
42 44 43 42 44 43 42 44 44 44 45 44 46 46 46 42 42 42 40 40 40
45 45 45 45 45 45 43 43 43 47 47 47 49 49 49 45 45 45 45 46 45
43 44 44 43 44 45 44 45 47 43 44 48 44 45 48 44 45 47 44 45 46
45 47 46 44 46 45 44 46 45 43 45 44 42 44 43 42 44 43 45 45 46
41 45 47 43 45 49 43 45 48 43 43 45 42 43 44 41 43 42 42 45 44
44 47 46 44 46 45 46 48 48 44 46 45 42 44 43 42 44 43 44 46 45
44 46 45 44 46 45 44 46 45 44 46 45 44 46 45 43 45 44 44 46 45
44 46 45 43 45 44 42 44 43 43 45 44 43 46 45 43 45 44 43 45 44
43 45 44 43 45 44 43 45 44 43 45 44 43 45 44 42 45 44 43 45 44
43 45 44 43 45 44 42 44 43 42 44 43 42 44 43 42 44 43 42 44 43
40 42 42 41 43 44 48 50 52 54 56 57 39 41 42 40 41 43 39 41 42
39 40 42 39 40 42 40 41 43 40 41 43 41 42 44 40 42 43 39 40 42
39 41 42 41 42 44 40 41 43 40 41 43 39 41 42 39 41 43 40 41 43
40 41 43 40 41 43 40 41 43 40 41 43 40 41 43 40 41 43 40 41 43
41 42 44 38 40 41 45 47 46 79 82 79 105 107 103 71 74 68 43 46 40
41 43 40 40 42 42 40 42 42 41 43 44 41 42 44 41 42 44 41 42 44
41 42 44 42 43 45 42 43 45 42 43 45 42 43 45 42 43 45 41 42 44
41 42 44 41 42 44 41 42 44 41 42 44 41 42 44 41 42 44 41 42 44
41 42 44 41 43 42 40 42 41 40 42 41 40 42 42 41 43 43 41 43 42
41 43 42 41 43 43 42 44 43 42 44 43 42 44 43 42 44 43 43 45 44
43 45 44 43 45 44 43 45 44 42 44 43 42 44 43 42 44 43 42 44 43
41 43 42 41 43 42 41 43 42 42 44 43 43 45 44 43 45 44 42 44 43
41 43 42 41 43 42 41 41 41 39 39 39 42 42 42 44 44 44 47 47 47
46 46 46 47 47 47 49 49 49 47 47 47 43 46 42 43 46 43 44 46 45
44 45 46 44 45 47 43 44 46 43 45 45 43 45 44 44 46 43 44 46 43
43 45 44 43 45 44 43 45 44 43 45 44 41 42 44 41 45 48 42 46 49
43 45 48 43 43 45 41 42 43 44 47 46 49 51 50 44 46 45 44 46 45
46 48 48 45 47 46 43 45 44 42 44 43 42 44 43 43 45 44 43 45 44
43 45 44 43 45 44 43 45 44 43 45 44 44 46 45 44 46 45 43 45 44
42 44 43 42 44 43 43 46 45 44 46 45 43 45 44 43 45 44 43 45 44
43 45 44 43 45 44 43 45 44 43 45 44 43 45 44 43 45 44 42 44 43
41 43 42 42 44 43 42 44 43 42 44 43 42 44 43 40 42 42 42 44 46
40 42 43 61 63 64 45 47 49 40 41 43 39 41 42 39 40 42 39 40 42
40 41 43 39 41 42 40 41 43 40 41 43 39 41 42 39 41 42 41 42 44
40 41 43 40 41 43 39 41 42 39 40 42 40 41 43 40 42 44 40 42 43
39 41 42 39 40 42 39 41 43 40 41 43 40 42 44 40 42 43 37 39 39
47 50 48 74 77 73 106 108 102 55 58 51 42 45 38 44 46 42 43 45 43
42 44 44 41 43 44 41 42 44 41 42 44 41 42 44 41 42 44 41 43 44
42 43 45 42 43 45 43 44 46 42 44 45 41 42 44 41 42 44 41 42 44
41 42 44 40 42 43 40 41 43 40 41 43 40 41 43 40 41 43 41 43 42
40 42 41 40 42 41 40 42 41 41 43 42 41 43 42 41 43 42 41 43 43
42 44 43 41 43 43 41 43 42 41 43 43 42 44 43 42 44 43 43 45 44
43 45 44 42 44 43 42 44 43 42 44 43 42 44 43 41 43 42 41 43 42
41 43 42 42 44 43 43 45 44 42 44 43 41 43 43 42 44 43 43 44 44
46 46 46 57 57 57 68 68 68 67 67 67 55 55 55 48 48 48 46 46 46
48 48 48 52 52 52 45 47 42 45 48 43 45 47 44 43 45 45 43 45 46
43 44 46 43 45 44 43 45 42 44 46 41 43 46 41 43 45 44 43 45 44
43 45 44 43 45 44 42 44 45 41 45 47 43 45 49 43 45 47 42 43 45
39 41 41 49 51 51 54 56 55 43 45 45 42 44 44 45 47 47 45 47 47
44 46 46 43 45 45 41 43 42 43 45 44 43 45 44 43 45 44 43 45 44
43 45 44 43 45 44 43 46 45 44 46 45 43 45 44 42 44 43 42 44 44
43 45 44 44 46 45 44 46 45 42 44 44 42 44 43 42 44 43 42 44 43
42 44 43 43 45 44 43 45 44 43 45 44 41 43 43 40 42 42 41 43 42
41 43 42 41 43 42 41 43 42 42 44 45 44 46 48 41 43 44 54 55 57
56 58 59 39 41 42 39 41 42 39 40 42 39 40 42 40 41 43 37 39 41
39 41 43 40 41 43 40 41 43 40 41 43 41 42 44 40 41 43 40 41 43
39 41 42 39 40 41 40 41 42 41 42 43 41 42 43 39 41 41 39 40 41
39 40 41 40 41 42 40 42 43 41 42 43 46 48 48 38 39 38 54 57 52
147 149 143 76 79 71 36 39 32 41 43 38 40 42 41 39 41 41 40 41 42
41 42 44 41 42 44 41 42 44 41 42 44 41 42 44 41 43 44 42 43 45
42 44 45 42 44 45 41 42 44 41 42 44 41 42 44 41 42 44 40 42 43
40 41 43 40 41 43 40 41 43 40 41 43 41 43 43 41 43 42 40 42 41
40 42 41 41 43 42 41 43 42 41 43 42 41 43 43 42 44 43 41 43 43
40 42 41 40 42 41 41 43 42 41 43 42 42 44 43 43 45 44 42 44 43
42 44 43 42 44 43 42 44 43 41 43 42 41 43 42 41 43 42 42 44 43
41 42 42 41 42 41 42 43 43 46 47 47 57 58 57 71 70 69 59 59 58
46 47 46 40 43 41 40 43 42 44 47 45 46 48 46 49 50 48 56 57 55
47 50 44 46 49 43 45 47 45 41 43 43 41 43 44 42 43 44 42 44 44
43 45 43 43 45 40 43 45 42 42 44 44 43 45 44 43 45 44 43 45 44
43 46 45 43 45 44 44 46 45 42 44 43 43 45 44 39 41 42 55 57 58
49 51 52 40 42 43 42 44 45 45 47 48 44 45 47 43 44 46 43 44 46
43 44 45 44 46 45 44 46 45 44 46 45 44 46 45 43 45 44 41 44 43
42 45 44 43 45 44 42 44 43 42 44 45 43 44 46 43 44 46 43 44 46
43 44 46 42 44 45 42 43 45 42 43 45 42 43 45 42 43 45 42 43 45
42 44 46 43 44 46 42 44 45 42 43 44 41 42 44 40 41 43 40 41 43
39 41 42 40 42 43 42 44 45 43 45 46 41 43 44 70 72 73 54 56 58
34 36 37 40 42 44 39 41 42 39 41 43 40 41 43 40 41 43 40 41 43
40 41 43 40 41 43 40 41 43 40 41 43 40 41 43 40 41 43 39 41 41
39 41 41 40 42 41 40 42 41 41 43 42 39 41 41 39 41 40 40 42 41
40 42 42 40 41 43 44 43 49 36 35 37 80 80 78 178 179 172 138 139 129
54 55 47 47 47 44 40 40 41 39 39 43 39 40 43 40 41 43 40 41 43
40 41 43 40 41 43 40 41 43 40 41 43 41 42 44 41 43 44 42 43 45
42 43 45 41 42 44 41 42 44 41 43 44 40 42 43 40 41 43 40 41 43
40 41 43 40 41 43 40 42 42 41 43 42 41 43 42 41 43 42 42 44 43
40 42 41 40 42 41 41 43 42 41 43 43 42 44 43 41 43 42 42 44 43
42 44 43 41 43 42 42 44 43 40 42 41 43 45 44 43 45 44 41 43 43
42 43 43 44 44 44 42 42 42 41 41 41 43 43 43 48 48 48 49 49 49
46 46 46 47 47 47 45 45 44 45 43 39 46 46 41 45 49 44 44 51 47
43 51 47 42 49 45 40 45 42 42 45 41 47 47 44 49 51 48 44 46 43
41 43 40 43 45 43 41 44 43 41 43 43 42 44 45 40 42 43 41 42 43
44 45 46 43 45 44 41 43 42 40 42 42 42 44 44 44 46 45 43 45 44
44 46 45 42 44 43 43 45 44 45 47 47 64 66 68 49 51 52 39 41 42
42 44 45 45 46 48 44 45 47 43 44 46 42 43 45 42 44 45 43 46 45
44 46 45 44 46 45 44 46 45 43 45 44 42 44 43 43 45 44 43 45 44
41 43 42 42 44 44 43 44 46 43 44 46 43 44 46 43 44 46 41 43 44
41 42 44 41 42 44 41 42 44 41 42 44 41 43 44 42 43 45 42 44 45
42 43 45 41 42 44 41 42 44 40 41 43 40 41 43 39 41 42 41 43 44
39 41 42 43 44 46 35 36 38 58 60 62 86 88 89 41 43 44 39 40 42
40 41 43 40 42 44 40 41 43 40 41 43 40 41 43 40 41 43 40 41 43
40 41 43 40 41 43 40 41 43 40 41 43 39 41 41 39 41 41 40 42 41
40 42 41 41 43 42 38 40 40 38 40 40 40 42 41 41 43 43 42 43 44
43 43 48 50 50 52 110 110 107 120 121 114 108 109 101 51 52 45
43 44 40 44 44 45 42 41 46 42 43 46 40 41 43 40 41 43 40 41 43
40 41 43 40 41 43 40 42 43 41 42 44 41 42 44 41 42 44 42 43 45
41 42 44 41 42 44 41 43 44 40 42 43 40 41 43 40 41 43 40 41 43
40 41 43 41 43 42 41 43 43 42 44 43 42 44 43 42 44 44 40 42 42
40 42 42 41 43 42 41 43 42 41 43 42 41 43 42 41 43 43 42 44 43
41 43 42 41 43 43 41 43 43 44 46 45 44 46 45 41 43 43 43 43 43
46 46 46 47 47 47 47 47 47 46 46 46 45 45 45 45 45 45 42 42 42
46 46 46 50 50 49 58 57 54 57 58 53 48 52 48 43 49 45 42 48 44
42 47 43 42 46 43 44 46 43 45 46 44 53 54 52 45 48 45 42 44 42
44 47 44 41 43 43 40 42 42 41 43 44 41 42 44 42 43 45 43 45 45
42 44 43 41 43 42 41 43 42 42 44 43 42 44 43 43 45 44 44 46 45
42 44 43 43 45 44 48 50 50 48 50 51 43 45 46 39 41 42 41 43 45
44 46 48 43 44 46 42 43 45 42 43 45 42 43 44 43 45 44 43 45 44
43 45 44 43 45 44 43 45 44 43 45 44 43 45 44 43 45 44 41 43 42
42 44 44 43 44 46 43 44 46 43 44 46 43 44 46 43 44 46 43 44 46
43 44 46 43 44 46 43 44 46 41 42 44 41 43 45 42 43 45 41 43 44
41 42 44 41 42 44 40 41 43 40 41 43 39 41 42 39 40 42 40 42 43
38 40 41 38 40 42 37 39 40 71 72 74 59 61 63 36 38 40 39 41 42
40 42 43 40 41 43 40 41 43 40 41 43 40 41 43 40 41 43 41 42 44
40 42 43 39 41 42 39 40 42 39 41 41 39 41 41 40 42 41 40 42 41
41 43 42 38 40 40 39 41 40 40 42 41 40 42 42 42 43 43 44 43 47
61 60 61 128 129 126 122 123 116 86 88 80 51 52 45 43 43 40 43 43 44
39 39 42 40 41 44 41 42 44 41 42 44 41 42 44 41 42 44 41 42 44
41 42 44 41 42 44 41 42 44 40 42 43 41 42 44 40 41 43 40 41 43
40 42 43 40 42 43 40 41 43 40 41 43 40 41 43 40 41 43 41 43 43
42 44 43 42 44 44 43 45 44 43 45 44 41 43 42 41 43 42 41 43 42
41 43 42 40 42 41 40 42 41 41 43 42 41 43 42 40 42 41 40 42 41
43 45 45 42 44 43 39 41 40 46 48 47 55 55 55 55 55 55 54 54 54
54 54 54 55 55 55 62 62 62 60 60 60 52 52 52 52 52 52 51 50 50
47 46 46 41 41 40 41 43 41 42 46 43 41 45 42 41 45 42 44 46 43
45 46 44 46 45 45 49 50 49 50 52 50 47 49 46 42 44 42 42 44 43
41 43 43 41 42 44 42 43 45 44 45 47 43 44 45 41 43 42 41 43 42
41 43 43 42 44 43 42 44 43 43 45 44 44 46 45 42 44 43 43 45 44
44 46 45 42 43 45 39 41 42 39 41 42 41 43 45 43 45 47 43 44 46
42 43 45 41 42 44 41 43 44 42 44 44 42 44 43 42 44 43 42 44 43
42 44 43 41 44 43 42 45 44 43 45 44 42 44 43 42 44 45 43 44 46
43 44 46 43 44 46 43 44 46 42 44 45 42 43 45 42 43 45 42 43 45
42 43 45 40 41 43 40 42 44 41 42 44 40 42 43 40 42 43 41 42 44
40 41 43 40 41 43 39 41 42 39 41 43 39 41 42 38 40 41 43 45 46
39 41 43 44 46 48 65 66 68 43 45 46 38 40 41 39 40 42 40 41 43
40 41 43 40 41 43 40 41 43 40 41 43 40 41 43 40 41 43 40 41 43
40 41 43 39 41 41 39 41 41 40 42 41 40 42 41 41 43 42 41 43 42
40 42 41 40 42 41 40 42 41 40 41 41 42 41 44 54 54 54 143 143 141
180 181 175 133 134 127 56 57 51 44 45 41 43 43 43 45 44 46 42 43 45
42 43 45 42 43 45 42 43 45 42 43 45 42 43 45 41 43 44 41 42 44
40 41 43 40 41 43 40 42 43 39 41 42 39 40 42 40 41 43 40 42 43
40 41 43 40 41 43 40 41 43 40 41 43 40 42 42 41 43 42 41 43 42
41 43 42 42 44 43 42 44 43 41 43 42 41 43 42 40 42 41 40 42 41
39 41 41 40 42 42 41 43 42 40 42 41 38 40 39 41 43 42 41 43 42
48 50 49 54 56 56 53 53 53 44 44 44 39 39 39 41 41 41 43 43 43
46 46 46 47 47 47 43 43 43 44 44 44 44 43 44 45 44 47 45 44 46
45 45 44 42 44 40 41 43 39 43 43 41 44 44 42 46 44 43 48 44 45
48 49 47 49 51 48 46 48 46 42 44 42 42 44 44 43 46 45 41 42 44
42 44 45 44 45 47 41 43 43 39 41 40 40 42 42 42 44 43 42 44 43
40 42 41 44 46 45 44 46 45 42 44 43 42 44 43 41 42 43 44 45 47
39 40 42 39 41 42 41 43 45 42 43 45 42 43 45 41 42 44 42 43 45
42 43 44 42 44 44 43 45 44 43 45 44 42 44 43 41 43 42 41 44 43
42 44 43 42 44 43 42 44 43 42 44 44 42 43 45 42 43 45 42 43 45
42 43 45 42 43 45 42 43 45 41 43 44 41 42 44 40 41 43 40 41 43
40 41 43 40 41 43 40 41 43 40 41 43 40 41 43 40 41 43 40 41 43
40 41 43 40 42 43 38 40 41 40 41 43 38 40 41 39 41 42 37 39 40
52 54 56 53 55 56 38 40 41 39 41 42 39 41 42 40 41 43 40 42 43
42 43 45 39 40 42 39 40 42 39 40 42 39 41 43 40 41 43 39 41 41
39 41 40 39 41 40 39 41 40 40 42 41 42 44 44 41 43 42 40 42 41
39 41 41 40 42 41 41 41 42 120 120 120 157 157 155 94 95 91 87 87 82
53 54 50 43 43 41 40 40 40 42 42 43 43 44 45 43 44 46 42 44 45
42 43 45 42 43 45 42 43 45 40 42 43 40 42 43 41 42 44 40 42 43
41 42 44 40 41 43 40 41 43 40 42 43 41 42 44 41 42 44 41 42 44
41 42 44 41 42 44 40 42 42 40 42 41 40 42 41 40 42 41 40 42 41
41 43 42 40 42 42 41 43 42 41 43 42 41 43 42 40 42 42 40 42 41
40 42 41 40 42 41 42 44 43 42 44 43 43 45 44 50 52 52 48 50 50
42 43 42 43 43 43 45 45 45 45 45 45 43 43 43 41 41 41 42 42 42
42 42 42 43 43 43 43 44 45 44 44 48 44 44 46 44 43 42 44 43 39
44 43 39 48 46 41 44 41 39 46 42 40 52 48 48 52 52 50 43 45 43
46 49 46 42 44 42 41 44 43 43 45 44 42 44 45 43 44 46 42 44 46
41 43 44 41 43 43 41 43 42 41 43 43 42 44 44 46 48 48 45 47 46
43 45 44 42 44 43 41 43 42 41 42 43 41 42 44 40 41 43 40 42 44
41 42 44 41 42 44 41 42 44 41 42 44 42 43 45 42 43 44 42 45 44
43 45 44 43 45 44 41 43 42 41 43 42 42 44 43 42 44 43 42 44 43
42 44 43 42 43 44 42 43 45 41 42 44 41 42 44 42 43 45 42 44 46
42 44 45 41 43 44 41 42 44 40 41 43 40 41 43 40 41 43 40 41 43
40 41 43 39 41 42 39 40 42 39 40 42 40 41 43 40 41 43 39 41 42
39 41 43 40 41 43 40 41 43 39 40 42 39 41 42 35 37 38 61 63 64
46 47 49 40 42 43 40 42 43 40 42 43 39 40 42 41 43 44 39 41 42
39 40 42 39 40 42 39 40 42 39 40 42 39 41 41 39 41 40 39 41 40
39 41 40 39 41 40 41 44 43 40 42 41 41 43 43 38 40 39 44 45 45
83 83 82 119 119 118 68 68 66 54 54 51 52 52 49 52 52 49 47 47 45
44 44 43 42 42 42 43 44 44 43 44 46 42 43 45 42 43 45 42 43 45
41 43 44 40 42 43 40 42 43 41 43 44 40 42 43 41 42 44 40 41 43
40 41 43 40 42 43 41 42 44 41 42 44 41 42 44 41 42 44 41 42 44
40 42 42 40 42 41 40 42 41 40 42 41 40 42 41 40 42 41 40 42 42
41 43 42 41 43 42 41 43 42 41 43 42 40 42 41 40 42 41 40 42 42
43 45 44 41 43 43 43 45 44 47 49 48 43 45 45 44 44 44 46 46 46
44 44 44 42 42 42 42 42 42 42 42 42 42 42 42 42 42 42 42 42 42
42 43 44 45 46 49 44 44 45 44 43 41 45 42 37 44 41 33 47 43 35
53 48 42 73 67 63 70 65 63 59 60 57 54 56 53 47 49 46 44 46 44
40 42 41 42 44 43 44 45 46 44 45 47 42 44 46 42 43 44 42 44 44
43 45 45 44 46 46 44 46 45 47 49 48 43 45 44 42 44 43 42 44 43
40 42 41 40 41 42 40 42 44 41 42 44 41 42 44 41 42 44 40 42 44
41 42 44 41 42 44 42 43 45 42 43 44 42 45 44 43 45 44 43 45 44
41 43 42 41 43 42 42 44 43 42 44 43 42 44 43 42 44 43 42 43 44
42 43 45 41 42 44 41 42 44 42 43 45 42 43 45 42 43 45 41 42 44
40 42 43 40 41 43 39 40 42 39 40 42 39 40 42 39 40 42 38 40 41
37 38 40 37 39 41 38 39 41 38 39 41 38 40 42 40 41 43 40 41 43
40 41 43 39 41 42 38 40 41 38 39 41 40 42 43 60 61 63 40 42 43
38 40 41 39 41 42 37 39 40 38 40 41 39 41 42 39 40 42 39 40 42
39 40 42 39 40 42 39 41 41 39 41 40 39 41 40 39 41 40 39 41 40
42 44 44 79 81 80 55 57 57 41 43 43 50 51 50 65 66 64 40 40 38
38 39 36 39 39 37 50 50 48 55 56 54 56 56 54 46 46 44 44 44 42
43 44 44 42 43 45 42 43 45 41 43 44 41 42 44 41 43 44 40 42 43
40 42 43 41 43 44 40 42 43 41 42 44 40 41 43 40 41 43 40 42 43
41 42 44 41 42 44 41 42 44 41 42 44 41 42 44 41 43 43 41 43 42
41 43 42 41 43 42 41 43 42 42 44 43 41 43 42 41 43 42 40 42 41
40 42 41 41 43 42 40 42 41 40 42 41 41 43 42 43 45 44 42 44 43
42 44 44 44 46 46 43 45 44 42 43 42 44 44 44 43 43 43 43 43 43
45 45 45 42 42 42 43 43 43 45 45 45 44 44 44 44 45 46 43 45 47
44 44 43 45 44 38 45 42 32 50 44 32 68 61 50 104 97 88 119 111 105
75 69 64 56 56 53 62 64 61 46 48 45 43 45 43 38 40 40 42 44 43
44 45 46 44 45 47 42 44 46 42 44 44 41 43 42 39 41 40 42 44 43
48 50 49 42 44 43 41 43 42 41 43 42 40 42 41 40 42 41 40 41 41
40 41 43 41 43 45 41 42 44 40 41 43 40 42 44 41 42 44 41 42 44
42 43 45 42 43 44 42 45 44 43 45 44 43 45 44 41 43 42 41 43 42
42 44 43 42 44 43 42 44 43 42 44 43 42 43 44 42 43 45 41 42 44
41 42 44 42 43 45 42 43 45 41 42 44 40 42 43 39 41 42 39 40 42
39 40 42 39 40 42 39 40 42 39 40 42 38 40 41 37 38 40 37 38 40
37 39 41 38 39 41 39 41 42 40 41 43 41 42 44 41 42 44 40 41 43
39 41 42 40 42 44 36 38 39 53 55 56 68 70 72 39 41 43 37 39 41
38 40 42 37 39 40 38 40 42 39 40 42 39 40 42 39 40 42 39 40 42
39 41 41 39 41 40 39 41 40 39 41 40 39 41 40 40 42 41 65 67 66
77 79 79 47 49 48 43 45 44 48 48 46 48 49 46 54 54 52 43 44 42
42 42 41 51 52 50 58 59 57 45 46 44 44 44 43 43 44 45 41 43 44
41 42 44 41 42 44 40 41 43 41 43 44 40 42 43 40 42 43 41 43 44
40 42 43 41 42 44 40 41 43 40 41 43 40 42 43 41 42 44 41 42 44
41 42 44 41 42 44 41 42 44 41 43 43 41 43 42 41 43 42 41 43 42
41 43 42 41 43 42 41 43 42 41 43 42 40 42 41 40 42 41 40 42 41
40 42 41 40 42 42 41 43 43 43 45 45 43 45 44 42 44 43 42 44 43
42 44 44 42 42 42 44 44 44 46 46 46 45 45 45 47 47 47 48 48 48
47 47 47 44 44 44 42 42 42 41 42 42 41 44 44 44 44 41 51 49 40
96 91 78 136 128 114 132 124 110 112 104 92 78 70 60 61 54 46
50 51 47 52 54 52 52 54 51 41 44 42 40 43 42 42 44 43 44 45 46
44 45 47 42 44 46 41 43 43 42 44 43 45 47 46 48 50 49 48 50 50
40 42 42 40 42 41 40 42 41 40 42 41 40 42 41 39 41 41 39 41 43
42 44 46 42 43 45 40 41 43 40 42 44 41 42 44 41 42 44 42 43 45
42 43 44 42 45 44 43 45 44 43 45 44 41 43 43 41 43 42 42 44 43
42 44 43 42 44 43 42 44 43 42 43 44 42 43 45 41 42 44 41 42 44
42 43 45 41 43 44 41 42 44 40 41 43 39 40 42 39 40 42 39 40 42
39 40 42 39 40 42 39 40 42 38 39 41 37 39 41 38 39 41 38 40 42
39 40 42 39 41 43 40 42 44 41 42 44 41 42 44 40 41 43 39 40 42
36 38 40 39 40 42 37 39 40 58 60 61 51 53 54 39 40 42 39 41 42
38 40 41 38 40 41 39 40 42 39 40 42 39 40 42 39 40 42 39 41 41
39 41 40 39 41 40 39 41 40 39 41 40 39 41 40 40 42 41 63 66 65
53 55 54 41 42 41 43 43 42 46 46 44 52 52 50 54 54 53 52 52 52
47 47 46 45 45 44 45 45 44 43 43 42 41 43 43 41 42 44 41 42 44
40 42 43 40 41 43 41 43 44 40 42 43 40 42 43 41 43 44 40 42 43
41 42 44 40 41 43 40 41 43 40 42 43 41 42 44 41 42 44 41 42 44
41 42 44 41 42 44 41 43 43 42 44 43 42 44 43 42 44 43 42 44 43
40 42 41 40 42 41 41 43 42 41 43 42 41 43 42 40 42 41 39 41 41
40 42 42 42 44 43 43 45 45 43 45 44 42 44 43 41 43 42 42 44 43
47 47 47 53 52 52 53 53 53 49 49 49 46 47 47 46 46 47 43 43 43
40 40 40 42 42 42 44 45 45 46 49 48 45 44 40 109 107 97 169 163 149
137 129 113 85 77 61 60 52 37 54 47 36 47 41 33 43 43 39 43 45 43
44 46 44 40 42 40 41 44 43 42 44 43 44 45 46 44 45 47 42 44 46
45 47 48 49 51 51 44 46 45 41 43 42 42 44 43 38 39 42 40 41 44
39 40 43 39 41 44 40 42 45 42 43 45 41 42 44 41 42 44 40 41 43
40 41 43 40 41 43 41 43 45 41 42 44 41 42 44 42 44 46 44 45 46
43 45 45 41 43 43 41 43 44 42 43 44 41 43 43 39 41 41 39 40 41
40 42 43 41 42 45 41 42 45 40 41 44 40 41 44 39 40 43 40 42 45
40 41 44 38 39 42 38 39 42 38 40 43 38 40 43 39 41 44 40 41 44
37 38 41 36 38 41 38 39 42 38 39 42 38 39 42 38 39 42 39 41 44
40 41 44 40 41 44 40 42 45 41 42 45 39 40 43 39 40 43 39 40 43
39 40 43 40 41 44 61 63 63 43 45 45 42 44 44 38 40 40 40 42 41
40 42 41 40 42 41 40 42 41 40 42 41 37 39 38 38 41 40 39 41 40
41 43 42 37 39 39 42 44 43 39 41 41 45 47 47 44 46 45 41 43 42
36 38 37 45 47 46 45 47 46 56 57 56 53 55 54 45 47 46 42 43 42
40 42 41 41 42 42 40 41 42 40 41 43 40 42 43 40 42 43 39 41 42
40 41 43 40 41 43 41 42 44 41 42 44 41 42 44 40 41 43 40 42 43
41 42 44 42 43 45 42 43 45 42 43 45 40 42 43 40 41 43 41 42 44
41 43 43 41 43 42 41 43 42 41 43 42 41 43 42 40 42 41 40 42 41
39 41 40 40 42 42 42 44 43 43 45 44 40 42 41 40 42 41 42 44 43
43 45 44 38 40 39 35 37 36 42 44 43 52 54 53 60 56 55 51 47 46
42 40 40 41 41 44 40 42 46 37 41 44 40 44 46 41 43 43 44 45 44
47 46 44 44 39 38 102 96 94 164 158 154 101 96 91 46 42 37 43 40 34
45 44 39 46 45 42 43 44 41 42 44 42 40 42 41 39 41 40 39 41 40
39 41 41 40 42 41 43 45 45 43 45 45 53 55 55 58 60 60 44 46 45
42 44 43 41 43 42 41 43 42 40 41 45 39 40 44 39 40 44 39 41 44
41 42 46 41 42 45 41 42 44 41 42 44 40 41 43 40 41 43 41 43 45
42 44 46 41 42 44 40 41 43 40 42 44 43 44 46 42 43 45 41 42 44
41 43 45 42 43 45 41 42 44 40 41 43 40 41 43 40 42 44 41 42 45
41 42 46 40 41 45 40 41 45 39 40 44 42 43 47 41 42 46 40 41 45
40 41 45 40 41 45 38 40 43 39 40 44 39 40 44 38 39 43 37 38 42
38 39 43 38 39 43 38 39 43 38 39 43 38 39 43 38 39 43 39 40 44
39 40 44 39 41 44 39 40 44 39 40 44 39 40 44 39 40 44 39 40 43
51 53 53 48 50 50 38 40 39 41 43 42 38 40 39 40 42 41 39 41 40
38 40 39 39 41 40 38 40 39 41 43 42 36 38 37 43 46 45 43 45 44
42 44 44 40 42 41 45 47 47 43 45 45 40 42 41 43 45 44 41 43 43
43 45 44 53 56 55 47 50 49 43 45 44 39 41 41 38 40 39 39 41 41
40 42 43 40 41 43 39 41 42 39 41 42 40 42 43 40 41 43 40 41 43
41 42 44 41 42 44 41 42 44 41 42 44 41 42 44 40 42 43 40 41 43
41 43 44 41 43 44 40 42 43 40 41 43 40 41 43 40 42 42 41 43 42
41 43 42 41 43 42 41 43 42 41 43 42 40 42 41 40 42 41 41 43 43
42 44 42 40 42 41 41 43 41 42 44 43 43 45 44 50 52 51 54 56 55
53 55 55 51 53 53 46 47 48 45 40 41 45 41 40 44 42 44 43 44 46
42 46 47 41 45 47 38 42 42 40 42 40 41 41 37 41 39 34 70 62 61
81 75 73 55 49 47 45 42 40 47 45 44 45 45 43 43 45 44 42 44 43
40 44 42 38 41 40 38 40 39 37 39 39 38 40 40 39 41 40 41 44 43
44 47 46 50 52 52 49 51 50 42 44 43 42 44 43 41 43 42 41 43 43
42 44 44 39 40 44 39 40 44 39 40 44 39 41 44 41 43 46 41 42 45
41 42 44 40 41 43 40 41 43 39 40 42 41 43 44 42 44 46 41 42 44
39 40 42 39 41 43 42 43 45 41 42 44 41 42 44 41 43 45 42 43 45
41 42 44 41 42 44 40 42 44 41 42 44 41 42 45 41 42 46 40 41 45
40 41 45 39 40 44 41 42 46 40 41 45 39 40 44 38 39 43 39 40 44
38 40 43 39 40 44 39 40 44 38 39 43 38 39 43 38 39 43 38 39 43
38 39 43 38 39 43 38 39 43 38 39 43 38 39 43 38 40 43 39 40 44
39 40 44 39 40 44 39 40 44 39 40 44 39 40 43 41 43 42 51 53 52
43 45 45 39 41 41 41 43 43 40 42 41 38 40 39 38 40 39 38 40 39
40 42 41 43 45 44 55 57 56 52 54 53 44 47 46 43 45 44 41 43 42
44 46 46 42 44 43 40 42 42 35 37 36 55 58 57 79 81 80 39 41 41
44 46 45 42 44 43 40 42 41 39 41 40 39 41 41 41 43 44 39 41 42
38 39 41 38 40 41 41 43 44 40 41 43 40 41 43 41 42 44 41 42 44
41 42 44 41 42 44 40 42 43 40 41 43 39 41 42 40 42 43 41 42 44
40 41 43 39 41 42 40 41 43 40 42 42 41 43 42 41 43 42 41 43 42
41 43 42 41 43 43 40 42 41 39 41 40 39 41 40 39 41 40 40 42 39
43 45 42 45 48 46 48 50 49 53 55 55 50 52 52 42 43 44 40 42 44
42 43 46 43 41 42 46 44 44 44 43 44 40 41 42 40 43 42 44 47 45
42 44 39 37 37 30 51 50 40 100 96 89 89 82 80 47 41 39 53 47 46
47 44 43 45 44 43 43 44 43 40 43 42 40 42 41 38 42 41 38 41 40
38 40 39 38 40 39 39 41 41 40 42 42 44 46 45 52 54 53 47 49 48
40 43 42 42 44 43 41 43 42 41 43 42 41 43 43 42 44 44 37 38 42
38 39 43 38 40 43 39 41 44 42 44 47 41 42 44 40 41 43 40 41 43
39 40 42 39 40 42 40 42 44 41 43 45 40 41 43 39 40 42 39 41 43
41 42 44 40 41 43 40 41 43 41 43 45 41 43 44 40 41 43 41 43 45
42 43 45 40 41 43 40 42 45 41 42 46 40 41 45 40 41 45 39 40 44
39 41 44 38 39 43 37 38 42 37 38 42 37 38 42 38 39 43 38 39 43
38 39 43 39 40 44 39 40 44 38 39 43 38 39 43 38 39 43 38 39 43
38 39 43 38 39 43 38 40 43 39 40 44 39 41 44 39 40 44 39 40 44
39 40 44 39 40 44 39 41 43 39 42 41 46 48 47 48 50 49 35 37 36
42 44 44 42 44 44 38 40 39 38 40 39 38 40 40 40 42 42 44 46 45
67 69 69 56 58 57 43 45 44 42 44 44 41 43 43 44 46 45 40 42 41
40 42 41 38 40 40 46 48 47 59 61 61 43 45 45 44 47 46 42 44 43
42 44 43 41 43 42 40 42 41 40 42 43 40 41 43 39 41 42 39 41 42
40 42 43 40 41 43 40 41 43 41 42 44 41 42 44 41 42 44 40 41 43
40 41 43 39 41 42 39 40 42 40 42 43 40 42 43 39 41 42 39 40 42
39 40 42 40 42 42 41 43 42 41 43 42 41 43 42 41 43 42 41 43 42
40 42 41 39 41 40 39 41 40 41 43 41 47 50 44 48 51 46 47 50 46
43 45 44 43 45 44 44 46 46 44 46 48 43 45 48 39 40 44 42 43 43
43 44 43 40 42 41 40 42 40 41 43 40 34 36 30 44 44 34 103 101 88
159 157 142 137 133 122 58 53 51 46 42 40 45 42 40 46 44 43 43 42 42
38 39 39 38 40 40 39 41 41 39 42 43 39 42 42 40 42 41 40 42 41
40 42 41 41 43 43 43 45 45 38 40 40 39 41 41 42 44 43 40 42 41
40 42 41 40 42 41 41 43 43 42 44 44 38 39 43 37 38 42 38 40 43
40 42 45 42 44 47 41 43 45 40 41 43 39 40 42 39 40 42 39 40 42
38 40 42 40 42 44 40 41 43 39 40 42 40 42 44 40 41 43 40 41 43
40 41 43 41 43 45 41 42 44 39 41 43 41 43 45 42 43 45 40 41 43
40 42 44 41 42 46 40 41 45 40 41 45 39 40 44 40 42 45 40 41 45
38 39 43 38 39 43 38 40 43 38 39 43 37 38 42 37 38 42 39 41 44
39 41 44 38 39 43 38 39 43 38 39 43 38 39 43 39 41 44 40 41 45
40 41 45 40 42 45 41 42 46 39 40 44 39 40 44 39 40 44 39 40 44
39 40 43 41 42 42 39 41 40 55 57 56 57 60 59 51 53 52 44 46 45
40 42 41 39 41 40 40 42 42 39 41 41 44 46 45 41 43 43 46 49 48
41 43 43 41 43 43 42 44 44 43 45 45 39 41 40 40 42 42 39 41 40
42 44 43 40 42 41 46 48 47 39 41 40 39 41 40 39 41 41 39 41 40
39 41 40 38 40 41 40 41 43 40 42 43 40 42 43 39 41 42 40 41 43
40 41 43 41 42 44 41 42 44 40 41 43 38 39 41 38 40 41 39 40 42
40 41 43 40 41 43 40 41 43 39 40 42 38 39 41 39 40 42 40 42 42
41 43 42 41 43 42 41 43 42 41 43 42 39 41 40 40 42 41 43 45 44
46 48 47 47 49 47 45 48 42 43 45 41 42 45 42 44 46 44 46 48 47
43 45 46 41 42 44 42 43 47 42 44 48 42 44 45 39 42 40 40 42 39
39 41 37 37 38 31 75 75 65 141 139 126 182 179 164 179 175 158
83 80 68 51 47 46 47 44 43 45 43 42 41 39 39 39 38 38 40 41 40
41 43 43 41 42 43 38 40 42 40 41 43 39 41 42 38 39 40 37 39 40
38 39 41 37 39 40 41 43 44 39 41 42 38 39 41 40 42 43 40 42 41
40 42 41 40 42 42 41 43 43 39 40 44 38 39 43 40 42 45 43 45 48
43 44 48 42 43 45 42 43 45 42 43 45 41 42 44 40 41 43 40 42 44
41 42 44 41 42 44 41 42 44 41 42 44 41 43 45 41 42 44 41 42 44
41 43 45 42 43 45 40 41 43 37 39 40 37 39 41 39 41 43 40 41 44
40 41 45 40 41 45 40 41 45 40 41 45 40 41 45 40 41 45 39 40 44
39 40 44 39 40 44 39 40 44 39 40 44 39 40 44 39 40 44 39 40 44
39 40 44 37 38 42 37 39 42 38 40 43 38 39 43 38 39 43 38 39 43
39 40 44 39 40 44 39 40 44 39 40 44 39 40 44 39 40 44 39 40 43
40 42 41 38 40 39 36 38 37 91 93 92 110 112 111 78 81 80 39 41 40
37 39 38 39 41 41 43 45 44 44 46 45 42 44 43 41 43 42 41 43 42
39 41 40 40 42 41 40 42 41 40 42 41 40 42 41 39 41 41 40 42 41
40 42 41 40 42 41 40 42 41 41 43 42 40 42 41 39 41 40 39 41 40
40 42 43 41 42 44 41 42 44 41 42 44 41 42 44 42 43 45 41 43 44
41 42 44 40 41 43 40 41 43 40 41 43 40 41 43 40 41 43 40 41 43
40 41 43 40 41 43 40 41 43 40 41 43 40 41 43 39 41 41 40 42 42
41 43 42 40 42 41 40 42 42 43 45 44 49 51 51 47 49 48 42 44 44
42 44 43 42 45 40 40 43 39 40 43 40 42 44 42 42 44 44 44 46 46
44 46 47 42 43 46 42 44 47 41 44 42 38 41 37 39 41 34 50 50 42
108 107 98 163 161 149 183 180 166 175 171 156 87 84 68 49 46 35
44 43 42 42 42 41 41 41 41 41 40 40 40 40 40 44 44 45 46 47 49
42 44 46 39 41 43 40 41 43 40 41 43 39 40 42 39 40 42 39 40 42
39 40 42 39 40 42 39 40 42 39 40 42 39 41 42 40 42 41 40 42 41
41 43 42 41 43 42 39 41 44 41 42 46 41 43 46 44 46 49 45 46 50
42 43 45 40 41 43 39 40 42 39 41 43 40 41 43 40 42 44 41 42 44
41 42 44 41 42 44 41 42 44 40 41 43 40 41 43 39 40 42 39 41 43
40 42 44 40 41 43 38 39 41 38 39 41 39 41 43 40 41 44 40 41 45
40 41 45 40 41 45 40 41 45 40 41 45 40 41 45 39 40 44 39 40 44
39 40 44 39 40 44 39 40 44 39 40 44 39 40 44 39 40 44 39 40 44
38 39 43 38 39 43 38 40 43 38 39 43 38 39 43 38 40 43 39 40 44
39 40 44 39 40 44 39 40 44 39 40 44 39 40 44 39 40 43 39 41 41
36 39 38 37 39 38 45 47 46 145 147 146 91 93 92 39 41 40 41 43 43
37 39 38 43 45 44 42 44 43 41 43 42 40 42 41 39 41 40 41 43 42
40 42 41 40 42 41 41 43 43 42 44 44 40 42 41 40 42 41 40 42 41
40 42 41 41 43 42 41 43 42 41 43 42 39 41 40 39 41 40 40 42 43
41 42 44 41 42 44 41 42 44 41 42 44 41 42 44 41 42 44 41 42 44
40 41 43 40 41 43 40 41 43 40 41 43 40 41 43 40 41 43 40 41 43
40 41 43 40 41 43 40 41 43 40 41 43 39 41 41 40 42 42 40 42 41
41 43 42 44 46 45 47 49 49 44 46 45 41 43 42 41 43 43 42 44 43
40 42 40 40 42 40 41 43 42 43 45 44 45 47 46 43 45 44 41 43 42
41 43 43 42 44 43 37 39 33 33 36 27 78 78 68 153 151 140 167 164 152
174 171 158 140 136 125 66 63 53 40 38 28 41 41 34 43 44 42 40 42 41
40 42 41 41 42 42 40 41 42 50 51 53 54 56 58 44 46 49 38 40 43
38 40 43 39 40 43 39 40 43 40 41 44 40 41 44 38 39 42 39 40 43
39 40 43 40 41 44 40 41 43 40 42 41 41 43 42 41 43 42 42 44 43
40 42 45 38 39 43 39 40 44 43 45 48 45 47 50 46 47 49 44 45 47
42 43 45 40 41 43 39 40 42 40 42 44 41 42 44 41 42 44 41 42 44
41 42 44 40 41 43 39 40 42 38 39 41 38 39 41 38 40 42 39 40 42
39 40 42 39 40 42 39 40 42 40 41 44 40 41 45 40 41 45 40 41 45
40 41 45 40 41 45 40 41 45 39 40 44 39 40 44 39 40 44 39 40 44
39 40 44 39 40 44 39 40 44 39 40 44 39 40 44 40 41 45 40 41 45
39 40 44 39 40 44 39 40 44 39 40 44 40 41 45 40 41 45 39 40 44
39 40 44 39 40 44 39 40 44 40 41 44 39 41 40 39 41 40 37 39 38
36 38 37 88 90 89 74 76 75 39 41 40 41 43 43 40 42 42 41 43 42
40 42 41 40 42 41 39 41 40 39 41 40 42 44 43 41 43 42 40 42 41
41 43 43 43 45 45 41 43 42 40 42 41 40 42 41 41 43 42 42 44 43
42 44 43 41 43 42 40 42 41 40 42 41 40 42 42 40 41 43 40 41 43
40 41 43 40 41 43 40 42 43 41 42 44 41 42 44 41 42 44 41 42 44
40 41 43 40 41 43 40 41 43 40 41 43 40 41 43 40 41 43 40 41 43
40 41 43 40 41 43 39 41 41 41 43 43 42 44 43 42 44 44 46 48 47
44 46 45 39 41 41 42 44 44 45 47 46 43 44 45 42 43 46 40 42 44
40 42 43 41 43 44 42 44 43 44 46 44 44 46 44 40 42 39 38 41 36
74 76 64 162 162 148 177 174 161 183 179 164 155 149 136 90 84 74
46 42 34 44 42 38 43 42 41 42 44 43 42 44 43 41 43 42 41 43 42
42 44 44 43 45 46 42 43 45 38 40 43 38 40 43 40 41 45 38 40 43
38 40 43 39 40 44 40 41 45 40 41 45 37 39 42 38 40 43 39 41 44
40 42 45 41 42 44 41 43 42 41 43 43 42 44 43 42 44 43 42 43 47
41 42 46 39 40 44 39 41 44 40 41 45 42 43 46 44 45 47 44 46 48
43 44 46 40 41 43 40 42 44 41 42 44 41 42 44 41 42 44 41 42 44
41 42 44 40 41 43 39 40 42 38 39 41 38 40 42 39 40 42 39 40 42
39 40 42 39 40 42 39 41 44 40 41 45 40 41 45 40 41 45 40 41 45
40 41 45 40 41 45 39 40 44 39 40 44 39 40 44 39 40 44 39 40 44
39 40 44 39 40 44 39 40 44 39 41 44 40 42 45 40 41 45 39 40 44
39 40 44 39 40 44 40 41 45 40 41 45 40 42 45 39 40 44 39 40 44
39 40 44 39 40 44 39 40 43 36 38 38 43 45 44 34 37 36 43 45 44
54 56 55 92 94 93 47 49 49 41 43 42 47 49 48 40 42 41 40 42 41
40 42 41 40 42 42 41 43 42 40 42 42 40 42 41 40 42 41 41 43 42
42 44 43 42 44 43 40 42 41 40 42 41 41 43 43 43 45 44 42 44 43
42 44 43 41 43 42 40 42 41 39 41 42 39 40 42 39 40 42 39 40 42
39 40 42 40 41 43 40 41 43 41 42 44 41 42 44 41 42 44 40 41 43
40 41 43 40 41 43 40 41 43 40 41 43 40 41 43 40 41 43 40 41 43
40 41 43 41 43 43 44 46 45 45 47 46 43 45 44 42 44 43 39 41 41
41 43 42 45 47 47 45 47 47 43 45 46 42 43 50 40 42 47 40 41 44
41 43 45 42 44 44 41 43 40 37 40 35 61 64 57 124 127 119 167 167 152
171 170 152 165 161 144 117 112 96 61 54 42 45 38 29 50 46 43
40 40 41 41 42 47 39 41 46 41 45 44 42 45 44 41 45 45 40 43 44
39 41 42 37 39 42 39 40 44 41 43 46 38 40 43 38 40 43 39 40 44
39 40 44 39 40 44 39 40 44 39 40 44 39 40 44 39 40 44 39 40 44
40 41 43 42 44 43 42 44 43 42 44 43 43 45 44 41 42 44 40 41 44
38 39 42 40 42 44 42 43 46 39 41 43 40 42 44 44 46 48 44 45 47
41 42 44 41 42 44 41 42 44 41 42 44 41 42 44 41 42 44 42 43 45
41 42 44 39 40 42 39 40 42 39 40 43 39 40 43 40 41 43 40 41 43
39 40 42 39 41 43 40 41 45 40 41 45 40 41 45 40 41 45 40 41 45
40 41 45 39 40 44 39 40 44 39 40 44 39 40 44 39 40 44 39 40 44
39 40 44 39 40 44 39 41 44 40 42 45 41 42 46 40 41 45 39 40 44
39 41 44 40 41 45 40 42 45 41 42 46 39 40 44 39 40 44 39 40 44
39 40 44 40 41 43 44 46 46 34 36 36 41 42 42 42 43 44 46 48 47
90 91 91 54 56 54 49 50 49 48 50 48 39 41 40 40 42 42 40 42 42
41 43 42 41 43 42 38 40 40 39 41 41 40 42 42 41 43 43 42 44 44
42 44 44 40 42 43 40 42 41 41 43 43 42 44 45 42 44 44 42 44 43
41 43 43 40 42 42 39 41 42 39 40 42 39 40 42 39 40 42 39 40 42
40 41 43 40 41 43 41 42 44 41 42 44 41 43 44 40 41 43 40 41 43
40 41 43 40 41 43 40 41 43 40 41 43 40 41 43 40 41 43 40 41 43
43 44 48 45 46 50 45 46 49 43 45 45 39 41 40 41 44 40 44 47 44
43 46 44 43 45 44 42 45 46 38 42 49 38 41 46 41 42 44 44 44 42
42 43 37 50 51 42 95 95 84 154 155 141 178 180 166 163 164 150
129 128 114 78 76 64 44 41 31 47 43 36 48 44 41 42 39 39 39 40 43
41 43 48 40 43 46 44 47 46 46 49 48 42 45 46 39 41 43 38 40 41
40 41 43 38 39 43 37 38 42 39 40 44 40 41 45 40 41 45 39 40 44
39 40 44 38 39 43 40 41 45 39 40 44 39 40 44 39 40 44 40 41 44
42 44 43 42 44 43 43 44 44 43 44 44 40 42 44 41 42 44 40 41 43
40 41 43 40 42 44 41 43 45 42 43 45 43 44 46 43 44 46 42 43 45
42 43 45 42 43 45 42 43 45 41 42 44 40 41 43 40 41 45 40 41 45
40 41 45 40 41 45 40 41 45 41 42 46 40 41 45 40 41 45 39 40 44
39 40 44 39 40 44 39 40 44 39 41 44 40 41 45 40 41 45 40 41 45
39 40 44 39 40 44 39 40 44 39 40 44 39 40 44 39 40 44 39 40 44
39 40 44 39 40 44 39 40 44 39 41 44 40 41 45 39 40 44 39 40 44
39 40 44 39 40 44 39 40 44 39 40 44 39 40 44 39 40 44 39 41 44
40 41 44 40 40 42 40 40 41 40 39 42 41 41 41 43 43 43 48 48 48
73 73 71 51 51 49 47 47 45 39 40 40 39 41 42 39 40 42 40 42 44
40 41 43 40 41 43 40 41 43 41 43 45 44 46 47 46 48 49 42 43 45
41 42 44 40 42 43 40 41 43 41 42 44 42 43 45 42 43 45 42 43 45
42 43 45 40 42 43 39 41 42 39 40 42 39 41 42 41 42 44 40 41 43
39 40 42 40 42 43 41 42 44 39 41 42 41 42 44 41 42 44 41 42 44
41 42 44 39 41 43 39 40 42 40 42 43 42 44 45 43 44 46 42 43 50
43 44 53 40 41 47 39 40 42 46 48 46 47 52 46 42 46 42 41 45 42
42 46 44 37 42 43 41 48 52 35 40 40 45 46 42 51 50 41 64 61 47
126 122 105 176 173 154 191 190 169 144 145 125 84 85 76 51 54 50
39 42 40 44 45 47 43 44 48 41 43 46 42 43 45 40 42 41 40 43 39
58 60 57 70 72 71 51 53 53 40 43 42 42 44 44 41 43 45 39 41 43
39 40 44 38 40 43 39 40 44 39 40 44 39 40 44 39 40 44 39 40 44
39 40 44 39 40 44 39 40 44 39 40 44 40 41 45 40 42 44 41 42 44
42 43 45 42 43 45 41 43 44 43 44 46 43 44 46 41 42 44 40 41 43
39 40 42 40 42 44 42 43 45 43 44 46 43 44 46 42 43 45 42 43 45
42 43 45 42 43 45 41 42 44 40 41 43 40 41 45 40 41 45 40 41 45
40 41 45 40 41 45 41 42 46 40 41 45 40 41 45 39 40 44 39 40 44
39 40 44 39 40 44 39 41 44 40 41 45 40 41 45 40 41 45 39 40 44
39 40 44 39 40 44 39 40 44 39 40 44 39 40 44 39 40 44 39 40 44
39 40 44 39 40 44 39 41 44 40 41 45 39 40 44 39 40 44 39 40 44
39 40 44 39 40 44 39 40 44 39 40 44 39 40 44 39 41 44 40 41 44
40 40 42 39 39 41 40 39 42 43 42 43 47 47 47 57 57 56 60 61 59
63 63 61 45 45 43 43 44 44 39 40 42 41 43 44 41 43 44 39 41 42
39 41 43 40 41 43 40 42 44 42 43 45 42 44 46 43 44 46 42 44 45
41 42 44 39 41 42 40 41 43 41 42 44 41 42 44 41 42 44 41 42 44
41 42 44 40 41 43 40 41 43 40 42 43 41 43 44 40 42 43 39 41 42
40 42 43 40 42 43 39 41 42 40 41 43 40 41 43 40 41 43 40 41 43
40 41 43 41 43 44 44 46 47 45 47 48 43 45 46 41 43 41 41 43 41
44 46 45 47 49 49 49 51 51 43 45 47 39 40 43 38 40 43 38 41 44
40 44 45 42 46 43 40 42 37 37 37 27 71 68 56 156 152 138 190 186 171
175 172 156 100 99 84 50 50 35 41 43 36 40 42 39 42 45 43 43 45 47
41 43 45 41 43 46 42 44 45 42 45 43 48 51 48 75 77 74 69 71 70
45 47 46 40 43 42 40 42 43 41 43 44 39 41 43 39 40 44 38 40 43
39 40 44 39 40 44 39 40 44 39 40 44 39 40 44 39 40 44 39 40 44
39 40 44 39 40 44 40 41 45 40 42 44 41 43 44 42 44 45 42 44 45
41 43 44 42 44 46 43 44 46 41 42 44 40 41 43 39 40 42 40 42 44
42 43 45 43 44 46 43 44 46 42 43 45 42 43 45 42 43 45 42 43 45
41 42 44 40 41 43 40 41 45 40 41 45 40 41 45 40 41 45 40 41 45
41 42 46 40 41 45 40 41 45 39 40 44 39 40 44 39 40 44 39 40 44
39 41 44 40 41 45 40 41 45 40 41 45 39 40 44 39 40 44 39 40 44
39 40 44 39 40 44 39 40 44 39 40 44 39 40 44 39 40 44 39 40 44
39 41 44 40 41 45 39 40 44 39 40 44 39 40 44 39 40 44 39 40 44
39 40 44 39 40 44 39 40 44 39 41 44 40 41 44 40 40 42 39 39 41
41 40 42 45 45 46 53 53 53 79 79 78 46 47 45 68 69 67 58 59 57
43 44 44 39 41 42 41 43 45 40 42 43 39 41 43 40 41 43 40 42 44
41 42 44 40 42 43 40 41 43 42 44 46 43 44 46 42 44 45 40 42 43
40 42 43 41 42 44 41 42 44 41 42 44 41 42 44 41 42 44 40 42 43
40 41 43 40 42 43 42 43 45 41 43 44 39 41 42 40 41 43 39 41 42
38 40 41 40 41 43 40 41 43 40 41 43 40 41 43 42 43 45 43 45 46
45 46 48 43 45 46 40 42 43 40 43 35 42 46 36 48 50 46 48 50 51
43 44 49 42 41 50 42 41 49 43 42 48 38 38 41 42 42 40 44 42 28
61 58 45 120 116 101 159 154 140 165 160 147 123 120 108 61 58 49
36 35 28 44 44 39 41 43 39 40 43 40 41 44 42 42 44 45 44 46 47
42 44 46 42 43 44 44 46 45 65 67 64 63 66 64 45 47 47 41 43 43
41 43 42 39 41 41 41 43 44 39 41 43 39 40 44 38 40 43 39 40 44
39 40 44 39 40 44 39 40 44 39 40 44 39 40 44 39 40 44 39 40 44
39 40 44 40 41 45 41 42 45 42 43 45 43 44 46 43 44 46 42 44 45
40 41 43 41 42 44 40 41 43 40 41 43 40 42 44 41 43 45 42 43 45
43 44 46 43 44 46 42 43 45 42 43 45 42 43 45 42 43 45 41 42 44
40 41 43 40 41 45 40 41 45 40 41 45 40 41 45 40 41 45 41 42 46
40 41 45 40 41 45 39 40 44 39 40 44 39 40 44 39 40 44 39 41 44
40 41 45 40 41 45 40 41 45 39 40 44 39 40 44 39 40 44 39 40 44
39 40 44 39 40 44 39 40 44 39 40 44 39 40 44 39 40 44 39 41 44
40 41 45 39 40 44 39 40 44 39 40 44 39 40 44 39 40 44 39 40 44
39 40 44 39 40 44 39 41 44 40 41 44 40 40 42 39 39 41 42 41 43
47 47 49 48 48 48 49 49 48 56 56 54 55 55 53 85 86 83 55 56 56
39 41 43 41 42 44 38 40 42 41 43 44 41 42 44 41 43 45 42 43 45
41 43 44 40 42 43 40 42 44 43 45 46 44 45 47 42 44 45 40 42 43
40 41 43 40 41 43 40 41 43 40 41 43 40 42 43 41 42 44 41 42 44
41 43 44 42 44 45 42 43 45 40 42 43 40 41 43 39 41 42 38 40 41
41 42 44 41 42 44 41 42 44 41 42 44 41 43 44 42 43 45 43 44 46
42 43 45 42 43 44 43 44 38 47 49 42 44 45 43 39 38 44 42 41 51
43 40 51 38 36 43 40 38 39 38 38 33 46 44 32 94 89 66 158 152 131
180 174 156 140 134 119 66 60 48 41 37 30 48 46 44 40 39 40 37 38 41
44 46 45 43 45 44 43 45 44 42 44 44 41 43 43 41 43 43 42 44 43
48 50 49 56 59 57 47 49 48 43 45 44 42 44 43 41 43 42 42 44 45
41 42 44 39 41 43 39 40 44 38 40 43 39 40 44 39 40 44 39 40 44
39 40 44 39 40 44 39 40 44 39 40 44 39 40 44 39 40 44 40 41 45
41 42 45 42 44 45 43 45 46 43 45 46 43 44 46 40 42 44 40 42 44
39 41 42 42 43 45 42 44 45 42 44 45 43 44 46 42 43 45 42 44 46
42 43 45 41 43 45 42 44 46 42 43 45 41 42 44 40 41 43 39 40 44
39 40 44 39 40 44 39 41 44 40 41 45 41 42 46 41 42 46 41 42 46
40 41 45 40 41 45 40 41 45 40 41 45 40 42 45 41 42 46 41 42 46
40 41 45 39 40 44 39 40 44 40 41 45 39 40 44 39 40 44 39 40 44
40 41 45 39 40 44 39 40 44 39 40 44 39 40 44 39 40 44 39 40 44
39 40 44 39 40 44 39 40 44 39 40 44 39 41 44 40 41 45 39 40 44
39 40 44 39 40 43 40 40 42 38 38 40 40 39 41 52 51 52 54 54 54
48 48 47 52 52 50 48 48 46 61 61 60 88 89 89 35 37 38 42 44 46
40 42 43 41 43 44 39 41 43 40 42 44 41 42 44 40 42 43 40 41 43
40 42 44 41 43 44 42 43 45 42 43 45 42 44 45 42 43 45 40 42 43
39 41 42 40 41 43 40 42 43 41 42 44 41 42 44 41 42 44 41 43 44
42 44 45 42 43 45 42 43 45 41 43 44 39 41 42 41 42 44 42 44 45
43 44 46 41 42 44 40 42 43 41 43 44 43 44 46 44 46 47 44 46 47
46 47 47 40 39 41 39 39 44 40 38 47 41 38 47 46 42 48 44 41 40
47 45 35 80 78 60 136 132 109 181 172 146 172 164 141 119 112 93
66 61 47 44 40 31 43 41 38 42 41 43 42 42 49 42 42 50 43 44 46
40 42 42 39 41 41 41 44 43 43 46 45 42 44 43 43 46 45 52 54 53
43 45 45 40 42 41 41 43 43 42 44 43 42 44 43 41 43 44 39 40 42
39 40 42 38 39 43 38 39 43 39 40 44 38 39 43 38 39 43 38 40 43
39 40 44 39 40 44 38 39 43 38 39 43 38 40 43 40 42 45 41 43 46
42 43 45 42 44 45 42 43 45 42 43 45 40 41 43 40 41 43 39 40 42
43 45 47 43 45 46 42 44 46 41 43 44 40 42 44 41 43 45 42 43 45
41 42 44 41 42 44 41 42 44 40 41 43 39 40 42 39 40 44 39 40 44
39 40 44 39 41 44 40 41 45 41 42 46 41 42 46 41 42 46 41 42 46
41 42 46 40 42 45 41 42 46 41 42 46 41 42 46 41 42 46 40 41 45
39 40 44 39 40 44 40 41 45 39 40 44 39 40 44 39 40 44 40 41 45
40 41 45 39 40 44 39 40 44 39 40 44 39 40 44 39 40 44 39 40 44
39 40 44 39 40 44 39 40 44 39 41 44 39 40 44 39 40 44 39 40 44
39 40 43 41 41 43 41 40 43 43 42 44 50 50 51 53 53 53 49 49 49
53 53 51 48 49 46 52 53 51 56 58 58 44 46 48 44 46 47 37 39 40
39 40 42 40 41 43 40 41 43 40 41 43 40 41 43 40 41 43 41 42 44
41 42 44 41 42 44 41 42 44 42 44 45 42 44 45 40 42 43 39 41 42
40 41 43 40 42 43 41 42 44 41 42 44 41 42 44 41 42 44 42 44 45
43 44 46 43 44 46 41 43 44 41 42 44 42 43 45 43 44 46 42 43 45
40 42 43 39 40 42 40 42 43 42 44 45 42 44 45 42 43 45 44 44 49
41 40 48 42 40 48 43 40 48 46 42 46 41 37 35 58 53 43 119 115 96
181 177 152 175 170 142 150 141 118 102 95 76 59 54 38 42 39 29
43 42 38 41 41 42 40 41 45 39 40 48 40 41 49 40 42 44 40 42 42
41 43 42 41 43 42 42 44 43 44 46 45 48 51 49 48 50 50 41 43 43
42 44 44 42 44 43 41 43 42 41 43 42 40 42 43 39 41 42 38 40 42
38 39 43 38 39 43 39 40 44 38 39 43 38 39 43 38 40 43 39 40 44
39 40 44 38 39 43 38 39 43 38 40 43 40 42 45 42 43 46 42 43 45
42 43 45 41 42 44 41 42 44 40 41 43 38 39 41 38 40 42 42 44 46
44 45 47 41 43 44 39 40 42 38 39 41 40 42 44 41 42 44 41 42 44
40 41 43 40 41 43 40 41 43 40 41 43 40 41 45 40 41 45 40 41 45
39 40 44 39 40 44 39 40 44 40 41 45 40 42 45 42 43 47 41 42 46
41 42 46 41 42 46 41 42 46 40 41 45 40 42 45 40 41 45 39 40 44
39 40 44 40 41 45 39 40 44 39 40 44 39 40 44 40 41 45 40 41 45
40 41 45 40 41 45 40 41 45 40 41 45 39 40 44 39 40 44 39 40 44
39 40 44 39 40 44 39 40 44 39 40 44 39 40 44 39 40 44 40 41 44
38 37 39 41 40 42 45 44 46 44 44 45 52 52 52 49 49 48 47 47 45
44 44 42 43 43 41 44 45 45 53 55 56 37 39 40 42 43 45 41 43 44
40 42 44 40 41 43 40 41 43 40 41 43 40 41 43 40 41 43 40 41 43
40 41 43 40 41 43 41 42 44 42 43 45 41 42 44 40 41 43 40 41 43
40 42 43 41 42 44 41 42 44 41 42 44 41 42 44 42 43 45 42 44 45
43 44 46 42 43 45 42 44 45 44 46 47 41 43 44 40 42 43 40 41 43
41 43 44 42 43 45 42 43 45 41 42 44 40 41 43 43 43 49 35 34 41
46 45 48 42 40 38 35 32 25 104 100 87 174 168 151 191 186 164
180 175 150 135 128 105 61 55 40 36 32 19 49 48 38 45 46 41 40 42 42
39 41 45 39 41 46 39 41 47 40 41 47 41 42 46 42 44 46 44 46 45
43 45 43 42 45 41 45 47 44 47 49 47 38 40 41 37 39 41 40 42 42
40 42 41 40 42 41 39 41 41 39 41 41 39 40 42 38 40 42 38 39 43
38 39 43 39 40 44 38 39 43 38 40 43 39 40 44 39 41 44 40 41 45
39 40 44 39 40 44 39 41 44 40 42 45 41 43 45 42 43 45 41 42 44
41 42 44 40 42 43 39 40 42 38 39 41 39 40 42 41 43 45 42 43 45
41 43 44 39 40 42 38 40 42 40 42 44 41 42 44 42 44 45 41 42 44
40 41 43 41 43 45 43 45 47 42 43 46 41 42 46 40 41 45 39 40 44
39 40 44 40 41 45 40 42 45 41 42 46 41 43 46 42 43 47 42 43 47
41 42 46 40 41 45 40 41 45 40 42 45 40 41 45 39 40 44 39 40 44
40 41 45 39 40 44 39 40 44 39 40 44 40 41 45 40 41 45 41 42 46
41 42 46 41 42 46 41 42 46 39 40 44 39 40 44 39 40 44 39 40 44
39 40 44 38 39 43 38 39 43 39 41 44 40 41 45 41 42 45 43 43 45
46 46 48 46 45 47 45 44 46 61 61 61 89 89 88 48 49 46 47 47 45
45 45 43 43 44 44 51 53 54 49 51 53 37 39 40 39 41 42 39 41 43
40 41 43 40 41 43 40 41 43 40 41 43 40 41 43 40 41 43 40 41 43
40 41 43 40 41 43 40 42 43 41 43 44 41 43 44 40 42 43 40 42 43
41 42 44 41 42 44 41 42 44 41 42 44 41 42 44 41 43 44 43 44 46
43 44 46 42 44 45 42 44 45 40 42 43 40 41 43 41 43 44 43 44 46
43 45 46 42 43 45 41 42 44 41 42 44 45 45 46 31 30 28 46 45 36
94 94 78 162 160 139 174 170 147 184 177 157 152 144 127 83 74 61
51 43 33 42 37 31 46 43 39 43 43 41 35 39 40 38 43 46 36 42 46
36 41 45 37 41 44 40 41 43 40 42 45 40 42 43 41 43 42 44 47 43
48 51 46 49 52 48 42 45 42 40 42 42 41 43 45 40 41 44 41 43 42
40 42 41 40 42 41 40 41 42 39 41 42 38 40 42 38 39 43 38 39 43
39 40 44 39 40 44 39 40 44 40 41 45 40 41 45 40 41 45 40 41 45
40 42 45 41 42 46 40 41 45 40 42 44 41 42 44 40 42 43 40 41 43
40 41 43 38 39 41 38 40 42 40 41 43 40 41 43 40 42 44 42 44 46
41 42 44 39 40 42 40 42 44 40 41 43 41 42 44 39 41 42 39 40 42
40 42 44 42 44 46 42 43 47 42 43 47 40 41 45 39 40 44 39 41 44
41 42 46 41 42 46 41 42 46 41 42 46 41 43 46 42 43 47 41 42 45
40 41 45 39 40 44 40 42 45 40 41 45 39 40 44 39 40 44 40 41 45
39 40 44 39 40 44 39 40 44 40 41 45 40 41 45 41 42 46 41 42 46
41 42 46 41 42 46 39 40 44 39 40 44 39 40 44 39 40 44 39 40 44
38 39 42 38 39 43 39 41 43 40 41 45 41 42 44 43 43 45 50 51 52
52 52 54 65 64 65 63 63 63 55 55 54 44 45 43 41 42 40 45 46 44
42 43 44 43 45 46 62 64 66 53 55 56 40 41 43 40 42 43 40 41 43
40 41 43 40 41 43 40 41 43 39 40 42 39 40 42 39 40 42 39 40 42
39 40 42 39 41 42 41 43 44 42 43 45 41 42 44 40 42 43 41 42 44
41 42 44 41 42 44 41 42 44 41 42 44 41 43 45 43 44 46 43 44 46
42 44 45 40 42 43 40 42 44 41 43 45 42 43 46 43 44 46 41 42 43
40 41 41 40 41 40 41 42 41 54 54 47 112 111 98 159 158 139
196 194 169 174 171 143 154 150 125 93 88 70 52 43 34 51 41 40
48 40 42 44 42 41 40 40 41 40 42 45 39 44 49 37 43 47 36 42 45
36 41 43 37 41 41 39 42 40 40 42 44 38 40 42 41 44 43 53 55 52
64 66 62 51 53 49 41 44 41 44 46 45 39 41 43 42 44 46 42 44 43
41 43 42 41 43 42 41 42 43 39 41 42 38 40 42 38 39 43 38 39 43
39 40 43 39 40 44 40 41 44 40 41 45 40 42 45 41 42 45 40 42 45
41 43 46 42 43 46 40 41 45 40 41 44 40 42 43 40 41 43 40 41 43
39 40 42 40 41 43 41 42 44 42 43 45 42 43 45 41 42 44 44 45 47
43 44 46 42 43 45 40 42 43 41 42 44 40 42 43 39 40 42 38 39 41
39 41 43 41 42 44 41 42 46 42 43 47 41 42 46 39 40 44 39 40 44
40 42 45 43 45 48 43 44 48 40 41 45 39 41 43 40 41 43 40 41 43
40 41 43 40 41 43 39 40 42 39 40 42 39 40 42 39 40 42 39 40 42
39 40 44 39 41 44 40 41 45 40 42 45 41 42 46 40 41 45 40 41 45
40 41 45 40 41 45 40 42 45 40 41 45 40 41 45 40 41 44 39 40 42
39 40 42 41 42 43 39 41 41 42 44 44 41 43 43 44 46 46 64 65 65
53 55 55 70 72 71 56 57 57 50 52 51 47 48 47 44 46 45 46 47 46
41 43 43 41 43 44 46 48 49 74 76 78 44 46 47 41 43 45 42 44 45
39 41 42 40 42 43 41 43 44 40 41 43 40 41 43 40 41 43 40 41 43
40 42 43 40 42 43 40 42 43 43 44 46 42 44 45 39 41 41 39 41 40
39 41 42 40 42 45 40 42 46 40 42 46 41 43 46 43 45 47 42 44 45
39 44 42 35 45 41 37 45 44 38 43 46 39 42 47 42 43 47 43 40 40
42 37 31 45 40 28 88 81 65 135 127 108 177 169 149 194 186 166
159 152 134 103 98 81 59 55 45 41 39 34 45 44 43 41 42 45 41 42 47
40 41 42 41 42 43 40 42 44 40 43 45 38 41 44 37 40 42 37 40 41
38 40 41 41 43 43 41 43 42 42 44 43 40 43 40 74 76 74 58 60 59
42 44 43 42 44 44 42 44 45 43 44 46 42 44 45 42 43 44 41 43 44
40 42 43 40 41 43 40 41 43 40 41 43 39 41 43 39 40 42 39 40 42
39 40 42 39 40 42 39 41 43 40 42 44 41 43 45 40 42 44 42 43 45
42 43 45 40 42 44 40 41 43 41 42 44 40 41 43 40 41 43 39 41 42
40 41 43 41 42 44 42 43 45 42 43 45 41 42 44 44 45 47 44 46 48
36 38 39 40 42 43 42 44 45 43 44 46 43 44 46 42 43 45 42 44 46
43 45 47 41 42 46 41 42 46 41 42 46 40 41 45 39 41 44 41 42 46
42 44 47 43 44 48 40 41 45 39 41 43 40 41 43 40 41 43 40 41 43
40 41 43 39 41 42 39 40 42 39 40 42 39 40 42 39 40 42 39 40 44
39 41 44 40 41 45 40 42 45 41 42 46 40 41 45 40 41 45 40 41 45
40 41 45 40 42 45 40 41 45 40 41 45 40 41 44 39 40 42 37 39 40
38 40 40 38 40 39 48 50 49 52 55 54 43 46 45 57 59 59 50 52 51
51 53 52 44 47 46 45 47 46 42 44 44 40 42 41 41 43 43 42 44 45
44 46 47 38 40 41 55 57 58 67 69 70 39 41 42 38 40 41 43 45 47
39 41 42 39 41 43 40 41 43 40 41 43 40 41 43 40 41 43 40 42 43
40 42 43 40 42 43 43 44 46 42 44 45 40 42 41 40 42 40 40 41 42
40 42 45 40 42 47 41 42 48 41 43 47 42 43 45 42 44 45 42 46 44
38 47 43 42 50 48 39 43 44 36 37 39 48 47 48 44 39 36 62 56 48
101 93 81 156 147 130 157 148 129 146 137 119 124 115 100 64 58 45
45 41 31 48 46 41 41 41 40 44 45 47 38 42 46 40 44 48 40 41 43
40 42 43 41 42 44 41 42 44 41 42 44 39 41 42 39 40 42 39 40 42
39 41 42 39 42 40 42 44 42 57 60 57 90 92 90 50 52 51 43 45 44
42 44 45 42 43 45 41 42 44 41 42 44 40 41 43 40 41 43 39 41 42
39 40 42 39 41 42 40 41 43 39 41 42 39 40 42 39 40 42 39 41 42
40 41 43 39 40 42 40 41 43 40 42 43 40 42 43 41 42 44 41 42 44
40 41 43 40 41 43 41 42 44 40 41 43 40 41 43 39 41 42 41 42 44
41 42 44 42 43 45 42 43 45 41 42 44 41 43 44 53 55 56 44 45 47
37 39 41 38 40 42 43 44 46 43 44 46 42 43 45 42 43 45 42 43 45
40 41 45 41 42 46 41 42 46 41 42 46 40 41 45 42 43 47 42 43 47
42 43 47 41 42 46 40 41 43 40 41 43 40 41 43 40 41 43 40 41 43
39 41 42 39 40 42 39 40 42 39 40 42 39 40 42 39 40 44 39 41 44
40 41 45 40 42 45 41 42 46 41 42 46 41 42 46 41 42 46 41 42 46
41 42 46 40 41 45 40 41 45 40 41 44 39 40 42 40 42 43 40 42 42
40 42 41 51 53 52 57 59 59 42 44 44 46 48 48 45 48 47 42 44 43
44 46 45 45 47 46 44 46 45 42 44 43 42 44 44 47 49 50 40 42 43
40 42 44 38 39 41 65 67 68 54 56 57 37 39 41 42 44 46 40 42 43
37 39 41 40 41 43 40 41 43 40 41 43 40 41 43 40 42 43 40 42 43
40 42 43 43 44 46 42 44 45 40 42 41 40 42 40 41 43 42 41 42 44
40 42 46 42 43 47 41 42 45 41 42 44 42 44 43 43 46 43 45 48 45
41 43 40 42 43 39 45 44 40 39 36 30 70 66 58 112 107 97 113 105 97
101 94 85 76 71 59 58 54 41 42 38 27 44 41 32 46 44 37 43 42 39
43 43 43 42 43 46 39 41 45 42 44 47 40 41 43 40 42 43 41 42 44
41 42 44 41 42 44 41 42 44 40 41 43 39 41 42 39 40 42 39 41 40
41 43 40 61 64 61 66 68 66 43 45 45 44 46 45 43 45 45 41 43 44
40 41 43 39 40 42 39 40 42 39 40 42 39 40 42 39 40 42 39 41 42
40 41 43 39 41 42 39 40 42 39 40 42 40 42 43 40 42 43 39 40 42
39 41 42 40 41 43 41 42 44 40 42 43 39 41 42 39 40 42 40 41 43
41 42 44 40 41 43 40 41 43 39 41 42 42 43 45 41 42 44 42 43 45
42 43 45 41 42 44 37 38 40 48 50 52 48 50 51 40 42 43 40 42 44
41 42 44 42 43 45 42 43 45 40 41 43 39 40 42 39 41 44 40 42 45
41 43 46 41 42 46 41 42 46 42 43 47 42 43 47 41 42 46 41 42 46
40 41 43 40 41 43 40 41 43 40 41 43 40 41 43 39 41 42 39 40 42
39 40 42 39 40 42 39 40 42 39 40 44 39 41 44 40 41 45 40 42 45
41 42 46 41 42 46 41 42 46 41 42 46 41 42 46 41 42 46 40 41 45
40 41 45 40 41 44 39 40 42 39 41 43 39 41 41 38 40 39 45 48 47
50 52 51 51 53 53 44 46 45 43 46 45 39 41 40 41 43 43 41 43 43
43 45 44 40 42 41 40 42 42 38 40 40 46 48 49 37 39 40 42 44 45
44 46 47 59 61 62 46 47 49 39 41 43 42 44 45 39 41 42 40 41 43
40 41 43 40 41 43 40 41 43 40 42 43 40 42 43 40 42 43 43 44 46
42 44 45 41 44 42 42 44 42 41 43 43 41 42 44 41 42 46 41 43 46
42 43 45 42 44 43 42 45 42 44 45 42 47 43 42 49 45 41 40 35 28
45 41 30 99 95 83 126 122 110 95 90 82 58 52 48 45 38 37 40 39 33
38 39 33 47 48 42 40 42 37 41 42 40 40 42 40 41 42 43 40 42 44
40 41 44 40 42 44 40 41 43 40 42 43 41 42 44 41 42 44 40 42 43
40 42 43 41 42 44 41 42 44 40 41 43 41 44 42 64 67 64 68 71 68
45 47 45 43 45 44 43 45 45 42 44 44 40 42 44 39 41 42 38 40 41
39 40 42 39 40 42 40 41 43 40 41 43 40 41 43 40 41 43 39 41 42
39 40 42 39 40 42 39 41 42 40 41 43 39 40 42 40 41 43 40 42 43
40 42 43 39 41 42 39 40 42 39 40 42 40 42 43 41 42 44 40 41 43
40 41 43 39 41 42 42 43 45 41 42 44 42 43 45 42 43 45 41 42 44
41 43 45 40 42 43 43 44 46 40 42 43 37 39 41 41 43 44 42 44 46
42 43 45 41 42 44 38 39 41 39 40 44 39 41 44 41 43 46 42 43 47
41 43 46 42 43 47 41 42 46 41 42 46 41 42 46 40 42 44 40 41 43
40 41 43 40 41 43 40 41 43 39 41 42 39 40 42 39 40 42 39 40 42
39 40 42 39 40 44 39 41 44 40 41 45 40 42 45 41 42 46 42 43 47
42 43 47 42 43 47 42 43 47 41 42 46 40 41 45 40 41 45 40 41 44
39 40 42 40 41 43 42 44 44 42 44 43 46 49 48 47 49 48 53 55 55
45 47 47 45 47 47 41 44 43 39 41 40 39 41 41 42 44 43 40 42 41
40 42 41 44 46 47 36 38 40 43 45 46 37 39 40 42 44 45 44 46 47
55 57 59 43 44 46 44 46 47 42 43 45 40 41 43 40 41 43 40 41 43
40 41 43 40 42 43 40 42 43 40 42 43 43 44 46 42 44 45 42 44 43
42 44 43 41 43 43 41 42 44 40 41 45 40 42 44 41 43 44 43 46 43
42 45 41 44 43 39 53 43 43 49 40 35 61 53 43 107 101 87 126 122 106
91 87 74 47 43 35 47 43 42 46 43 47 42 44 44 37 42 41 36 40 39
39 43 42 37 41 39 40 43 42 38 40 41 38 40 41 41 42 44 40 41 42
40 41 43 40 42 43 41 42 44 41 42 44 39 40 42 39 41 42 41 43 44
42 43 45 41 42 44 63 65 64 103 105 103 60 62 60 40 43 40 41 43 42
42 44 43 41 43 44 40 42 43 39 41 42 39 40 42 40 41 43 40 42 43
41 43 44 42 43 45 40 42 44 40 41 43 39 41 42 39 40 42 39 40 42
39 40 42 39 40 42 39 41 42 40 42 43 42 43 45 40 42 43 38 40 41
38 39 41 38 40 41 40 42 43 41 42 44 40 41 43 40 41 43 39 41 42
42 43 45 41 42 44 42 44 46 43 44 46 43 44 46 41 42 44 40 42 43
40 42 44 55 57 58 45 46 48 42 44 45 42 43 45 40 41 43 39 40 42
39 40 42 39 41 44 40 42 45 41 43 46 41 42 46 41 42 46 41 42 46
39 40 44 39 41 44 41 43 46 40 42 44 40 41 43 41 42 44 41 42 44
41 42 44 37 39 40 39 41 42 40 42 44 40 41 43 41 42 44 41 42 46
40 41 45 39 40 44 39 40 44 39 41 44 40 41 45 40 41 45 40 41 45
40 41 45 40 41 45 40 41 45 40 41 45 40 41 44 40 41 43 39 41 42
39 41 41 49 51 50 53 55 54 46 48 47 58 60 59 46 48 47 41 44 43
42 44 43 41 43 42 42 44 43 40 42 41 40 42 41 42 44 44 46 48 48
45 47 48 42 44 45 41 42 44 41 42 44 40 41 43 50 52 53 49 51 53
42 43 45 39 40 42 41 42 44 39 41 42 38 40 41 38 40 42 39 40 42
39 41 42 40 42 43 42 44 45 43 44 46 42 44 44 42 44 43 42 44 44
41 43 44 40 41 44 40 41 43 38 40 39 43 46 43 40 43 38 48 46 41
53 41 40 88 77 72 125 117 106 100 93 79 65 61 46 50 47 35 44 41 36
45 43 44 41 40 46 38 41 45 38 43 45 38 43 45 38 43 45 40 44 44
39 42 43 39 42 43 40 41 43 40 41 43 41 41 43 40 42 43 39 41 42
39 41 42 40 41 43 40 42 43 40 42 43 40 42 44 39 41 42 44 45 47
65 68 66 70 72 69 44 46 43 40 42 40 40 42 41 41 43 42 40 42 42
40 41 43 39 41 42 38 40 41 38 40 41 40 42 43 42 44 45 43 44 46
41 43 44 40 41 43 40 41 43 40 41 43 40 41 43 39 40 42 39 40 42
39 41 42 41 42 44 41 43 44 40 41 43 40 41 43 40 41 43 40 41 43
40 41 43 40 41 43 41 42 44 40 42 43 39 41 42 42 43 45 41 42 44
42 44 46 43 44 46 43 44 46 41 42 44 40 42 44 38 40 41 46 48 49
46 47 49 42 44 46 42 43 45 40 41 43 39 40 42 39 40 42 39 41 44
40 42 45 41 43 46 41 42 46 41 42 46 41 42 46 39 40 44 39 41 44
41 43 46 40 42 45 40 41 43 40 42 44 41 42 44 41 42 44 41 43 44
40 41 43 40 42 44 41 43 45 43 44 46 42 43 47 41 42 46 39 40 44
39 40 44 39 41 44 40 41 45 40 41 45 40 41 45 40 41 45 40 41 45
40 41 45 40 41 45 40 41 44 40 41 43 41 42 43 40 42 42 50 52 51
54 57 56 49 51 50 48 50 49 42 44 43 41 43 43 42 44 43 41 43 42
41 43 42 41 43 42 41 43 43 42 44 43 42 44 45 42 44 45 40 42 43
40 41 43 41 42 44 41 43 45 42 44 45 48 50 51 46 48 49 40 42 43
40 41 43 39 40 42 39 40 42 39 41 43 39 41 42 39 41 42 40 42 43
42 44 45 43 44 46 42 44 44 42 44 44 42 43 45 41 43 44 40 42 43
40 42 42 44 46 44 40 42 38 43 46 37 53 53 44 96 85 81 119 109 104
93 85 78 51 46 37 46 42 34 44 41 35 44 43 40 45 45 46 40 41 45
39 42 45 39 43 46 40 44 46 41 45 47 42 45 46 40 42 43 40 41 43
40 41 43 40 41 42 40 42 42 40 42 43 39 41 42 39 41 42 40 41 43
39 41 42 40 42 44 44 46 47 41 43 45 47 49 51 53 55 53 48 50 47
40 42 39 39 41 39 39 41 40 41 43 42 40 42 42 40 41 43 39 41 42
39 40 42 38 40 41 39 41 42 40 41 43 40 41 43 40 41 43 40 41 43
40 41 43 40 41 43 40 41 43 40 41 43 40 41 43 41 42 44 42 43 45
42 44 45 40 41 43 40 41 43 40 41 43 40 41 43 40 42 43 41 42 44
40 41 43 39 40 42 39 41 42 41 42 44 41 42 44 42 44 46 43 44 46
43 44 46 41 42 44 40 42 44 36 38 39 39 41 42 45 47 48 43 45 46
42 43 45 40 41 43 39 40 42 39 40 42 39 41 44 40 42 45 41 43 46
41 42 46 41 42 46 41 42 46 39 40 44 39 41 44 41 43 46 41 43 45
40 42 43 40 41 43 40 42 44 42 43 45 43 45 46 41 43 44 42 44 45
45 47 48 46 47 49 42 44 47 41 42 46 40 41 45 40 41 45 40 41 45
39 40 44 39 41 44 40 42 45 41 42 46 40 41 45 40 41 45 40 41 45
40 41 44 40 41 43 39 41 42 44 46 46 44 46 45 45 47 46 47 49 49
45 47 46 43 45 44 43 45 44 41 43 42 39 41 40 40 42 41 42 44 44
43 45 44 41 43 42 40 42 42 40 41 43 40 42 44 40 42 43 40 41 43
39 40 42 42 44 45 41 43 45 58 59 61 46 47 49 40 41 43 39 41 42
39 41 43 40 42 44 40 41 43 39 41 42 40 42 43 42 44 45 43 44 46
42 44 44 42 44 44 42 43 45 41 43 44 40 42 43 40 43 42 38 41 38
39 42 35 62 65 55 134 135 124 97 90 83 63 57 51 52 47 43 46 42 40
46 43 43 45 43 44 43 42 43 42 43 43 41 43 43 42 43 43 42 43 44
43 44 45 43 44 45 43 44 45 41 41 43 40 41 43 40 41 43 40 41 43
40 41 42 40 42 43 39 41 42 39 41 42 40 41 43 39 41 42 42 44 45
38 40 41 49 51 53 52 54 55 49 51 50 42 44 41 42 44 42 40 42 40
38 40 40 41 43 42 40 42 42 40 41 43 39 41 42 39 41 42 40 42 43
41 42 44 40 42 43 40 41 43 39 40 42 39 40 42 39 41 42 40 42 43
41 42 44 41 42 44 41 42 44 42 43 45 42 43 45 42 43 45 41 42 44
41 42 44 41 42 44 41 42 44 41 43 44 41 43 44 39 41 42 39 40 42
39 41 42 41 42 44 41 42 44 42 44 46 43 44 46 43 44 46 41 42 44
40 41 43 39 40 42 39 41 43 43 45 47 43 45 46 42 43 45 40 41 43
39 40 42 39 40 42 39 41 44 40 42 45 41 43 46 41 42 46 41 42 46
41 42 46 39 40 44 39 41 44 41 43 46 42 43 45 41 42 44 39 41 42
39 41 43 42 44 45 42 44 45 40 42 43 45 47 48 50 52 53 48 50 51
43 45 48 42 43 47 41 42 46 40 41 45 40 42 45 40 41 45 40 41 45
40 41 45 40 41 45 40 41 45 40 41 45 40 41 45 40 41 44 40 41 43
40 42 43 41 43 43 42 45 44 45 47 46 47 50 49 44 47 46 44 46 45
41 43 42 40 42 41 40 42 41 40 42 42 41 43 43 42 44 43 42 44 43
41 43 43 41 42 44 42 43 45 41 43 44 40 41 43 39 41 42 42 44 45
40 41 43 50 52 54 51 53 54 42 44 45 40 42 43 40 41 43 40 41 43
39 41 42 39 41 42 40 42 43 42 44 45 43 44 46 42 44 44 42 44 44
42 43 45 41 43 44 40 42 43 40 42 42 45 47 43 37 40 32 102 105 94
98 101 88 56 53 43 46 43 37 44 41 40 47 43 49 48 45 53 44 43 50
40 41 44 39 41 41 41 44 39 44 43 41 45 42 42 44 42 42 42 42 41
42 42 42 41 41 41 41 41 42 40 41 42 40 41 43 40 41 43 40 42 43
39 41 42 39 41 42 40 41 43 40 42 43 41 43 44 46 48 49 59 61 62
55 57 58 46 48 47 42 44 41 39 41 38 39 41 39 38 40 39 41 43 42
40 42 42 40 41 43 39 41 42 39 40 42 39 41 42 40 41 43 40 41 43
39 41 42 39 41 42 40 41 43 40 41 43 40 41 43 40 41 43 40 42 43
41 42 44 40 41 43 40 41 43 40 41 43 40 41 43 40 41 43 40 41 43
40 41 43 40 41 43 40 42 43 41 42 44 40 41 43 39 41 42 41 42 44
41 42 44 42 44 46 43 44 46 42 44 46 42 43 45 39 41 42 39 41 43
41 43 45 42 44 46 42 43 45 42 43 45 41 42 44 40 41 43 39 40 42
39 41 43 40 42 45 41 43 45 41 42 44 41 42 44 40 42 44 40 41 44
40 42 45 41 43 45 42 43 45 41 43 44 39 41 42 39 41 43 42 43 44
42 43 44 42 43 43 51 51 51 56 56 56 52 53 53 44 46 48 41 43 45
41 42 44 41 42 44 40 41 44 41 42 44 40 41 44 40 41 43 39 40 43
39 41 44 39 40 43 39 41 43 39 40 42 42 44 45 57 59 60 45 47 47
44 46 46 48 50 50 43 45 45 42 45 44 42 44 43 41 43 42 40 42 42
41 43 42 41 43 42 42 44 43 42 44 44 43 45 44 42 43 44 42 43 45
42 43 45 41 43 44 39 41 42 40 41 43 39 40 42 40 42 44 40 41 43
51 53 54 48 49 50 40 42 43 40 42 43 40 41 42 40 41 42 40 41 42
40 42 43 42 44 44 43 44 45 44 44 44 42 43 44 42 43 45 40 44 45
38 42 43 39 43 42 40 43 41 54 57 51 51 53 45 36 37 29 43 43 37
47 47 45 46 46 47 45 45 49 45 45 52 44 44 50 44 45 48 43 45 45
44 47 44 45 45 43 45 43 43 43 42 42 42 41 40 40 40 40 41 41 41
41 41 41 40 41 42 40 42 42 40 42 43 40 42 43 39 41 42 39 41 42
40 41 43 42 44 45 41 43 44 55 56 58 53 55 56 43 44 46 41 43 43
41 43 43 38 40 39 40 42 42 41 43 44 41 43 43 40 42 43 40 41 43
39 41 42 39 40 42 38 40 42 38 40 41 38 39 41 38 39 41 39 41 43
40 42 43 40 41 43 39 41 42 40 41 43 40 41 43 40 41 43 40 41 43
39 40 42 39 40 42 39 40 42 39 40 42 39 40 42 39 41 42 39 41 42
40 41 43 41 42 44 40 42 43 39 41 42 40 41 43 40 42 44 43 45 47
43 44 46 42 43 45 41 42 44 39 41 42 38 40 42 40 42 44 42 44 46
39 41 42 40 42 44 42 44 46 41 43 44 39 40 42 40 41 43 40 42 44
41 42 44 40 41 43 40 41 43 40 42 44 41 42 44 41 42 44 40 41 43
40 42 44 41 42 44 40 41 43 41 42 43 43 43 43 43 43 43 62 60 60
83 81 80 56 55 53 52 50 50 45 47 48 41 43 44 40 41 43 40 41 43
39 41 42 40 41 43 40 41 43 40 41 43 40 41 43 41 43 44 40 42 44
41 43 44 39 41 42 48 49 51 67 69 70 55 57 59 47 49 50 45 47 48
42 44 45 42 44 43 42 44 43 42 44 43 42 44 43 41 43 42 41 43 43
43 45 45 44 46 45 43 45 44 42 44 44 41 43 44 41 42 44 40 42 43
40 41 43 40 41 43 39 41 42 39 41 43 41 43 45 45 47 48 55 57 56
43 45 45 40 42 41 41 43 42 39 41 41 40 42 42 41 43 42 42 44 43
42 44 43 44 44 44 42 41 42 41 43 44 42 47 47 40 46 46 39 45 44
40 45 43 39 41 41 40 39 39 43 41 41 44 46 47 46 47 49 45 47 48
42 44 45 43 44 46 44 45 47 43 44 46 43 44 46 42 44 45 41 43 43
40 42 41 40 42 41 40 42 41 40 42 41 41 43 42 41 43 42 41 43 43
43 45 45 43 45 45 41 43 44 40 42 43 39 40 42 39 40 42 40 42 43
42 44 45 48 50 51 46 48 50 41 43 44 40 42 43 39 41 42 39 40 42
39 41 42 41 42 44 41 42 44 40 41 43 39 40 42 39 41 42 41 42 44
42 44 45 40 42 43 38 40 41 38 39 41 39 41 42 39 41 42 39 40 42
39 41 42 41 42 44 40 42 43 40 41 43 39 40 42 39 40 42 39 40 42
39 40 42 40 41 43 40 41 43 40 42 43 40 42 43 40 41 43 40 41 43
40 41 43 40 41 43 38 39 41 37 39 41 42 44 46 44 45 47 43 44 46
43 44 46 40 42 43 39 40 42 41 43 45 42 44 46 40 42 43 40 42 44
41 43 45 41 42 44 40 41 43 40 42 44 41 43 45 42 43 45 41 42 44
41 43 44 43 44 46 40 41 43 39 40 42 39 41 43 40 41 43 39 41 42
39 41 43 41 42 44 43 44 44 47 46 46 68 67 66 57 55 54 45 43 42
53 52 51 44 46 47 41 43 44 40 41 43 40 41 43 39 41 42 40 41 43
40 41 43 40 41 43 40 41 43 39 41 43 40 42 43 41 43 45 40 42 43
44 46 47 46 48 49 49 51 52 46 48 50 43 45 46 44 46 46 42 44 43
42 44 43 42 44 43 42 44 43 41 43 42 41 43 43 43 45 45 44 46 45
42 44 43 41 42 43 41 42 44 41 42 44 41 42 44 40 42 43 41 43 44
41 43 44 40 42 43 40 41 43 40 41 43 46 48 48 51 53 53 41 43 42
39 41 41 40 42 41 41 43 42 41 43 42 42 44 43 42 44 43 45 44 44
43 42 42 39 40 40 37 41 41 36 42 41 40 46 44 44 49 47 46 47 47
45 44 44 44 43 43 43 45 46 43 44 46 43 45 46 44 45 47 44 46 47
44 45 47 44 45 47 43 44 46 42 44 45 44 46 46 43 45 44 43 45 44
44 46 45 46 48 47 46 48 47 44 46 45 41 43 43 41 43 42 41 43 43
40 42 43 40 41 43 40 41 43 40 42 43 41 43 44 42 43 45 44 46 47
43 45 46 42 43 45 39 41 43 39 40 42 39 41 42 40 42 43 41 43 44
39 41 42 39 40 42 39 40 42 40 42 43 41 42 44 41 43 44 42 44 45
41 43 44 38 40 42 39 41 42 39 41 42 39 40 42 39 41 42 41 42 44
40 42 43 40 41 43 39 40 42 39 40 42 39 40 42 39 40 42 40 41 43
40 41 43 40 42 43 40 42 43 40 41 43 40 41 43 40 41 43 40 41 43
38 39 41 37 39 41 41 43 45 42 43 45 43 44 46 43 45 47 41 43 44
40 41 43 41 43 45 42 44 46 40 42 43 41 42 44 41 42 44 41 42 44
40 41 43 41 42 44 42 43 45 42 43 45 42 43 45 41 43 45 43 44 46
40 41 43 39 40 42 39 41 43 40 41 43 39 41 42 39 41 43 41 42 44
43 44 44 51 51 51 60 59 59 48 46 44 49 47 46 47 46 45 43 45 45
39 41 42 39 40 42 40 41 43 39 41 42 40 41 43 40 41 43 40 41 43
40 41 43 39 40 42 40 42 44 41 43 45 44 46 47 45 46 48 41 43 45
41 43 44 44 46 47 45 47 48 44 45 47 42 44 43 42 44 43 42 44 43
42 44 43 41 43 42 41 43 43 43 45 44 42 44 43 41 43 42 40 41 42
40 42 44 41 42 44 41 42 44 41 42 44 41 43 45 42 43 45 41 42 44
39 41 42 39 40 41 39 41 40 51 53 52 48 50 49 37 39 38 42 44 43
42 44 43 42 44 43 41 43 42 41 43 42 42 41 41 42 42 42 42 43 42
41 44 43 43 47 44 46 51 47 46 49 47 44 45 45 46 45 46 49 48 48
43 45 46 41 43 44 41 42 44 43 44 46 42 44 45 42 43 45 43 45 46
45 46 48 46 47 49 44 46 45 41 43 42 40 42 41 41 43 43 44 46 46
46 48 47 46 48 47 46 48 47 47 49 49 47 49 49 43 45 46 41 43 44
40 41 43 39 40 42 40 42 44 44 45 47 43 44 46 43 45 46 43 45 46
40 42 43 39 40 42 39 41 42 40 41 43 40 42 43 39 40 42 38 39 41
38 40 41 39 41 42 40 42 43 41 42 44 42 43 45 41 43 44 39 41 43
39 41 42 39 41 42 39 40 42 39 41 42 41 42 44 40 42 43 40 41 43
39 40 42 39 40 42 39 40 42 39 40 42 40 41 43 40 41 43 40 42 43
40 42 43 40 41 43 40 41 43 40 41 43 40 41 43 40 41 43 38 40 42
40 41 43 40 41 43 42 44 46 45 46 48 42 44 45 40 41 43 41 43 45
43 44 46 41 42 44 41 42 44 40 41 43 40 42 44 41 42 44 42 43 45
42 44 46 43 44 46 42 43 45 41 43 44 40 42 44 41 42 44 41 42 44
40 41 43 40 42 44 41 42 44 40 41 43 41 42 43 42 42 43 59 59 59
62 61 60 44 42 40 48 46 45 57 55 54 42 44 45 39 41 42 38 40 42
40 41 43 39 41 42 40 41 43 40 41 43 40 41 43 40 41 43 39 41 42
40 42 44 40 42 43 47 48 50 48 50 51 45 46 48 44 46 47 45 47 49
45 46 48 43 45 46 42 44 43 42 44 43 42 44 43 42 44 43 41 43 42
41 43 43 43 45 44 42 44 43 40 42 41 39 41 42 40 41 43 40 42 44
41 42 44 42 43 45 40 42 43 41 43 45 42 43 45 40 42 43 39 41 42
40 42 41 44 46 46 51 53 52 47 49 48 42 44 43 42 44 43 42 44 43
41 43 42 41 43 42 44 45 45 43 43 42 39 39 37 40 41 38 47 50 46
43 46 42 45 46 44 48 48 48 56 55 57 58 57 59 43 45 46 41 43 44
41 42 44 40 41 43 40 42 43 40 41 43 41 43 44 42 44 45 43 45 46
44 46 45 44 46 45 43 45 44 43 45 44 43 45 44 38 40 39 38 40 40
40 42 41 43 45 44 44 46 46 43 44 46 41 43 44 40 42 43 40 41 43
40 41 43 42 43 45 41 42 44 41 43 45 42 43 45 41 43 44 41 43 44
39 41 42 39 40 42 39 40 42 39 41 42 38 40 41 38 39 41 38 39 41
39 41 42 40 41 43 39 41 42 39 40 42 39 41 42 40 41 43 39 41 42
39 40 42 39 41 42 41 42 44 40 42 43 40 41 43 39 40 42 39 40 42
39 40 42 39 40 42 40 41 43 40 41 43 40 42 43 40 42 43 40 41 43
40 41 43 40 41 43 40 41 43 41 42 44 40 42 44 41 42 44 41 43 45
43 45 47 44 46 48 44 46 47 44 45 47 44 46 48 44 45 47 42 44 45
42 43 45 41 42 44 40 41 43 41 43 45 40 42 44 41 42 44 41 42 44
40 41 43 39 40 42 38 40 42 40 41 43 41 42 44 41 42 44 41 43 45
40 42 43 40 42 44 39 40 41 42 43 43 46 46 46 64 63 62 48 46 45
53 52 50 55 54 53 43 45 45 39 41 42 39 41 43 41 42 44 40 42 43
40 42 43 39 41 42 39 41 43 40 41 43 40 41 43 42 44 45 43 45 46
44 46 47 45 47 48 42 44 45 43 44 46 44 45 47 43 45 46 42 44 45
41 44 43 41 43 42 40 42 41 42 44 43 43 45 44 42 44 43 41 43 42
41 43 42 40 42 41 40 41 42 40 41 43 40 41 43 40 42 44 42 44 46
41 43 44 41 42 44 42 44 46 42 43 45 40 42 43 40 42 42 39 41 40
45 47 46 50 53 52 45 47 47 41 43 42 40 42 41 43 45 44 41 43 43
40 41 40 42 42 40 47 48 44 95 96 90 95 96 90 66 67 61 53 53 50
47 47 47 45 44 48 41 41 45 40 41 43 40 42 43 41 42 44 41 42 44
41 43 44 41 42 44 41 42 44 41 43 44 42 43 45 41 43 43 41 43 42
41 43 42 41 43 42 41 43 42 41 43 42 41 43 42 41 43 43 42 44 43
42 44 44 41 42 44 41 43 44 42 43 45 42 44 45 40 42 43 40 42 43
41 42 44 42 43 45 42 43 45 42 43 45 40 42 43 40 42 43 40 42 43
40 41 43 40 42 43 40 42 43 39 40 42 39 40 42 39 41 42 39 40 42
40 41 43 40 41 43 40 42 43 39 41 43 40 41 43 40 42 43 40 42 43
40 41 43 40 41 43 40 41 43 40 41 43 40 41 43 40 41 43 40 41 43
40 41 43 40 41 43 40 41 43 40 41 43 39 40 42 39 41 42 40 41 43
40 41 43 41 42 44 41 42 44 41 43 45 42 44 46 43 45 47 43 44 46
43 44 46 43 44 46 42 43 45 41 42 44 41 43 45 42 43 45 40 41 43
39 40 42 41 43 45 40 41 43 40 42 44 41 42 44 39 41 42 38 39 41
39 40 42 40 42 44 41 42 44 40 41 43 39 40 42 39 41 42 43 44 46
40 42 43 43 43 43 49 49 49 58 56 56 52 50 48 52 51 49 59 58 57
43 45 46 40 42 43 39 41 43 41 42 44 40 42 43 39 40 42 38 40 41
38 39 41 39 40 42 41 43 44 43 45 47 44 46 47 43 45 46 44 46 48
43 45 46 43 44 46 43 44 46 43 44 46 43 44 46 40 43 42 41 44 43
40 42 41 41 43 43 42 44 44 41 43 42 41 43 42 40 42 41 40 42 41
40 41 42 39 41 42 39 40 42 39 41 43 40 41 43 41 43 44 41 42 44
42 44 46 42 43 45 40 42 43 40 42 41 40 42 41 42 44 43 48 50 49
47 49 48 40 42 41 40 42 41 39 41 40 40 42 41 44 45 44 46 47 44
96 96 91 121 120 113 117 115 107 83 81 75 57 56 53 42 42 43 43 42 47
43 43 48 40 41 43 40 42 43 41 42 44 41 42 44 41 42 44 41 42 44
41 42 44 41 43 44 42 43 45 41 43 43 41 43 42 41 43 42 41 43 42
41 43 42 41 43 42 41 43 42 41 43 43 42 44 43 42 44 43 42 43 45
42 43 45 42 43 45 42 43 45 41 43 44 41 42 44 41 42 44 42 43 45
42 43 45 42 43 45 40 42 43 40 42 43 41 43 44 40 42 43 40 42 43
41 42 44 39 41 43 39 40 42 39 41 42 39 40 42 40 41 43 40 41 43
40 42 43 40 42 43 40 41 43 40 41 43 40 41 43 40 41 43 40 41 43
40 41 43 40 41 43 40 41 43 40 41 43 43 44 46 43 44 46 43 44 46
43 44 46 42 43 45 40 41 43 40 41 43 40 42 43 41 42 44 40 41 43
41 42 44 41 42 44 41 43 45 42 43 45 41 43 45 41 43 45 42 43 45
41 42 44 39 40 42 40 42 43 41 42 44 38 40 41 38 39 41 41 43 45
38 40 42 40 42 44 42 43 45 40 41 43 39 40 42 41 42 44 41 42 44
41 42 44 39 40 42 39 40 42 39 40 42 42 44 45 42 43 45 47 47 47
56 56 56 55 54 53 55 53 52 50 48 46 58 57 56 44 45 46 40 42 43
39 41 43 41 42 44 40 42 43 40 41 43 39 40 42 39 40 42 39 41 43
42 44 45 44 45 47 44 46 47 43 44 46 44 46 48 43 45 46 43 44 46
43 44 46 43 44 46 43 44 46 40 43 42 41 44 43 42 44 43 41 43 42
41 43 42 41 43 42 41 43 42 41 43 42 41 43 42 41 43 44 41 43 44
40 41 43 39 40 42 39 41 43 41 43 44 41 42 44 42 44 46 42 43 45
40 42 42 40 42 41 42 44 43 40 42 42 44 46 45 51 53 52 45 47 46
43 45 44 41 43 42 40 42 41 39 41 39 68 70 66 121 121 115 143 140 132
109 106 97 56 52 45 45 43 39 43 42 44 42 43 49 40 41 47 40 41 43
40 42 43 41 42 44 41 42 44 40 42 43 40 42 43 41 43 44 42 43 45
42 43 45 41 43 43 41 43 42 41 43 42 41 43 42 41 43 42 41 43 42
41 43 42 41 43 43 42 44 43 42 44 43 42 43 45 42 43 45 42 43 45
42 43 45 41 43 44 41 42 44 41 42 44 42 43 45 42 43 45 42 43 45
40 42 43 40 42 43 41 43 44 40 42 43 40 42 43 41 42 44 39 41 43
39 40 42 39 41 42 39 40 42 40 41 43 40 41 43 40 42 43 40 42 43
40 41 43 40 41 43 40 41 43 40 41 43 40 41 43 40 41 43 40 41 43
40 41 43 40 41 43 41 42 44 41 42 44 41 42 44 41 42 44 41 42 44
41 42 44 41 43 44 42 43 45 42 43 45 40 41 43 41 42 44 41 42 44
41 42 44 41 42 44 40 41 43 41 43 45 43 45 47 43 45 46 41 42 44
40 41 43 41 43 45 40 41 43 39 40 42 39 41 43 39 40 42 39 41 43
40 42 44 40 41 43 40 41 43 41 42 44 42 43 45 42 43 45 41 42 44
42 44 45 40 42 43 39 41 43 41 42 43 50 50 51 59 59 58 54 53 52
55 53 52 47 46 44 49 47 46 43 44 45 40 42 43 39 41 43 41 42 44
40 42 43 42 43 45 41 42 44 41 42 44 41 43 45 42 44 46 43 44 46
43 44 46 42 44 46 46 48 49 44 46 48 42 44 45 42 43 45 42 44 45
44 45 47 42 44 43 41 43 42 41 44 43 41 43 42 40 42 41 40 42 41
40 42 42 41 43 42 41 43 42 42 44 45 42 44 45 42 43 45 42 43 45
42 43 45 41 43 45 41 42 44 42 44 46 42 43 45 40 42 43 40 42 42
42 44 43 40 42 41 41 43 42 50 52 51 48 50 50 42 44 44 42 44 43
38 41 40 39 42 39 128 129 125 162 162 155 144 141 131 85 81 70
51 47 38 45 41 37 43 41 42 41 41 48 40 41 48 40 41 43 40 42 43
41 42 44 41 42 44 40 41 43 40 42 43 42 44 45 42 44 45 41 43 44
41 43 43 41 43 42 41 43 42 41 43 42 41 43 42 41 43 42 41 43 42
41 43 43 42 44 43 42 44 43 42 43 45 42 43 45 42 43 45 42 43 45
42 43 45 42 43 45 42 43 45 41 42 44 41 42 44 41 43 44 40 42 43
40 42 43 41 43 44 40 42 43 40 42 43 41 42 44 39 41 43 39 40 42
39 41 42 39 40 42 40 41 43 40 41 43 40 42 43 41 42 44 40 41 43
39 40 42 39 40 42 41 42 44 40 42 43 40 41 43 40 41 43 40 41 43
40 41 43 40 41 43 40 41 43 40 41 43 40 41 43 40 41 43 40 42 43
41 42 44 41 43 44 42 43 45 42 44 46 41 42 44 41 42 44 41 42 44
40 41 43 38 40 41 39 41 43 43 45 47 44 45 47 42 43 45 39 41 42
42 44 46 43 45 47 40 42 43 40 41 43 40 41 43 38 40 41 38 39 41
40 42 44 41 43 45 40 41 43 41 43 45 42 44 46 42 43 45 42 44 45
40 43 45 42 44 46 43 44 45 48 49 49 52 52 52 51 50 49 51 50 48
50 48 46 43 42 40 43 44 45 40 42 43 39 41 43 41 42 44 40 42 43
40 42 43 40 41 43 39 41 43 40 42 44 41 42 44 42 43 44 42 43 44
43 45 46 48 50 51 45 47 48 42 44 45 41 42 44 42 44 45 44 46 47
43 45 45 39 41 41 40 42 42 41 44 43 40 42 42 40 42 41 40 42 42
41 43 42 41 43 43 41 42 43 41 42 43 40 41 43 41 42 44 42 44 45
42 44 45 41 42 44 42 44 45 42 43 45 40 42 42 41 43 42 40 42 41
41 42 42 40 42 42 40 42 42 51 52 52 47 49 48 41 43 42 44 46 46
86 88 85 149 151 144 138 138 130 103 100 91 54 50 40 47 43 36
44 41 38 41 40 41 41 41 48 42 42 49 40 41 43 40 42 43 41 42 44
41 42 44 39 41 42 40 42 43 42 44 45 43 45 46 40 42 43 40 42 42
41 43 42 41 43 42 41 43 42 41 43 42 41 43 42 41 43 42 41 43 43
42 44 43 42 44 44 42 43 44 42 43 44 42 43 44 42 43 44 42 44 45
42 44 45 42 43 44 41 42 43 40 42 43 41 43 44 40 42 43 40 42 43
41 43 44 40 42 43 40 42 43 41 42 44 39 41 43 39 40 42 39 41 42
39 40 42 40 41 43 40 41 43 40 42 43 41 43 44 40 42 43 38 40 41
38 40 41 41 43 44 40 42 44 40 41 43 40 41 43 40 41 43 40 41 43
40 41 43 40 41 43 40 41 43 40 41 43 40 41 43 39 40 42 39 41 42
40 41 43 40 41 43 42 43 45 40 41 43 40 41 43 40 41 43 40 41 43
39 41 43 41 43 45 43 44 46 42 43 45 42 44 46 41 43 44 41 42 44
41 42 44 41 42 44 41 42 44 42 43 45 41 42 44 40 41 43 41 43 45
41 43 45 37 38 40 39 41 43 41 42 44 41 42 44 39 42 45 38 41 45
37 41 45 43 46 49 50 52 53 45 47 46 45 46 43 51 51 46 57 57 52
49 50 46 43 45 45 40 42 43 40 41 43 40 42 43 39 41 42 41 42 44
41 42 44 41 42 44 40 42 43 41 43 43 43 45 44 44 46 45 45 47 46
44 46 45 45 47 46 44 46 46 44 46 46 43 45 45 41 43 43 43 45 46
43 44 45 41 43 44 40 41 42 39 41 42 40 41 42 40 41 42 40 41 42
40 41 42 39 41 41 39 41 41 40 42 41 40 42 41 40 42 41 40 42 42
41 43 42 41 43 42 42 44 43 42 44 44 42 42 42 43 43 43 43 43 45
42 42 44 41 41 42 46 46 48 64 64 65 43 43 44 74 74 75 165 167 156
160 163 147 115 117 105 56 56 49 45 45 40 44 43 43 44 43 45 41 40 43
42 42 46 42 42 45 40 42 43 38 40 41 39 41 42 40 42 43 39 41 42
39 41 42 41 43 44 42 44 45 42 43 45 41 43 44 41 42 43 41 42 43
41 42 43 41 42 43 42 43 44 42 43 44 42 43 44 42 43 44 42 43 44
42 44 43 42 44 43 42 44 43 42 44 43 41 43 43 41 43 42 41 43 42
40 42 41 40 42 42 41 43 44 41 43 44 41 42 44 41 42 44 42 43 45
41 42 44 41 42 44 41 42 44 40 41 43 40 41 43 40 41 43 40 41 43
40 41 43 40 41 43 39 41 42 39 40 42 39 40 42 39 40 42 40 41 43
40 41 43 40 41 43 40 41 43 40 41 43 40 41 43 40 41 43 40 41 43
40 41 43 40 41 43 39 41 42 40 41 43 41 43 44 42 43 45 41 42 44
38 39 41 40 41 43 40 41 43 40 41 43 40 41 43 40 41 43 41 43 45
43 44 46 42 43 45 42 44 46 41 43 44 41 42 44 41 42 44 41 42 44
41 42 44 42 43 45 41 42 44 40 41 43 41 43 45 42 44 46 42 43 45
39 40 42 39 41 43 41 42 44 40 42 46 38 42 46 38 42 45 42 45 48
46 48 50 48 50 48 45 46 43 50 51 46 62 63 57 61 62 57 44 45 46
40 42 43 40 41 43 40 42 43 39 41 42 39 40 42 39 40 42 39 40 42
39 40 42 40 42 42 41 44 43 42 44 43 43 45 44 42 44 43 41 43 42
44 46 46 44 46 45 43 45 44 45 47 47 43 45 46 43 44 46 41 43 44
40 41 43 39 41 43 40 41 43 40 41 43 40 41 43 40 41 43 40 42 42
40 42 41 40 42 41 40 42 41 40 42 41 40 42 42 41 43 42 41 43 42
42 44 43 43 44 44 43 43 44 41 41 42 40 40 41 43 43 43 40 40 41
45 45 46 44 44 44 89 90 89 154 154 152 180 182 170 141 143 128
64 65 54 37 38 32 42 43 40 43 43 45 42 42 44 42 42 44 41 41 42
44 45 45 41 43 44 40 41 43 40 42 43 42 43 45 39 41 42 39 41 42
41 43 44 42 44 45 42 43 45 42 43 45 42 43 45 42 43 45 42 43 45
42 43 45 42 43 45 42 43 45 42 43 45 42 43 45 42 43 45 42 44 43
42 44 43 42 44 43 42 44 43 42 44 43 41 43 42 41 43 42 41 43 42
40 42 41 41 43 44 41 43 44 41 42 44 41 42 44 42 43 45 41 42 44
41 42 44 41 42 44 40 41 43 40 41 43 40 41 43 40 41 43 40 41 43
40 41 43 40 41 43 40 41 43 40 41 43 40 41 43 40 41 43 40 41 43
40 41 43 40 41 43 40 41 43 40 41 43 40 41 43 40 41 43 40 41 43
40 41 43 40 42 43 40 42 43 40 41 43 40 42 43 41 43 44 37 39 41
39 40 42 39 41 43 40 41 43 41 42 44 41 42 44 42 44 46 44 45 47
42 43 45 42 43 45 41 42 44 41 42 44 41 42 44 41 42 44 41 42 44
42 43 45 41 42 44 40 41 43 40 41 43 42 43 45 45 47 48 42 44 45
40 42 44 40 41 43 40 42 45 39 43 46 38 42 44 39 43 45 43 45 46
43 45 44 45 46 43 49 49 46 57 58 53 54 55 51 43 45 45 40 42 43
40 41 43 40 42 43 39 41 42 40 41 43 40 41 43 40 41 43 41 42 44
41 43 43 42 45 44 43 46 45 44 46 45 43 45 44 42 44 43 47 49 48
44 46 45 41 43 42 44 46 46 43 45 46 43 44 46 41 43 44 40 41 43
39 41 43 40 41 43 40 41 43 40 41 43 40 41 43 41 43 43 41 43 42
41 43 42 40 42 41 40 42 41 40 42 42 41 43 42 41 43 42 42 44 43
43 44 44 42 42 42 43 43 43 43 43 43 43 44 43 46 47 44 38 38 36
54 55 50 154 154 150 157 158 152 142 143 133 91 92 82 44 45 37
47 48 43 43 43 41 44 44 44 52 52 52 39 39 39 47 47 46 49 49 49
42 44 45 40 41 43 41 43 44 42 43 45 39 41 42 39 41 42 41 43 44
42 44 45 42 43 45 42 43 45 42 43 45 42 43 45 42 43 45 42 43 45
42 43 45 42 43 45 42 43 45 42 43 45 42 43 45 42 44 43 42 44 43
42 44 43 42 44 43 42 44 43 42 44 43 42 44 43 41 43 42 41 43 42
41 43 44 41 43 44 41 42 44 41 42 44 42 43 45 41 42 44 41 42 44
41 42 44 40 41 43 40 41 43 40 41 43 40 41 43 40 41 43 40 41 43
40 42 43 41 42 44 40 41 43 40 41 43 39 40 42 39 41 42 40 41 43
40 41 43 40 41 43 40 41 43 40 41 43 40 41 43 40 41 43 40 41 43
40 42 43 41 42 44 39 41 42 40 42 43 41 43 44 40 41 43 39 40 42
39 41 43 40 41 43 41 42 44 41 42 44 42 44 46 44 45 47 41 43 44
41 42 44 41 42 44 41 42 44 41 42 44 41 42 44 41 42 44 41 42 44
41 42 44 40 41 43 39 40 42 39 40 42 45 47 48 50 51 53 42 44 45
39 41 43 39 42 44 38 42 44 38 42 44 39 43 43 41 44 43 43 45 44
48 49 48 51 51 49 53 53 50 47 48 45 43 45 45 40 42 43 40 41 43
40 42 43 39 41 42 39 41 43 40 42 44 41 42 44 42 43 45 42 44 44
43 45 44 44 47 46 45 47 46 44 46 45 44 46 45 45 48 47 44 46 45
42 44 43 41 43 43 43 45 46 43 44 46 41 43 44 40 41 43 39 41 43
40 41 43 40 41 43 40 41 43 40 41 43 42 44 44 42 44 43 42 44 43
40 42 41 40 42 41 40 42 42 41 43 42 41 43 42 42 44 43 43 44 44
44 44 44 45 45 45 43 43 43 40 41 38 39 40 36 66 66 61 115 116 109
155 156 148 132 133 124 84 85 78 55 56 51 46 47 42 40 40 37 49 49 47
53 54 52 55 55 54 42 42 40 49 50 47 48 49 47 41 43 44 40 41 43
40 42 43 42 43 45 39 41 42 39 41 42 41 43 44 42 44 45 42 43 45
42 44 45 43 44 46 43 44 46 43 44 46 43 44 46 42 43 45 42 43 45
42 43 45 42 43 45 42 43 45 42 44 43 42 44 43 42 44 43 42 44 43
42 44 44 43 45 44 42 44 43 42 44 43 41 43 42 42 43 44 41 43 44
41 42 44 41 42 44 42 43 45 41 42 44 41 42 44 41 42 44 40 41 43
40 41 43 40 41 43 40 41 43 40 41 43 40 41 43 41 43 44 42 43 45
41 42 44 40 41 43 39 40 42 39 41 42 40 41 43 40 41 43 40 41 43
40 41 43 40 41 43 40 41 43 40 41 43 40 41 43 40 41 43 40 42 43
40 41 43 40 42 43 41 43 44 40 41 43 38 39 41 39 41 43 40 41 43
41 43 45 42 43 45 42 44 46 44 45 47 41 43 44 41 42 44 41 42 44
41 42 44 41 42 44 41 42 44 41 42 44 41 42 44 41 42 44 40 41 43
38 39 41 36 37 39 44 46 47 56 58 59 44 45 47 38 39 41 38 41 43
36 40 42 38 42 43 39 43 43 41 43 42 42 44 43 47 48 47 48 48 46
50 50 48 46 47 44 43 45 45 40 42 43 40 41 43 40 42 43 38 40 41
37 39 41 38 40 42 40 41 43 40 42 44 41 43 43 41 44 43 42 45 44
43 45 44 42 44 43 42 45 44 42 44 43 44 46 46 45 47 46 43 45 44
43 45 46 43 44 46 41 43 44 40 41 43 39 41 43 40 41 43 40 41 43
40 41 43 40 41 43 43 45 45 43 45 44 42 44 43 41 43 42 40 42 41
40 42 42 41 43 42 41 43 42 42 44 43 43 44 43 41 41 41 40 40 39
42 42 40 45 46 42 66 67 62 125 126 119 188 190 181 158 160 150
74 75 66 44 45 41 39 39 38 44 45 43 51 52 50 68 69 67 66 66 64
46 46 44 52 52 49 44 45 41 40 41 38 40 42 43 38 40 41 39 41 42
40 42 43 39 41 42 39 41 42 41 43 44 42 44 45 42 43 45 42 44 45
43 44 46 43 44 46 43 44 46 43 44 46 42 43 45 42 43 45 42 43 45
42 43 45 42 43 45 42 44 43 42 44 43 42 44 43 42 44 43 42 44 44
43 45 44 43 45 44 42 44 43 42 44 43 42 44 44 41 43 44 41 42 44
41 42 44 42 43 45 41 42 44 41 42 44 41 42 44 40 41 43 40 41 43
40 41 43 40 41 43 40 41 43 40 41 43 41 43 45 42 43 45 41 43 44
40 41 43 39 40 42 39 41 42 40 41 43 40 41 43 40 41 43 40 41 43
40 41 43 40 41 43 40 41 43 40 41 43 39 41 42 39 41 42 41 43 44
42 43 45 41 43 44 41 43 45 40 41 43 40 41 43 40 41 43 40 41 43
40 42 44 41 43 45 42 43 45 40 41 43 39 40 42 39 41 43 40 41 43
40 41 43 40 41 43 40 41 43 40 41 43 40 41 43 40 41 43 40 41 43
40 42 44 41 42 44 55 57 58 59 61 62 50 52 53 43 46 47 37 41 42
36 40 40 36 40 40 39 42 41 41 43 42 47 48 48 48 48 47 47 48 46
52 52 51 42 43 45 41 43 44 40 42 43 40 41 43 40 41 43 40 41 43
40 41 43 40 41 43 40 41 43 40 42 42 42 44 43 42 45 44 43 45 44
42 44 43 41 43 43 44 46 46 44 46 45 41 43 42 42 44 44 41 43 45
42 43 45 42 43 45 41 43 44 40 41 43 40 41 43 40 41 43 40 41 43
40 41 43 42 44 44 41 43 42 40 42 41 40 42 41 40 42 41 44 46 45
38 40 40 42 44 43 42 44 43 45 46 45 42 43 41 42 42 40 57 58 55
94 94 91 137 137 133 129 130 124 100 101 94 60 61 54 46 47 39
43 44 42 44 44 45 41 40 41 46 46 45 48 49 47 50 50 48 54 54 51
48 48 45 44 44 40 38 39 37 42 44 45 40 41 43 39 41 42 40 42 43
40 41 43 40 42 43 41 43 44 42 43 45 42 43 45 42 43 45 42 43 45
42 43 45 42 44 45 43 44 46 43 44 46 42 43 45 41 43 44 41 42 44
40 42 43 42 44 43 42 44 43 41 43 42 41 43 42 41 43 42 44 46 45
42 44 43 41 43 43 41 43 43 41 43 44 42 43 45 42 43 45 42 43 45
42 43 45 42 43 45 42 43 45 41 43 44 39 41 42 38 40 41 39 41 42
40 42 43 41 42 44 39 41 43 40 42 43 41 42 44 40 42 43 39 41 42
39 40 42 39 41 42 41 42 44 42 43 45 41 42 44 40 42 43 40 41 43
39 40 42 39 40 42 40 42 43 40 41 43 39 41 42 41 43 44 42 43 45
41 43 44 41 43 45 40 41 43 40 41 43 40 41 43 40 41 43 41 43 45
42 43 45 42 43 45 40 42 43 39 40 42 39 41 43 40 41 43 40 41 43
40 41 43 40 41 43 42 43 45 40 41 43 39 40 42 39 40 42 39 41 43
38 40 41 42 44 46 49 51 53 56 58 59 61 64 64 58 62 61 53 57 56
46 50 48 41 44 43 41 43 42 44 45 45 45 45 45 46 46 46 51 52 52
44 45 46 40 42 43 39 41 42 39 40 42 39 41 43 40 41 43 40 41 43
40 41 43 40 41 42 40 42 42 41 44 43 42 45 44 43 45 44 43 45 44
42 45 44 43 46 45 43 45 44 42 44 43 42 44 43 41 42 43 41 43 45
42 43 45 41 43 44 41 42 44 40 41 43 40 41 43 40 41 43 40 41 43
40 42 42 40 42 41 40 42 41 40 42 41 40 42 41 37 40 39 41 43 43
40 42 42 43 45 44 40 42 41 52 53 49 92 93 89 144 145 141 164 165 161
128 128 125 73 74 70 45 45 43 41 42 39 45 45 43 42 42 43 42 42 45
41 41 42 47 47 46 52 52 50 57 57 54 52 52 49 49 49 48 51 51 51
50 50 50 40 42 44 44 45 47 39 41 43 38 40 41 40 41 43 40 42 43
41 43 44 42 43 45 42 43 45 42 43 45 42 43 45 42 43 45 42 44 45
43 44 46 42 43 45 42 43 45 41 43 44 41 42 44 41 42 44 42 44 43
42 44 43 42 44 43 42 44 43 41 43 42 48 50 49 47 49 48 42 44 43
43 45 44 42 44 44 42 43 45 42 43 45 42 43 45 42 43 45 42 43 45
42 43 45 41 43 44 40 42 43 39 41 42 40 41 43 40 42 43 40 42 43
40 41 43 40 42 43 41 42 44 40 42 43 40 41 43 40 41 43 40 42 43
42 43 45 42 43 45 42 43 45 41 42 44 40 41 43 39 40 42 39 40 42
40 42 43 40 42 43 40 42 43 41 43 44 42 43 45 41 43 44 42 43 45
40 41 43 40 42 44 41 42 44 41 43 45 42 44 46 43 44 46 43 44 46
41 42 44 40 41 43 39 41 43 40 41 43 40 41 43 40 41 43 40 41 43
42 44 45 39 41 42 38 39 41 38 40 42 40 42 44 42 44 45 42 44 46
42 44 45 40 41 43 36 39 39 38 42 41 45 49 48 47 50 49 45 47 46
43 45 45 41 42 42 41 41 41 48 48 48 57 57 58 44 46 47 39 41 42
37 39 40 38 39 41 38 40 42 39 40 42 39 40 42 39 40 42 39 40 42
39 41 41 41 44 43 42 45 44 43 45 44 43 45 44 43 45 44 43 45 44
43 45 44 41 43 42 39 41 40 39 40 42 39 41 43 41 42 44 41 42 44
41 42 44 41 42 44 41 42 44 41 42 44 41 42 44 41 43 43 41 43 43
42 44 43 41 43 42 40 42 41 44 46 46 38 40 40 38 40 40 43 45 45
72 74 72 144 145 140 179 179 175 124 124 120 80 81 77 48 48 47
40 40 39 46 46 47 40 39 42 42 41 44 44 44 47 39 38 41 43 43 44
44 44 43 59 60 56 55 56 52 55 55 54 65 64 65 59 59 61 53 53 57
44 46 48 40 42 44 40 42 43 41 42 44 40 41 43 40 42 43 41 43 44
42 43 45 42 43 45 42 43 45 42 43 45 42 43 45 42 44 45 43 44 46
41 42 44 41 42 44 41 43 44 42 43 45 42 43 44 41 43 43 42 44 43
43 45 44 43 45 44 42 44 43 50 52 52 49 51 51 42 44 43 43 45 44
42 44 44 42 43 45 42 43 45 42 43 45 42 43 45 41 43 44 42 43 45
42 43 45 41 43 44 40 42 43 40 41 43 40 41 43 40 41 43 40 41 43
40 42 43 41 42 44 41 42 44 41 42 44 41 42 44 40 42 43 40 41 43
41 42 44 40 41 43 40 41 43 40 41 43 39 40 42 39 40 42 40 42 43
41 42 44 41 42 44 41 42 44 42 43 45 42 43 45 42 43 45 40 41 43
40 42 44 41 43 45 42 44 46 42 43 45 41 43 45 42 44 46 43 44 46
42 43 45 40 42 43 40 41 43 40 41 43 40 41 43 40 41 43 40 41 43
40 41 43 40 41 43 40 41 43 39 40 42 38 40 42 42 44 46 44 45 47
43 44 46 41 45 43 39 44 41 38 43 40 39 43 42 43 46 45 54 56 55
52 53 52 47 47 48 46 46 48 45 45 47 41 42 44 40 41 43 39 40 42
39 40 42 38 40 42 39 40 42 39 40 42 39 40 42 39 40 42 39 41 41
40 43 42 41 44 43 43 46 45 44 46 45 44 46 45 41 43 42 42 45 44
41 43 42 37 39 39 38 39 41 39 41 43 40 42 44 41 42 44 41 42 44
42 43 45 42 43 45 42 43 45 42 43 45 42 44 44 43 45 44 43 45 44
40 42 41 37 39 39 34 36 36 54 56 56 81 83 83 108 111 110 143 144 142
137 138 132 108 109 103 59 59 55 44 44 42 46 46 47 43 42 45 39 39 44
40 39 46 49 48 55 50 49 54 45 45 47 44 44 44 67 68 65 80 81 77
54 55 51 43 43 42 52 51 54 44 43 49 44 43 49 48 50 51 44 46 47
43 45 46 43 44 46 40 42 43 40 42 43 41 43 44 42 43 45 42 43 45
42 43 45 42 43 45 42 43 45 42 44 45 43 44 46 40 42 43 41 42 44
41 43 44 42 43 45 42 43 44 41 43 43 42 44 44 43 45 45 44 46 45
46 48 47 51 53 52 47 49 48 43 45 44 41 43 43 42 44 45 43 44 46
43 44 46 43 44 46 43 44 46 41 43 44 42 43 45 43 44 46 42 44 45
41 43 44 40 42 43 39 41 42 39 41 42 40 41 43 40 42 43 41 42 44
41 42 44 42 43 45 42 44 45 40 42 43 40 42 43 41 42 44 40 42 43
40 41 43 40 41 43 39 40 42 39 40 42 40 42 43 42 43 45 42 43 45
41 42 44 41 43 44 42 44 45 39 40 42 40 41 43 40 41 43 40 42 44
43 44 46 42 44 45 41 43 45 42 44 46 43 44 46 44 45 47 41 43 44
41 42 44 41 42 44 40 41 43 40 41 43 39 41 41 39 41 42 40 42 42
40 42 42 40 42 43 42 44 44 42 45 44 43 44 45 42 44 44 42 45 44
43 46 45 43 47 45 42 44 43 40 42 41 38 40 39 45 46 46 57 58 59
57 57 58 45 46 47 39 40 43 39 41 43 39 40 43 39 40 42 38 39 42
38 39 42 38 39 42 38 39 42 38 39 42 38 40 42 40 42 42 41 43 44
43 45 45 44 46 46 43 45 45 41 43 43 42 43 44 41 43 43 38 40 41
39 41 43 39 41 43 40 42 43 40 42 44 41 42 43 43 44 45 42 43 43
42 44 43 42 44 43 39 41 40 42 44 43 41 43 41 41 44 42 56 59 57
90 92 90 145 147 146 152 154 152 127 129 127 92 94 92 50 51 48
40 42 39 40 42 40 39 40 40 44 45 46 44 44 47 45 46 49 41 42 47
44 45 50 46 47 49 41 42 42 56 56 56 105 105 104 73 75 72 41 42 39
41 42 42 55 56 57 50 50 53 43 44 47 44 46 48 47 49 50 44 46 47
42 44 45 41 43 44 41 43 44 43 44 46 42 44 45 41 42 44 42 43 45
42 43 45 42 43 45 42 44 45 43 44 46 41 43 44 41 42 44 42 44 45
43 44 46 42 44 45 42 43 43 42 44 44 43 45 45 44 45 46 46 48 48
47 49 49 43 45 45 41 43 44 40 42 42 42 44 45 43 44 46 42 43 45
42 44 45 43 44 46 41 43 45 42 43 45 43 44 46 43 44 46 42 44 45
41 42 44 40 41 43 38 40 42 39 40 42 40 42 43 41 42 44 41 42 44
41 42 44 42 43 45 41 43 44 42 43 45 42 43 45 41 43 44 40 42 43
40 41 43 39 41 42 40 41 43 40 42 43 42 43 45 42 43 45 41 42 44
41 43 44 43 45 46 38 40 42 40 41 43 39 40 42 39 41 43 42 44 46
42 44 46 42 43 45 43 44 46 43 44 46 43 45 47 42 44 45 42 44 46
42 43 45 41 42 44 39 41 42 39 41 40 39 41 40 39 42 41 40 43 42
41 43 42 41 43 43 43 46 45 44 46 45 42 44 43 41 43 43 42 44 43
42 44 43 40 42 41 39 41 40 38 41 40 38 41 40 43 45 45 48 50 50
47 49 49 42 43 47 39 40 44 37 38 42 39 41 44 40 41 45 39 40 44
39 40 44 39 40 44 39 41 44 40 42 44 41 42 44 41 43 45 43 44 46
43 44 46 42 44 45 42 43 45 42 43 45 41 43 44 40 41 43 41 42 45
40 41 43 40 41 43 40 42 43 43 45 45 41 44 43 36 38 37 40 43 40
43 46 43 46 48 45 37 40 37 51 54 51 95 98 95 146 149 146 147 149 146
146 148 145 93 95 92 46 49 46 41 43 41 45 46 48 44 46 47 42 44 45
41 42 44 42 44 45 42 44 45 41 43 44 42 44 45 44 46 47 44 46 46
44 46 45 48 50 50 53 55 54 38 40 39 40 42 41 41 43 43 44 46 46
44 46 46 41 43 43 41 43 44 39 41 42 42 44 45 50 52 53 45 47 48
39 40 42 37 39 40 41 43 44 43 45 46 42 44 45 42 43 45 42 43 45
42 43 45 42 43 45 42 44 45 42 43 45 43 45 46 44 45 47 42 44 45
41 43 44 42 44 45 43 44 46 42 44 45 43 45 46 42 44 45 41 43 44
40 42 43 41 42 44 42 44 45 42 43 45 42 43 45 42 43 45 42 44 45
42 43 45 42 43 45 42 43 45 42 43 45 42 43 45 42 43 45 41 43 44
38 40 42 38 39 41 40 42 43 41 42 44 40 42 43 40 41 43 41 42 44
41 42 44 42 44 45 42 44 45 41 42 44 39 41 42 40 41 43 40 42 43
41 42 44 41 43 44 41 42 44 39 40 42 40 42 43 43 45 46 45 47 48
41 42 44 41 42 44 41 42 44 41 42 44 42 43 45 42 43 45 42 43 45
43 44 46 43 44 46 43 45 47 43 44 46 43 44 46 42 43 45 42 43 45
40 42 43 39 41 40 39 41 40 39 42 41 41 44 43 42 45 44 41 44 43
43 45 44 43 45 44 42 44 43 42 44 43 43 45 44 43 45 44 42 44 43
41 43 42 39 41 40 38 40 39 37 39 38 38 41 40 40 42 42 45 46 49
42 43 47 40 41 45 40 41 45 40 41 45 39 40 44 39 41 44 40 41 45
40 42 45 42 44 46 42 43 45 42 43 45 41 43 44 41 42 44 41 42 44
41 43 45 42 43 45 41 43 44 41 42 44 40 41 43 40 41 43 40 42 44
41 43 43 40 42 42 40 42 40 46 49 46 42 44 41 35 38 35 48 50 47
106 109 106 158 160 158 163 166 163 145 148 145 87 90 87 42 44 41
39 41 39 43 46 43 47 50 48 44 46 47 40 42 44 41 43 44 41 43 44
40 42 43 40 42 43 40 42 43 42 44 45 45 47 48 45 47 47 41 43 42
45 47 46 41 43 42 48 50 49 43 45 45 40 42 42 39 41 41 39 41 40
38 40 40 38 39 41 37 39 40 41 42 44 44 45 47 55 57 58 66 68 70
51 53 54 41 43 44 41 42 44 41 42 44 42 43 45 42 43 45 42 43 45
42 43 45 42 44 45 42 43 45 43 45 46 44 45 47 42 44 45 41 42 44
43 44 46 43 44 46 41 43 44 40 42 43 40 42 43 40 41 43 40 42 43
42 43 45 41 43 45 42 44 45 44 45 47 42 44 45 41 43 44 43 45 46
43 44 46 41 43 44 40 42 43 40 42 43 41 43 44 41 43 45 39 41 42
39 40 42 40 42 43 40 42 43 40 41 43 40 42 43 41 43 44 41 43 44
42 43 45 42 43 45 41 42 44 41 42 44 40 42 43 41 42 44 41 42 44
41 42 44 41 42 44 41 43 44 43 44 46 43 45 46 42 44 45 42 43 45
41 42 44 42 43 45 42 43 45 42 43 45 41 43 45 42 43 45 43 44 46
43 44 46 43 45 47 43 44 46 43 45 47 43 44 46 42 43 45 41 42 43
40 42 41 40 42 41 40 43 42 42 45 44 43 45 44 42 44 43 42 44 43
42 44 43 42 44 43 42 44 43 42 45 44 43 45 44 43 45 44 42 44 43
39 41 40 37 39 38 40 42 42 42 44 44 38 40 40 42 44 46 45 47 50
46 47 50 41 42 46 37 39 42 39 40 43 39 41 44 41 42 46 42 43 46
42 43 46 42 43 45 41 43 44 41 42 44 40 41 43 40 42 44 41 43 45
42 43 45 42 43 45 41 43 44 41 42 44 41 43 44 41 42 44 41 42 43
40 43 42 41 43 41 39 41 38 50 52 49 99 101 98 135 138 135 148 150 147
117 119 117 83 85 83 60 62 60 47 49 47 43 45 43 40 42 40 42 44 42
44 47 45 46 47 49 42 44 46 39 41 43 39 41 43 41 42 44 42 43 45
42 43 45 42 43 45 42 43 45 43 45 45 51 53 53 46 48 47 43 45 44
42 45 44 42 44 43 38 41 40 38 40 39 39 41 41 40 42 41 40 42 43
40 42 43 39 41 42 39 41 42 39 41 43 49 51 53 51 52 54 41 43 44
43 44 46 43 44 46 42 43 45 42 43 45 42 43 45 42 43 45 42 44 45
42 43 45 43 45 46 44 45 47 43 44 46 42 43 45 42 43 45 41 42 44
40 41 43 40 41 43 40 41 43 39 41 42 40 42 43 42 43 45 42 43 45
42 44 45 43 44 46 42 44 45 42 43 45 42 43 45 42 43 45 41 42 44
40 41 43 40 42 43 41 43 44 42 44 45 40 42 43 40 41 43 40 42 43
40 41 43 40 41 43 40 42 43 42 43 45 42 43 45 41 42 44 41 42 44
42 43 45 42 43 45 41 42 44 41 42 44 41 42 44 40 41 43 40 41 43
40 42 43 42 44 45 43 45 46 43 44 46 42 43 45 41 43 45 43 44 46
43 44 46 41 43 44 41 43 45 42 43 45 43 44 46 43 44 46 43 45 47
44 45 47 44 45 47 44 45 47 42 43 45 41 43 44 41 43 43 41 43 42
41 43 42 42 45 44 43 45 44 42 44 43 42 44 43 42 44 43 42 44 43
42 44 43 42 44 43 43 45 44 43 45 44 42 44 43 41 43 42 42 44 43
41 43 42 41 43 42 44 46 45 41 43 44 43 45 47 45 46 48 41 43 45
38 40 42 38 40 42 39 41 43 41 43 45 42 44 46 41 43 44 41 42 44
41 42 44 40 42 43 40 41 43 40 41 43 40 42 44 42 43 45 42 43 45
42 43 45 42 43 45 42 44 44 41 43 43 38 40 40 36 38 36 43 46 43
65 67 64 106 109 104 151 153 149 145 147 145 85 87 86 46 48 47
44 46 45 47 49 48 41 43 42 45 48 46 44 46 45 41 43 42 41 43 43
45 47 48 52 54 55 46 48 49 40 42 43 41 42 44 41 42 44 42 43 45
42 43 45 41 43 44 44 46 46 53 55 54 44 46 45 43 46 45 46 48 47
44 46 46 41 43 43 41 43 42 40 42 42 39 41 41 42 44 45 49 51 52
45 47 48 39 41 42 41 43 44 40 42 43 49 50 52 43 44 46 40 41 43
42 44 45 42 43 45 42 43 45 42 43 45 42 43 45 42 44 45 42 43 45
43 45 46 44 45 47 43 45 46 43 45 46 39 41 42 39 40 42 39 41 42
40 42 43 40 41 43 39 40 42 39 41 42 41 42 44 42 44 45 42 43 45
42 43 45 42 43 45 42 44 45 41 42 44 41 42 44 41 42 44 41 42 44
41 42 44 41 43 44 42 44 45 40 42 43 40 42 43 40 42 44 39 41 42
39 41 42 40 42 43 42 44 45 42 44 45 40 42 43 40 42 43 42 44 45
43 45 46 42 43 45 41 42 44 41 42 44 40 41 43 40 42 43 42 43 45
41 42 44 42 43 45 43 45 46 41 42 44 41 43 45 43 45 47 45 46 48
43 44 46 41 42 44 41 42 44 41 43 45 43 44 46 43 45 47 41 43 44
42 43 45 42 43 45 42 44 46 43 44 45 42 44 43 42 44 43 42 44 43
42 44 43 41 44 43 40 42 41 40 42 41 41 43 42 41 43 42 41 44 43
43 45 45 46 48 48 47 49 48 45 47 46 40 42 42 40 42 41 40 42 41
41 43 42 42 44 43 41 43 44 41 43 44 45 47 48 42 44 46 39 41 43
42 44 45 42 43 45 42 43 45 42 43 45 41 43 44 41 42 44 41 42 44
41 42 44 41 42 44 41 42 44 41 42 44 42 43 45 43 45 47 44 45 47
46 48 48 46 49 48 45 47 46 34 37 35 47 49 47 89 92 88 125 128 123
141 144 139 106 108 104 53 55 53 42 44 43 42 44 44 45 47 46 41 43 42
41 43 42 40 42 41 40 42 41 40 42 41 39 41 41 39 41 43 47 49 50
54 55 57 51 52 54 47 48 50 41 43 45 39 41 42 39 41 42 45 47 48
63 65 65 44 46 46 40 42 41 44 47 46 43 45 44 51 53 53 47 49 48
41 43 43 42 44 43 42 44 44 40 41 43 42 43 45 42 43 45 40 42 43
41 42 44 40 42 43 41 42 44 41 43 44 42 44 45 43 45 46 41 43 44
41 43 44 43 45 46 46 48 49 43 44 46 42 43 45 42 43 45 42 43 45
42 44 45 42 44 45 40 42 43 40 41 43 40 41 43 38 40 41 38 40 41
39 41 42 40 42 43 41 43 44 41 43 44 40 41 43 40 41 43 41 43 44
42 43 45 42 43 45 42 43 45 42 43 45 42 43 45 42 43 45 42 43 45
42 43 45 41 42 44 41 42 44 40 42 43 41 43 44 42 44 45 41 43 44
41 43 44 41 43 44 41 42 44 41 42 44 40 42 43 41 42 44 42 44 46
38 40 41 41 43 44 42 44 45 40 42 43 42 44 45 38 40 42 38 39 41
40 41 43 42 43 45 43 45 47 43 44 46 43 44 46 42 43 45 41 42 44
41 42 44 41 43 45 42 44 46 43 44 46 42 43 45 42 43 45 42 43 45
43 44 46 43 44 45 44 46 45 44 46 45 43 45 44 42 44 43 42 44 43
41 43 42 41 43 42 41 43 42 42 44 43 42 44 43 43 45 45 46 48 47
46 48 47 45 47 46 40 42 42 40 43 42 41 43 42 41 43 42 42 44 43
41 44 44 41 43 43 44 46 46 43 45 45 39 41 42 41 42 43 40 42 42
40 42 42 41 42 43 41 43 43 41 42 44 41 42 44 41 42 44 41 42 44
40 42 43 40 42 44 41 42 44 41 42 44 41 42 44 43 45 44 45 47 45
42 44 43 83 85 83 143 145 142 149 151 147 132 134 129 76 79 74
41 44 39 42 44 43 40 42 42 41 43 43 44 45 45 39 41 41 40 42 43
40 42 42 40 41 42 39 41 42 39 41 41 40 42 43 41 43 44 44 46 47
46 48 49 47 49 50 45 47 49 43 44 46 42 44 45 48 50 51 59 61 61
45 47 47 44 46 45 44 46 46 44 46 45 45 47 47 42 44 44 40 42 41
41 43 43 43 45 45 42 43 45 41 43 44 41 42 44 40 41 43 39 41 42
39 40 42 40 41 43 40 42 43 41 42 44 41 42 44 41 42 44 41 43 44
42 44 45 44 45 47 42 43 45 42 43 45 42 43 45 42 43 45 42 43 45
42 44 45 41 43 44 40 41 43 40 41 43 40 41 43 40 41 43 40 41 43
40 41 43 40 41 43 40 42 43 40 41 43 40 41 43 40 42 43 42 43 45
42 43 45 42 43 45 42 43 45 42 43 45 42 43 45 42 43 45 42 43 45
42 43 45 42 43 45 40 42 44 41 43 44 43 44 46 41 43 44 41 43 44
40 42 44 40 41 43 41 42 44 41 43 44 41 43 44 40 42 43 41 43 44
38 40 42 40 42 43 43 45 46 41 43 44 39 41 42 38 40 41 39 41 42
43 44 46 44 45 47 42 43 45 41 42 44 41 42 44 41 42 44 41 42 44
41 42 44 42 43 45 42 43 45 42 43 45 42 43 45 43 44 46 43 44 46
43 45 46 46 48 47 45 47 46 44 46 45 42 44 43 42 44 43 41 43 42
42 44 43 42 44 43 42 44 43 42 44 43 43 45 44 44 47 46 45 47 46
44 46 45 41 43 42 41 43 42 41 43 42 41 44 43 42 44 43 42 44 43
42 44 43 44 46 46 44 46 45 42 44 43 41 43 42 40 42 41 40 43 42
41 44 43 40 42 43 40 41 43 40 41 43 40 41 43 40 41 43 38 40 42
39 41 43 41 42 44 42 43 45 42 43 44 34 36 35 51 53 51 109 111 108
119 122 119 127 130 126 175 178 173 81 84 78 38 41 34 44 47 41
40 42 40 38 40 41 38 40 42 40 41 43 38 40 41 40 42 43 40 42 43
40 41 43 39 41 42 39 40 42 40 42 43 39 40 42 39 41 42 41 43 45
42 44 45 42 44 45 40 42 43 40 42 43 44 46 48 49 51 51 46 48 48
47 49 48 44 47 46 45 47 46 42 44 43 41 43 43 42 44 43 42 44 43
42 44 44 43 44 46 42 43 45 41 43 44 40 41 43 39 40 42 39 41 42
41 43 44 43 44 46 41 43 44 40 42 43 41 42 44 42 43 45 42 43 45
41 42 44 41 43 44 42 43 45 42 43 45 42 43 45 42 43 45 43 44 46
41 43 44 40 42 43 40 41 43 40 42 43 40 41 43 40 41 43 40 41 43
40 41 43 40 42 43 40 41 43 40 41 43 40 42 43 42 43 45 42 43 45
42 43 45 42 43 45 42 43 45 41 43 44 41 42 44 41 42 44 42 43 45
42 43 45 40 42 44 41 43 44 43 44 46 41 43 44 41 43 44 40 42 43
40 41 43 41 43 44 42 44 45 43 44 46 41 42 44 41 43 44 39 40 42
42 44 46 45 47 48 40 42 43 39 41 42 39 40 42 40 41 43 42 43 45
43 44 46 42 43 45 42 43 45 41 42 44 40 42 44 41 42 44 41 42 44
41 42 44 41 42 44 42 44 46 43 44 46 43 44 46 44 45 47 44 45 46
44 46 45 44 46 45 43 45 44 42 44 43 42 44 43 43 45 44 43 45 44
43 45 44 44 46 45 43 45 44 43 45 44 43 45 44 43 45 44 43 45 44
41 43 42 41 44 43 42 44 43 42 44 43 43 45 44 42 44 43 42 45 44
43 46 45 44 47 46 45 47 46 44 46 45 42 44 43 42 44 43 42 44 43
40 42 43 40 41 43 40 41 43 40 41 43 40 41 43 40 42 44 39 41 42
38 39 41 38 40 42 40 41 42 55 57 54 78 80 78 70 72 69 31 33 29
69 72 67 141 143 138 101 104 97 49 52 45 37 40 33 40 42 40 38 40 41
38 39 41 38 39 41 39 40 42 40 42 43 40 42 43 40 41 43 39 41 42
39 40 42 39 41 42 43 44 46 42 44 45 40 42 43 40 42 43 41 43 44
40 42 44 41 42 44 43 45 46 41 43 44 42 44 43 42 44 43 40 42 41
41 43 43 44 46 45 43 45 44 43 45 44 43 45 44 43 45 44 43 44 46
42 44 45 42 43 45 41 42 44 41 42 44 41 43 44 42 44 45 44 45 47
44 45 47 43 45 46 43 44 46 41 43 44 41 42 44 41 42 44 41 42 44
41 42 44 41 42 44 41 42 44 42 43 45 43 45 46 42 44 45 41 42 44
41 42 44 40 42 43 40 41 43 40 41 43 40 41 43 40 41 43 40 42 43
40 41 43 40 41 43 40 42 43 42 43 45 42 43 45 42 43 45 42 43 45
42 43 45 41 42 44 40 41 43 41 42 44 42 43 45 42 44 45 41 43 44
41 43 44 43 44 46 41 43 44 41 43 44 41 43 44 41 42 44 42 43 45
43 44 46 43 44 46 41 43 45 39 41 42 45 47 48 47 49 50 41 43 44
39 40 42 40 41 43 40 41 43 40 42 43 41 42 44 40 41 43 42 44 46
43 44 46 41 42 44 40 42 43 41 42 43 41 42 43 41 42 43 40 41 42
42 44 45 43 44 45 43 45 46 44 45 46 44 46 47 42 44 44 42 44 43
42 44 43 42 44 43 42 44 43 43 45 44 43 46 45 44 46 45 44 47 46
43 45 44 43 45 44 41 43 42 41 43 42 42 44 43 42 44 43 42 44 43
42 44 43 43 45 44 43 45 44 42 44 44 43 45 44 43 45 44 44 47 46
45 47 47 43 45 45 41 43 43 40 42 41 39 41 40 38 40 41 39 40 41
39 40 41 39 40 41 39 40 41 39 41 42 39 40 41 42 43 45 48 50 51
54 56 56 56 58 57 45 47 45 47 49 47 54 56 53 68 70 66 50 52 48
42 45 40 41 43 38 40 43 38 39 42 40 40 41 42 38 40 41 37 39 40
40 42 43 41 42 43 40 42 43 40 41 42 39 41 42 39 40 41 40 42 43
41 43 44 40 41 43 41 43 44 40 42 43 41 43 44 40 42 44 41 43 44
43 45 46 42 44 45 41 43 42 38 40 40 40 42 42 42 44 43 42 44 43
41 43 42 41 43 42 43 45 45 43 45 45 42 43 45 42 43 45 42 43 45
43 44 46 42 43 45 41 42 44 40 42 43 41 43 44 43 45 46 46 48 49
44 46 47 41 43 44 41 43 44 42 44 45 41 42 44 41 42 44 41 42 44
41 42 44 42 43 45 44 45 47 42 44 45 41 42 44 41 42 44 40 41 43
38 40 41 39 41 42 40 42 43 41 43 44 41 42 44 40 41 43 40 41 43
40 42 43 42 43 45 42 43 45 42 43 45 42 43 45 42 43 45 41 42 44
40 41 43 40 42 43 42 43 45 43 44 46 41 43 44 41 43 44 43 44 46
41 43 44 41 43 44 42 44 45 43 44 46 42 43 45 42 43 45 42 43 45
40 41 43 43 44 46 49 51 52 46 48 49 39 40 42 38 40 41 40 41 43
41 42 44 41 42 44 37 38 40 38 40 42 40 41 43 40 41 43 40 42 44
41 43 43 41 43 42 41 43 42 41 43 42 40 42 41 41 43 43 43 45 44
43 45 44 44 47 46 45 48 47 43 46 45 44 47 46 45 47 46 43 45 44
43 45 44 45 47 46 44 46 45 43 45 44 44 46 45 45 47 46 42 44 43
41 43 42 42 44 43 40 42 41 39 41 41 40 42 41 41 44 43 42 45 44
43 45 44 42 43 44 42 43 44 42 43 44 42 44 46 46 47 48 46 48 49
40 42 43 40 42 43 40 42 43 39 41 41 40 42 41 39 41 41 38 40 39
40 42 42 40 42 41 43 46 45 55 57 56 56 58 58 46 48 48 48 50 50
55 57 57 55 57 59 49 50 51 41 43 44 43 45 45 42 44 45 41 43 43
41 43 43 39 41 40 39 41 41 40 42 41 40 42 42 40 42 41 40 42 42
40 42 42 40 42 41 40 42 42 41 43 43 41 43 44 42 44 45 41 43 44
39 41 42 40 42 43 43 45 46 44 46 47 40 41 43 42 44 45 45 46 47
40 42 43 42 44 45 43 45 46 45 47 47 40 42 43 40 42 43 41 43 44
42 44 45 43 44 45 40 42 43 41 43 45 44 46 47 41 42 44 44 46 48
41 43 45 43 45 47 42 44 45 40 42 43 44 46 45 43 46 44 42 44 42
41 43 42 41 43 43 42 44 44 40 42 43 40 41 43 41 43 44 42 44 45
41 43 44 43 45 46 42 44 45 39 41 42 38 39 41 38 39 41 38 39 41
39 41 42 41 43 44 41 43 44 40 42 43 40 42 43 41 43 44 39 41 43
41 42 44 40 42 43 40 41 43 39 41 42 39 40 42 39 40 42 40 41 43
40 41 43 40 42 43 40 42 43 41 43 44 43 45 46 43 45 46 42 43 45
42 44 45 40 42 43 42 44 45 42 44 45 39 41 42 41 43 44 50 52 53
51 53 54 39 41 43 41 43 44 40 42 43 39 41 42 38 40 41 39 41 42
40 41 43 39 41 43 40 41 43 40 41 43 39 41 43 41 43 43 41 43 42
41 43 42 41 43 42 41 43 42 42 45 44 43 45 44 44 46 45 45 47 46
45 47 46 42 44 43 42 45 44 44 47 46 45 47 46 45 47 46 44 46 45
44 47 46 45 48 47 47 50 49 48 50 49 43 45 44 40 42 41 41 44 43
41 43 42 40 42 41 40 43 42 41 44 43 42 44 43 43 45 44 42 43 45
41 43 44 40 42 43 41 42 44 41 42 44 42 44 46 43 44 46 41 43 44
41 43 45 38 40 41 38 41 40 38 40 39 38 41 40 42 44 43 48 50 49
46 48 47 50 52 51 50 53 52 44 46 46 49 51 52 45 47 48 42 43 45
39 41 42 41 42 44 45 47 48 43 45 46 43 45 46 44 46 48 41 43 43
40 42 42 41 43 42 41 43 42 40 42 41 41 43 43 41 43 42 40 42 41
41 43 42 42 44 44 45 46 48 42 44 46 38 40 42 41 43 44 43 44 46
41 43 44 42 44 45 42 44 45 46 48 49 45 47 49 45 47 48 50 52 53
48 50 52 45 46 48 39 40 42 40 42 43 42 43 45 41 43 44 41 42 44
42 44 46 42 44 45 39 40 42 43 44 46 66 68 69 64 66 68 41 43 44
62 64 65 69 71 72 49 52 51 46 49 46 46 48 46 44 46 44 42 44 43
40 42 41 40 42 42 40 41 43 40 41 43 40 41 43 41 43 44 43 44 46
42 43 45 40 42 43 39 40 42 38 40 41 38 40 41 39 41 42 41 43 44
40 42 44 39 41 42 40 42 43 42 43 45 41 43 44 41 42 44 40 42 43
40 41 43 39 41 42 39 40 42 39 40 42 40 41 43 40 41 43 40 42 43
41 43 44 41 43 44 41 42 44 42 43 45 43 44 46 44 46 47 41 43 44
40 42 43 41 42 44 40 42 43 41 43 44 50 52 54 43 45 46 38 39 41
38 40 42 38 40 41 39 41 42 39 41 42 39 40 42 39 40 42 39 41 43
41 42 44 39 41 42 39 41 43 41 43 43 41 43 42 41 43 42 42 44 43
42 44 43 44 46 45 44 46 45 45 47 46 45 47 46 45 47 46 45 47 46
45 47 46 44 46 45 44 46 45 44 46 45 44 46 45 45 47 46 47 49 49
50 52 52 48 50 50 41 43 43 37 39 38 39 41 41 39 41 40 40 42 42
41 43 42 41 44 43 42 44 43 42 44 43 42 43 45 41 43 44 40 41 43
40 41 43 40 41 43 42 44 45 45 47 48 41 43 44 40 42 43 40 42 42
44 46 45 46 48 47 45 47 46 44 47 46 43 45 44 39 41 40 39 41 41
42 44 44 42 44 43 42 44 45 39 41 42 38 40 41 39 40 42 39 41 43
39 41 43 40 42 44 42 44 46 46 48 49 44 46 46 42 44 43 41 43 42
41 43 42 41 43 43 42 44 43 41 43 42 41 43 42 41 43 43 42 43 43
41 43 44 41 43 44 40 42 44 41 43 44 38 40 41 41 42 44 42 43 45
41 43 44 45 47 48 44 45 47 40 42 44 44 46 47 42 44 46 41 42 44
39 41 42 40 42 43 42 43 45 41 43 44 42 44 45 55 57 59 51 53 54
41 43 45 45 46 48 45 46 48 42 43 45 56 58 60 73 75 77 55 57 58
49 51 50 51 54 51 50 53 50 46 48 46 40 42 42 40 42 41 40 42 43
40 42 43 39 40 42 39 41 42 42 43 45 42 43 45 41 43 44 41 42 44
40 42 43 40 41 43 39 41 42 40 41 43 41 42 44 40 42 43 39 40 42
40 42 43 42 44 45 42 44 45 41 42 44 40 42 43 40 41 43 39 41 42
39 40 42 39 40 42 40 41 43 40 41 43 40 42 43 41 43 44 41 42 44
40 41 43 40 42 43 42 44 45 41 43 44 41 43 44 42 43 45 41 43 44
41 43 44 49 50 52 44 45 47 37 39 41 43 44 46 40 42 44 40 42 43
43 44 46 43 44 46 42 44 45 40 42 44 40 42 44 41 42 44 39 41 42
39 40 42 40 42 42 41 43 42 42 44 43 43 45 44 43 45 44 45 47 46
45 47 46 45 47 46 45 47 46 45 47 46 46 49 48 45 47 46 44 46 45
44 46 45 45 47 46 45 47 46 45 48 47 46 49 48 47 50 49 48 51 50
44 46 45 42 44 43 43 46 45 42 44 43 41 44 43 42 44 43 42 44 43
42 44 43 42 44 43 42 44 44 41 43 43 40 42 42 41 43 43 41 43 43
42 44 44 43 44 45 43 45 45 42 43 44 44 46 46 45 48 47 44 46 45
41 44 43 43 45 44 43 45 44 40 42 42 39 41 40 39 41 40 38 40 40
39 40 42 39 41 42 40 41 43 40 42 44 41 43 44 41 43 44 42 44 45
40 42 43 39 41 43 44 46 46 43 45 44 41 43 42 41 43 42 42 44 44
43 45 44 42 44 43 41 43 42 42 44 43 42 43 43 47 49 51 58 59 61
43 45 46 39 41 42 40 42 43 44 46 48 47 49 50 42 43 45 43 45 47
46 48 49 41 43 44 42 44 45 42 44 45 42 44 45 43 44 46 41 43 44
41 42 44 41 43 44 42 43 45 41 43 45 44 45 47 43 45 46 44 46 47
44 46 48 44 45 47 46 48 49 42 43 45 48 50 51 52 54 53 52 54 51
51 54 51 47 50 48 43 45 45 42 44 44 41 43 43 40 41 43 40 41 43
40 42 43 42 43 45 41 42 44 41 42 44 41 43 44 41 43 44 41 42 44
40 41 43 40 41 43 41 42 44 40 42 43 39 41 42 40 42 43 42 43 45
41 43 44 41 42 44 40 42 43 40 41 43 39 41 42 39 40 42 39 40 42
40 41 43 40 41 43 40 42 43 41 42 44 40 42 43 40 42 43 41 42 44
41 43 44 39 41 42 41 43 44 41 43 44 42 43 45 45 47 48 53 55 56
41 42 44 37 39 40 40 41 43 39 41 42 43 44 46 43 45 46 44 46 47
45 46 48 43 45 47 40 42 44 41 42 44 39 40 42 38 40 42 40 42 42
41 43 42 42 44 43 43 45 44 44 46 45 45 48 47 46 48 47 45 47 46
45 47 46 45 47 46 45 47 46 44 46 45 44 46 45 45 48 47 47 49 48
47 49 48 45 47 46 45 47 46 45 47 46 46 49 48 44 46 45 42 44 43
44 46 45 41 43 42 41 43 43 42 44 43 41 43 42 41 43 42 41 43 42
41 44 43 42 44 43 42 44 43 43 45 44 43 45 44 40 42 41 40 42 42
44 46 45 44 46 45 42 44 43 39 41 40 37 39 39 43 45 45 54 56 56
39 41 41 37 40 39 40 42 42 41 43 42 41 43 42 40 42 43 39 41 42
39 40 42 40 42 44 41 42 44 39 41 42 44 45 47 42 43 45 40 41 43
47 49 49 44 46 46 42 44 43 41 43 42 42 44 44 43 45 44 42 44 43
42 44 43 42 44 43 42 44 44 43 45 46 45 47 49 47 49 50 47 49 50
39 41 42 50 52 53 54 56 57 42 44 45 43 45 46 46 48 49 43 44 46
46 47 49 43 45 46 41 43 44 46 48 49 42 44 46 41 42 44 42 44 45
45 47 48 46 48 49 50 52 54 53 55 56 43 45 46 42 44 45 45 47 49
42 44 45 45 46 48 50 52 53 47 50 48 48 51 48 50 53 50 50 52 50
49 51 50 45 47 47 41 43 44 39 41 42 40 42 43 41 43 44 41 43 44
41 42 44 41 42 44 42 43 45 42 44 45 41 43 44 40 42 43 40 41 43
41 42 44 41 43 44 40 42 43 40 42 43 41 43 44 39 41 43 41 42 44
40 42 43 40 41 43 39 41 42 39 40 42 39 40 42 40 41 43 40 41 43
40 42 43 39 41 43 40 42 43 41 43 44 42 43 45 40 42 43 40 42 43
39 41 42 37 39 40 41 43 45 49 50 52 41 43 44 38 40 42 41 42 44
37 39 40 42 43 45 42 44 45 42 43 45 42 44 45 44 46 47 41 42 44
41 42 44 40 41 43 39 40 42 39 40 42 40 42 42 41 43 42 42 45 44
45 47 46 45 47 46 44 46 45 44 46 45 45 47 46 45 47 46 45 47 46
45 47 46 42 44 43 43 45 45 44 46 45 44 46 45 46 48 47 46 48 47
46 48 47 46 48 47 44 46 45 44 46 45 43 45 44 42 44 43 42 44 43
40 42 41 41 43 42 42 44 43 42 44 43 42 44 43 40 42 41 42 45 44
44 46 45 41 43 43 42 44 43 44 47 45 37 39 38 42 45 43 48 50 49
45 47 46 44 47 46 48 50 49 44 46 45 42 44 43 39 41 40 39 41 40
39 41 40 39 42 41 40 42 41 39 41 43 40 41 43 40 42 44 41 42 44
40 42 43 38 40 41 43 45 47 46 48 49 45 47 48 52 54 54 48 50 49
48 50 49 51 53 53 46 48 48 41 43 43 42 44 44 40 42 42 40 42 41
41 43 44 39 41 42 43 45 46 46 48 50 49 51 53 43 45 46 46 48 49
46 48 49 42 43 45 43 45 46 45 47 48 43 45 46 45 47 49 43 45 46
42 44 45 46 48 49 43 45 46 41 43 44 43 44 46 43 44 46 41 43 45
50 52 53 53 54 56 43 45 46 44 46 47 45 47 48 46 48 49 46 48 49
45 47 48 44 46 45 47 49 46 49 52 49 49 51 49 46 48 47 44 46 45
40 42 43 39 40 42 39 41 42 40 41 43 40 41 43 40 42 43 41 42 44
41 42 44 41 43 44 41 42 44 40 41 43 40 41 43 41 43 44 41 43 44
41 42 44 42 44 45 42 44 46 39 41 43 40 41 43 41 42 44 41 42 44
39 41 42 39 41 42 40 41 43 40 41 43 40 41 43 40 41 43 40 42 43
41 42 44 41 42 44 41 42 44 41 42 44 41 42 44 40 42 43 41 43 44
44 46 47 46 48 49 40 41 43 40 42 43 41 42 44 41 42 44 41 43 44
42 44 45 42 44 45 41 42 44 42 44 45 40 41 43 40 42 44 39 40 42
39 40 42 39 40 42 40 42 42 41 43 42 42 44 43 44 47 46 44 46 45
44 46 45 44 46 45 44 46 45 44 46 45 44 46 45 44 46 45 42 44 43
43 45 44 44 46 45 44 46 45 46 48 47 46 48 47 46 48 47 46 48 47
44 46 45 44 46 45 43 45 44 42 44 43 42 44 43 40 43 42 41 44 43
42 45 44 42 44 43 42 44 43 42 44 41 39 42 39 43 46 43 44 46 44
42 44 42 42 45 42 49 52 49 51 54 51 52 55 52 56 59 57 51 53 52
51 53 53 48 50 50 40 42 42 39 41 40 39 41 40 39 41 40 39 42 41
40 42 41 39 40 42 39 40 42 39 41 43 40 41 43 39 40 42 38 40 41
42 44 45 43 45 46 43 45 46 48 50 50 46 48 47 43 45 44 42 44 43
44 46 46 41 43 42 41 43 43 41 43 42 40 42 41 41 43 42 41 43 44
44 45 47 58 60 61 44 46 48 42 44 45 42 44 45 43 45 46 41 43 44
42 44 45 41 43 45 43 45 46 42 43 45 43 44 46 40 42 44 40 41 43
43 45 47 43 45 47 41 42 44 42 43 45 40 42 43 41 43 44 42 44 46
41 42 44 43 45 46 43 44 46 45 47 48 46 47 49 44 46 47 45 47 45
45 48 45 46 48 45 46 48 46 46 48 47 43 45 45 41 43 44 39 41 42
39 41 42 40 41 43 40 41 43 40 41 43 40 42 43 41 42 44 41 42 44
40 42 43 40 41 43 40 41 43 41 42 44 42 44 45 41 43 44 42 43 45
41 43 45 39 41 42 39 40 42 39 41 42 41 42 44 41 42 44 40 41 43
40 41 43 40 41 43 40 41 43 40 41 43 40 42 43 41 42 44 41 42 44
41 42 44 41 42 44 41 42 44 41 43 44 42 44 45 42 44 45 42 43 45
40 41 43 40 41 43 40 42 43 41 42 44 40 42 44 41 43 44 43 44 46
41 43 45 41 43 44 38 39 41 39 40 42 38 39 41 38 39 41 39 41 43
40 42 42 40 42 41 41 44 43 44 47 46 43 45 44 44 47 46 44 46 45
43 45 44 43 45 44 43 45 44 43 46 45 44 46 45 43 45 44 43 45 45
44 47 46 45 47 46 45 47 46 45 47 46 45 47 46 44 46 45 44 46 45
43 45 44 42 44 43 42 44 43 41 43 42 42 44 43 43 45 44 43 45 44
42 44 43 40 42 40 46 48 45 45 47 45 38 41 38 42 44 42 59 62 59
65 68 65 61 64 61 60 62 60 51 53 51 43 45 44 46 48 47 46 48 48
41 43 42 39 41 40 39 41 40 39 41 40 39 42 41 40 42 41 39 40 42
39 40 42 39 40 42 39 40 42 40 42 43 41 43 44 42 44 45 40 41 43
42 44 45 48 50 50 46 48 47 43 45 44 42 45 44 41 43 42 41 43 42
41 43 42 41 43 43 42 44 44 42 44 44 43 45 47 49 51 52 65 67 69
46 47 49 42 44 45 40 42 43 41 42 44 41 42 44 41 42 44 41 43 44
41 43 44 40 41 43 41 43 44 42 44 45 42 44 45 44 46 47 40 42 44
38 39 41 39 41 42 39 41 42 41 43 44 41 43 44 40 42 43 40 42 44
41 43 44 43 45 46 45 46 48 44 46 47 46 48 47 46 48 46 45 47 44
45 48 45 46 48 48 44 46 45 43 45 45 41 43 44 40 41 43 40 41 43
39 40 42 39 41 42 40 41 43 40 41 43 40 42 43 40 41 43 40 42 43
41 42 44 41 42 44 42 44 46 41 43 45 41 42 44 41 42 44 39 41 42
38 40 41 39 41 42 40 42 43 41 42 44 40 41 43 40 41 43 40 41 43
40 41 43 40 41 43 40 42 43 41 42 44 41 42 44 41 42 44 41 42 44
41 42 44 41 43 44 43 44 46 40 42 44 39 41 42 39 40 42 39 40 42
40 41 43 40 41 43 39 41 42 40 42 43 43 45 46 41 43 45 40 42 43
37 38 40 38 39 41 38 39 41 38 39 41 39 41 43 40 42 42 39 41 40
41 43 42 43 46 45 43 45 44 44 46 46 44 46 45 43 45 44 42 44 43
41 43 42 43 46 45 44 47 46 42 44 43 43 45 44 45 47 47 45 47 46
45 47 46 45 47 46 45 47 46 44 46 45 44 46 45 43 45 44 42 44 43
42 44 43 42 44 43 42 45 44 44 46 45 44 46 45 43 45 44 45 48 45
39 42 39 48 50 48 77 80 77 87 90 87 105 107 104 108 110 108 61 63 60
46 49 46 39 41 40 36 39 38 40 43 42 39 41 41 37 40 39 38 41 40
39 41 40 39 41 40 39 42 41 40 42 41 41 42 44 41 42 44 40 42 43
40 41 43 40 42 43 39 41 42 40 42 44 42 44 45 53 54 56 79 81 81
58 60 59 39 41 40 42 44 43 40 42 42 41 43 42 40 42 41 44 46 45
47 49 49 47 48 48 42 43 45 38 39 41 39 41 42 42 44 45 41 43 45
42 43 45 41 42 44 41 42 44 40 42 43 41 43 44 40 42 43 50 52 53
44 46 47 43 45 46 43 45 46 42 44 45 42 43 45 41 43 44 39 41 42
39 41 42 41 43 44 42 43 45 41 43 44 40 41 43 41 43 44 44 46 47
46 47 49 45 47 48 45 47 46 45 47 45 45 47 44 44 46 44 44 46 45
44 46 45 44 45 46 42 44 45 40 42 43 40 41 43 39 40 42 39 40 42
39 41 42 40 41 43 38 40 41 39 41 42 41 43 44 42 43 45 41 43 44
42 44 46 40 42 44 40 42 43 41 43 44 42 43 45 40 41 43 40 42 43
41 42 44 39 41 42 39 41 42 40 41 43 40 41 43 40 41 43 40 41 43
40 42 43 41 42 44 41 42 44 41 42 44 41 42 44 40 42 43 41 42 44
40 42 43 39 41 43 39 40 42 39 40 42 39 40 42 39 40 42 40 41 43
39 41 42 40 41 43 42 44 45 40 42 44 40 41 43 36 38 40 37 39 41
38 39 41 38 40 42 39 40 42 38 40 40 38 40 39 41 44 43 44 46 45
43 45 44 43 45 44 44 47 46 44 46 45 42 44 43 40 42 41 42 44 44
44 46 47 43 45 45 42 44 44 44 46 46 43 45 45 43 45 45 43 45 45
43 45 45 43 45 45 42 44 44 44 46 46 42 44 43 40 42 40 42 44 41
40 43 40 45 47 44 44 47 43 42 44 40 50 51 44 84 84 78 123 124 117
131 132 127 105 106 102 64 65 62 50 51 49 42 42 41 38 38 38 39 40 40
39 41 42 41 43 44 40 41 41 39 41 41 40 42 42 39 41 41 38 40 40
39 40 41 39 41 42 41 42 43 41 43 43 41 43 42 40 42 42 39 41 42
39 41 41 41 43 43 44 46 46 49 51 51 45 47 47 49 51 52 49 51 51
46 48 48 42 44 44 42 44 44 39 41 41 45 47 48 55 57 57 48 50 50
45 47 48 43 45 46 39 41 42 44 46 48 44 46 47 43 45 46 53 55 56
46 48 49 40 42 43 44 46 46 47 49 49 64 66 66 45 47 47 45 47 47
42 44 44 41 43 43 42 44 44 42 44 44 40 42 42 40 42 41 40 42 42
41 42 42 41 43 43 41 43 43 41 43 44 43 45 46 51 53 53 51 53 53
42 44 43 45 47 46 45 47 46 43 45 44 43 45 45 44 46 45 44 46 45
44 46 46 41 43 43 40 42 43 39 40 42 38 40 41 38 40 41 40 41 43
39 41 42 40 42 43 42 44 45 43 44 46 41 43 44 41 43 45 42 44 45
41 43 44 40 42 43 41 43 44 41 42 44 41 42 44 41 42 44 40 42 43
40 42 43 40 42 43 39 41 42 39 40 42 39 40 42 40 42 43 41 42 44
41 42 44 41 42 44 41 42 44 41 42 44 41 42 44 41 42 44 41 42 44
40 42 43 39 41 42 39 41 42 39 40 42 39 40 42 39 41 42 40 42 43
41 42 44 40 42 43 39 41 42 37 38 40 37 39 41 38 40 42 39 40 42
39 40 42 38 40 40 40 42 41 42 44 43 43 45 44 43 45 44 42 44 43
44 46 45 44 46 45 42 44 43 41 43 42 42 43 45 44 46 48 43 45 46
42 43 45 42 44 46 43 44 46 42 43 45 42 44 46 43 45 47 47 48 50
43 45 46 43 46 45 42 45 44 43 46 44 43 45 41 42 44 40 42 45 39
48 50 44 67 70 62 103 102 93 146 145 135 126 126 117 79 78 72
44 43 39 44 43 41 41 39 38 41 39 40 41 39 41 39 39 40 38 40 42
41 42 44 43 45 47 44 45 47 43 45 46 41 43 44 40 42 43 38 40 41
38 39 41 40 43 42 41 43 42 41 43 42 40 42 41 40 42 41 41 43 43
43 45 44 41 43 42 43 45 45 42 44 45 45 47 49 43 45 46 44 46 47
43 45 46 42 44 45 39 41 42 44 46 47 55 57 58 46 48 50 42 44 45
40 42 43 40 41 43 42 44 45 42 44 46 46 48 50 68 70 71 52 54 55
43 44 46 42 44 44 45 47 46 57 59 59 44 47 46 42 45 44 42 44 43
41 43 42 41 43 42 41 43 43 42 44 43 41 43 42 41 43 42 41 43 42
41 43 42 40 42 41 44 46 45 41 44 43 69 71 71 93 95 95 44 46 46
45 47 46 46 48 47 45 47 46 46 48 48 40 42 41 42 44 43 46 48 47
41 43 42 40 42 42 40 42 43 40 41 43 40 41 43 40 42 43 41 42 44
42 43 45 43 44 46 43 44 46 41 43 44 40 42 43 43 45 46 42 44 45
40 42 43 40 42 43 41 42 44 41 42 44 41 42 44 41 42 44 41 43 44
41 43 44 40 41 43 39 41 42 39 40 42 40 42 43 41 42 44 41 42 44
41 42 44 41 42 44 41 43 44 42 43 45 42 43 45 42 43 45 42 43 45
40 41 43 39 41 42 39 40 42 39 40 42 39 41 42 40 42 43 41 42 44
40 41 43 39 41 42 36 37 39 37 38 40 38 39 41 38 40 42 38 39 41
39 40 41 40 42 41 41 43 42 42 44 43 43 45 44 44 46 45 42 44 43
43 45 44 44 46 45 43 45 44 44 46 47 44 45 47 42 43 45 41 42 44
41 43 45 41 42 44 41 43 45 42 44 46 45 47 49 45 47 48 44 46 46
48 50 50 44 46 45 42 44 42 44 47 44 42 45 41 67 70 66 98 100 95
118 120 114 96 96 88 76 75 68 59 58 53 44 43 40 49 47 46 42 40 40
43 41 43 42 39 42 43 41 44 45 44 46 43 45 46 41 43 44 40 41 43
41 42 44 41 42 44 42 43 45 42 44 45 40 42 43 38 40 41 40 43 42
41 43 42 42 44 43 41 43 42 40 42 41 41 43 43 41 43 42 42 44 43
45 47 47 45 47 47 47 49 50 43 45 47 39 41 42 41 43 44 40 42 43
42 43 45 41 43 44 46 47 49 42 44 46 40 41 43 39 40 42 39 41 43
41 43 45 45 47 48 50 51 53 48 49 51 36 37 39 43 45 46 44 46 46
50 52 51 49 51 50 48 51 50 40 42 41 42 44 43 41 43 42 41 43 42
41 43 43 42 44 43 42 44 43 41 43 42 41 43 42 41 43 42 43 45 44
42 44 43 43 46 45 39 41 41 42 44 43 43 45 44 44 46 45 44 46 45
44 46 45 44 46 46 43 45 45 44 46 45 46 48 47 42 44 43 42 44 43
42 43 45 41 42 44 40 42 43 41 42 44 41 42 44 42 43 45 42 43 45
42 43 45 41 43 44 39 41 43 40 42 43 42 43 45 42 43 45 43 44 46
41 42 44 41 42 44 41 42 44 41 42 44 41 42 44 41 42 44 40 41 43
40 41 43 40 42 43 41 42 44 41 42 44 41 42 44 41 42 44 41 42 44
41 43 44 42 43 45 42 43 45 42 43 45 42 43 45 40 41 43 39 41 42
39 40 42 39 40 42 39 41 42 40 42 43 41 42 44 41 42 44 40 42 43
36 37 39 36 37 39 37 39 41 38 39 41 38 39 41 37 39 39 39 41 40
40 43 42 43 45 44 45 47 46 44 46 45 41 43 42 42 45 44 44 46 45
42 44 43 43 45 46 43 44 46 44 45 47 42 44 45 40 41 43 40 42 44
41 43 45 43 45 47 45 47 49 46 48 48 43 45 45 44 46 45 43 45 45
52 54 53 56 58 56 65 67 65 76 78 74 65 68 63 52 54 49 49 48 44
47 46 43 54 53 51 47 45 45 42 40 41 42 40 41 40 38 41 40 38 42
41 39 43 41 41 44 39 41 42 38 40 41 38 40 42 39 41 43 37 39 41
39 41 42 41 43 44 42 43 45 42 43 45 40 43 42 41 43 42 42 45 44
43 45 44 42 44 43 41 43 42 37 39 38 45 47 46 44 46 46 42 44 45
43 45 46 44 46 47 41 43 44 41 43 44 40 42 43 41 43 45 40 42 43
41 42 44 41 43 44 41 42 44 41 42 44 41 42 44 41 42 44 42 43 45
44 46 47 44 46 48 44 46 48 49 51 52 40 42 42 49 52 51 45 47 47
45 47 46 44 46 45 42 44 44 41 43 42 41 43 42 41 43 43 42 44 43
41 43 42 41 43 43 42 44 43 43 45 44 42 44 43 38 40 40 44 47 46
40 42 41 46 48 47 42 44 43 43 45 45 44 46 46 43 45 45 39 41 40
44 46 46 56 59 58 63 65 65 49 51 50 40 42 42 42 43 45 40 42 43
39 41 42 39 40 42 40 42 44 41 42 44 40 42 43 40 42 43 41 43 44
40 41 43 39 41 42 42 44 45 43 45 46 42 44 45 41 42 44 41 42 44
41 42 44 41 42 44 41 42 44 41 42 44 40 42 43 40 42 43 41 43 44
41 43 45 41 42 44 41 42 44 41 42 44 41 42 44 41 43 44 42 43 45
42 43 45 42 43 45 42 43 45 40 41 43 39 41 42 39 40 42 39 40 42
39 41 42 40 41 43 41 43 44 42 43 45 41 43 44 38 39 41 36 37 39
37 38 40 38 39 41 37 38 40 37 39 39 39 41 40 42 44 43 44 46 45
43 45 44 44 46 46 42 44 43 43 46 45 45 47 46 38 40 40 41 43 44
42 44 46 46 48 50 44 45 47 39 41 42 41 42 44 41 43 45 42 44 46
45 47 49 48 50 50 48 50 49 50 53 52 58 60 59 76 78 77 61 63 62
46 48 47 41 44 42 39 42 39 43 45 42 43 43 42 45 45 45 41 41 41
42 41 42 40 39 42 39 38 41 40 39 44 44 43 49 41 40 45 37 38 41
37 38 40 38 40 42 39 40 42 38 39 41 38 40 41 38 39 41 38 40 42
40 42 44 41 43 44 40 43 42 41 44 43 43 45 44 43 45 44 42 44 43
41 44 43 36 39 38 47 49 49 57 59 59 57 59 60 46 48 49 42 44 45
42 44 45 42 44 45 40 42 43 40 41 43 41 42 44 40 42 43 40 42 44
39 41 43 41 43 44 43 44 46 44 45 47 45 46 48 44 46 47 43 45 46
40 42 44 52 54 55 44 46 46 44 46 45 45 47 46 41 43 43 42 45 44
42 44 43 41 43 42 41 43 42 41 43 43 41 43 43 40 42 41 41 43 43
42 44 44 43 45 45 46 48 47 40 42 42 43 45 44 37 39 39 41 44 43
41 43 42 43 45 44 48 50 49 48 50 49 42 44 43 46 48 47 55 57 56
62 64 63 52 54 53 46 48 47 43 45 46 41 43 44 40 42 43 40 41 43
41 43 44 40 42 43 40 41 43 40 41 43 41 43 44 41 43 44 39 41 42
41 43 44 43 45 46 41 43 45 41 42 44 41 42 44 41 42 44 41 42 44
41 42 44 41 42 44 41 42 44 41 43 44 42 44 45 41 43 45 41 42 44
41 42 44 41 42 44 41 42 44 41 43 44 42 43 45 42 43 45 42 43 45
42 43 45 40 41 43 39 41 42 39 40 42 39 40 42 39 41 42 40 41 43
41 43 44 42 43 45 42 43 45 38 40 42 37 38 40 38 39 41 38 39 41
37 38 40 37 39 39 38 41 40 41 44 43 43 45 44 43 45 44 44 46 46
45 47 46 45 47 46 44 46 45 42 44 43 41 43 44 42 43 45 42 43 45
41 42 44 41 42 44 41 42 44 41 42 44 42 44 46 44 46 48 46 48 48
51 53 53 54 56 55 46 48 47 66 68 68 63 65 64 33 35 34 41 43 43
47 49 49 37 39 39 40 40 41 42 42 43 47 47 48 40 40 42 38 37 41
40 40 44 42 42 46 47 46 51 47 46 53 38 38 42 37 39 41 39 41 42
40 42 43 37 39 40 38 40 41 39 40 42 39 40 42 39 40 42 39 40 42
39 41 41 40 43 42 43 45 45 46 48 47 42 44 43 38 40 40 42 44 44
51 53 52 46 48 47 40 42 42 41 43 45 43 45 47 43 45 46 40 42 43
42 43 45 40 41 43 43 44 46 40 41 43 42 44 45 42 43 45 42 43 45
42 43 45 41 42 44 42 44 45 46 48 50 41 42 44 41 43 44 41 43 44
52 54 54 46 48 47 47 50 49 41 43 42 42 44 44 43 45 45 40 42 41
41 43 42 42 44 43 37 40 39 45 47 46 41 43 43 45 47 47 44 46 45
50 52 52 41 43 43 44 46 45 39 41 40 43 45 44 42 44 43 40 42 42
42 44 44 43 45 44 44 46 45 45 47 46 48 50 49 47 49 48 49 51 50
42 44 44 41 43 44 43 44 46 43 44 46 43 44 46 42 44 45 42 44 45
42 43 45 41 42 44 40 42 43 40 41 43 41 43 44 43 44 46 42 44 45
40 42 43 41 42 44 41 42 44 41 42 44 40 41 43 40 41 43 40 41 43
40 42 43 41 42 44 41 43 44 41 43 44 41 42 44 41 42 44 42 43 45
42 43 45 41 43 44 41 42 44 41 42 44 40 41 43 40 41 43 40 41 43
40 41 43 40 41 43 40 41 43 40 42 43 41 42 44 42 43 45 42 43 45
41 43 44 37 39 40 37 38 40 38 39 41 38 39 41 37 38 40 37 39 39
38 40 39 40 43 42 42 44 43 43 45 44 42 44 43 43 45 44 43 45 44
43 45 44 42 44 43 40 42 43 41 42 44 42 43 45 43 44 46 42 44 45
41 43 44 44 46 48 44 45 47 44 46 48 45 47 47 42 44 44 39 41 40
42 45 44 65 67 67 52 54 53 38 40 40 41 43 45 40 42 45 40 42 44
46 47 49 44 45 46 44 44 46 37 39 41 38 39 41 36 37 40 41 42 45
41 42 45 46 47 51 51 52 54 42 44 46 38 40 41 38 39 41 39 40 42
39 40 42 39 40 42 39 40 42 39 40 42 39 40 42 41 43 43 42 44 43
44 46 45 47 49 48 41 44 43 39 41 40 40 42 42 43 45 45 41 43 43
40 42 43 41 42 44 41 43 45 44 46 47 47 49 50 42 44 45 38 40 41
39 40 42 39 41 42 42 44 45 41 43 44 40 42 43 41 42 44 42 44 46
45 47 49 43 45 46 45 47 49 46 48 49 53 54 56 60 62 62 43 45 44
43 46 45 43 45 44 46 48 47 47 49 48 43 45 44 42 44 44 40 42 41
43 45 44 50 52 51 40 42 42 52 54 53 47 49 48 85 88 87 51 54 53
38 40 39 42 44 44 41 43 42 41 43 42 43 45 44 42 44 43 42 44 43
42 44 43 50 52 52 53 55 54 50 52 51 46 48 48 39 41 41 40 41 43
40 41 43 40 41 43 39 40 42 40 41 43 41 42 44 41 42 44 41 43 44
42 43 45 42 43 45 41 43 44 41 42 44 41 43 44 42 43 45 41 42 44
41 42 44 41 42 44 40 41 43 40 41 43 41 42 44 41 42 44 41 42 44
40 41 43 40 42 43 41 42 44 41 42 44 42 43 45 42 43 45 41 43 44
41 42 44 41 42 44 40 41 43 40 41 43 40 41 43 40 41 43 40 41 43
40 41 43 40 42 43 41 42 44 42 43 45 42 43 45 41 43 44 36 38 39
37 38 40 38 39 41 38 39 41 37 38 40 37 39 39 38 40 39 40 42 41
41 43 42 42 44 43 40 42 41 41 43 42 42 44 43 42 44 43 42 44 43
40 41 43 40 41 43 39 40 42 40 41 43 41 43 45 46 48 49 48 50 51
43 45 46 41 43 44 38 40 39 38 40 39 38 41 40 44 46 45 43 45 45
40 42 43 38 40 41 41 42 45 39 40 44 40 41 45 39 41 43 37 39 40
38 40 41 40 41 42 40 41 42 39 40 41 41 43 44 45 47 47 46 48 49
46 48 50 42 44 45 37 39 40 37 39 41 39 41 42 39 40 42 39 40 42
39 40 42 39 40 42 39 40 42 39 41 40 40 42 41 41 43 42 44 46 45
41 43 43 43 45 44 42 44 43 39 41 41 40 42 41 41 43 44 43 44 46
44 45 47 45 47 48 47 49 50 44 46 47 43 45 46 41 43 44 39 41 42
37 39 41 38 40 42 40 42 44 42 44 46 43 44 46 41 43 45 41 43 45
44 46 48 49 51 52 45 46 48 44 46 46 44 46 45 45 48 47 38 41 40
56 58 58 62 64 63 44 46 45 50 52 51 48 50 50 43 45 45 44 47 46
50 52 52 65 67 66 43 45 44 46 48 47 40 43 42 43 45 45 39 41 40
43 45 44 42 44 44 42 44 43 42 44 43 42 44 44 43 45 44 45 47 46
48 50 49 50 52 52 48 50 49 42 44 44 41 43 44 40 42 43 38 40 41
38 39 41 39 40 42 40 41 43 40 42 43 41 43 44 42 43 45 42 44 45
41 43 44 40 41 43 40 42 43 42 44 45 41 42 44 41 42 44 41 42 44
40 41 43 41 42 44 42 43 45 41 42 44 40 42 43 40 41 43 40 42 43
41 42 44 41 42 44 42 43 45 42 43 45 41 43 44 41 42 44 41 42 44
40 41 43 40 41 43 40 41 43 40 41 43 40 41 43 40 41 43 40 41 43
40 42 43 41 43 44 41 43 44 40 42 43 37 38 40 37 38 40 38 39 41
38 39 41 37 38 40 38 39 39 37 39 38 38 40 39 40 42 41 42 44 43
40 42 41 41 43 42 42 44 43 42 44 43 41 43 42 39 41 42 38 39 41
37 38 40 38 40 42 44 46 48 53 55 56 45 47 48 40 42 43 37 38 40
37 39 38 39 41 39 34 36 35 48 50 50 50 52 53 39 41 43 37 38 41
40 42 45 40 41 45 37 38 43 40 42 43 38 40 41 37 39 40 42 44 43
38 40 39 42 44 43 40 42 41 66 68 67 68 70 69 40 42 42 37 38 40
37 39 41 39 41 43 38 40 41 38 40 42 39 40 42 39 40 42 39 40 42
39 40 42 40 42 42 41 43 42 41 44 43 44 46 45 40 42 41 40 42 42
40 42 41 38 40 39 39 41 40 42 44 44 44 46 48 46 48 50 45 47 48
42 44 45 40 42 44 42 44 46 42 43 45 41 43 44 37 39 41 37 39 40
42 44 45 44 46 48 43 45 46 41 42 44 44 46 47 35 37 39 45 47 48
46 48 49 54 56 56 41 44 43 44 46 45 45 47 46 44 47 46 48 50 49
59 61 61 57 59 58 43 45 45 40 43 42 43 45 45 47 49 49 39 41 41
46 48 48 42 44 43 39 41 40 42 44 43 41 43 42 43 45 44 40 42 41
40 42 42 42 44 44 43 45 45 44 46 46 43 45 44 44 46 45 47 49 48
43 45 44 41 43 43 43 45 46 40 42 43 40 41 43 40 42 43 40 42 43
40 41 43 40 41 43 40 42 43 41 42 44 41 43 44 41 43 44 41 42 44
41 42 44 42 43 45 41 42 44 41 42 44 41 42 44 40 41 43 40 42 43
41 42 44 41 42 44 40 42 43 40 41 43 40 42 43 41 42 44 41 42 44
42 43 45 42 43 45 41 43 44 41 42 44 41 42 44 40 41 43 40 41 43
40 41 43 40 41 43 40 41 43 40 41 43 40 41 43 40 41 43 41 42 44
41 42 44 40 42 43 38 40 42 37 38 40 38 39 41 38 39 41 37 38 40
38 39 40 37 39 38 37 39 38 39 41 41 42 44 43 43 45 44 43 45 44
43 45 44 42 44 44 41 43 43 39 40 41 38 40 40 39 41 43 44 46 47
51 53 54 54 55 56 38 40 41 37 39 41 38 39 41 35 37 36 41 43 41
37 39 39 50 52 52 47 48 50 37 39 42 41 42 46 39 41 45 38 39 44
39 40 44 37 39 39 37 39 38 36 38 38 41 43 42 37 39 39 47 49 48
38 40 39 49 51 50 56 58 56 40 42 42 37 39 40 36 38 40 37 39 41
39 40 42 39 40 42 39 40 42 39 40 42 39 40 42 39 40 42 38 40 40
39 41 40 39 42 41 41 43 42 39 41 40 40 42 41 41 43 42 43 45 45
43 45 44 44 46 46 43 45 47 43 44 45 43 44 46 44 46 47 56 58 59
53 55 56 43 44 45 42 44 45 40 42 43 42 43 45 39 41 42 39 41 43
43 45 46 45 47 48 51 52 54 51 53 54 46 48 49 46 48 49 61 63 63
43 45 45 41 43 43 42 44 44 45 47 46 54 56 56 62 64 64 47 49 49
47 49 49 47 49 49 57 59 59 49 51 50 44 47 46 39 41 40 40 42 41
38 40 40 44 46 45 40 42 42 43 45 44 42 44 43 43 45 44 42 44 43
42 44 43 42 44 43 44 46 46 42 44 43 45 47 46 42 44 44 42 44 44
41 43 44 39 41 42 39 41 42 41 43 44 41 43 44 41 42 44 40 42 43
39 41 42 39 40 42 40 41 43 41 43 44 43 44 46 42 43 45 40 42 43
41 42 44 41 42 44 41 42 44 40 41 43 40 41 43 40 41 42 40 42 43
41 42 43 41 43 44 41 43 44 41 42 43 41 42 44 42 43 44 42 43 44
41 43 44 41 42 44 41 42 44 40 41 43 40 41 43 40 41 43 40 41 43
40 41 43 40 41 43 39 41 42 39 41 42 40 42 43 40 42 43 40 41 42
37 38 40 39 40 42 37 38 40 37 38 40 37 38 40 38 39 41 37 38 39
36 38 40 39 41 42 40 41 43 40 41 42 42 44 45 41 43 44 39 41 42
39 41 42 39 41 39 40 42 40 36 39 37 67 69 68 49 51 50 51 53 53
37 38 40 37 39 41 35 37 38 36 37 39 37 39 40 40 42 43 42 44 45
40 42 44 37 39 40 37 39 41 40 42 44 37 38 40 41 42 45 37 39 40
39 40 42 38 40 41 41 43 44 41 43 43 44 46 46 41 43 44 56 58 58
67 69 70 38 40 41 38 39 41 38 39 41 38 39 41 38 39 41 38 40 42
39 40 42 39 40 42 39 40 42 39 40 42 40 42 41 40 42 41 40 43 42
41 43 42 40 42 42 43 45 44 42 44 43 42 44 44 43 45 45 57 59 59
47 49 48 38 40 40 44 46 45 40 42 42 43 45 44 39 41 41 45 47 46
41 43 43 42 44 44 43 45 46 41 43 44 40 42 43 40 41 43 43 45 46
53 55 56 71 73 74 52 54 55 46 48 50 42 43 45 42 44 45 40 42 43
40 42 43 46 48 49 51 53 54 47 48 50 57 59 60 56 58 60 45 47 47
48 50 50 54 56 55 48 50 49 45 47 46 41 44 43 42 44 43 40 42 41
40 42 41 41 43 42 42 44 45 41 43 44 40 41 43 39 41 42 40 41 43
42 44 45 44 46 47 43 45 46 43 44 45 42 44 45 41 42 44 41 42 44
41 42 44 41 42 44 41 42 44 41 43 44 42 43 45 40 42 43 39 41 42
39 40 42 39 41 42 41 43 44 42 43 45 41 42 44 41 42 44 41 42 44
41 42 44 40 41 43 40 42 42 40 42 41 40 42 42 41 43 42 41 43 42
42 44 44 41 43 43 40 42 41 40 42 42 42 44 44 42 44 45 42 43 45
42 43 45 42 43 45 42 43 45 40 42 44 41 42 44 41 42 44 41 42 44
40 42 43 40 42 42 41 43 42 42 44 43 42 44 44 37 39 41 39 40 42
37 38 40 37 38 40 37 38 40 37 38 40 36 37 39 37 39 41 40 42 44
41 42 44 41 42 44 42 44 46 41 42 44 39 40 42 38 40 41 36 38 36
38 40 37 40 43 40 62 64 62 41 44 43 35 37 37 38 40 41 37 39 40
36 38 40 42 44 45 37 39 40 42 43 45 40 42 44 35 36 38 40 42 43
42 43 45 37 39 40 41 43 44 34 36 38 39 41 42 36 38 40 64 66 67
49 51 53 42 44 45 39 41 42 49 50 52 41 43 44 38 40 41 38 40 41
38 39 41 38 39 41 38 39 41 38 39 41 38 40 42 39 40 42 39 40 42
39 40 42 39 40 42 40 42 41 39 41 40 39 41 40 39 41 41 43 45 44
40 42 42 42 44 43 44 46 45 47 49 48 76 78 77 81 83 82 47 49 48
45 48 47 44 46 46 43 45 45 40 42 42 38 40 39 45 47 47 44 46 46
42 43 45 41 42 44 41 42 44 41 43 45 42 43 45 53 55 57 48 49 51
44 46 47 53 55 56 40 42 43 40 42 43 41 42 44 44 46 47 49 51 52
44 46 47 40 42 43 39 41 42 41 43 44 43 45 45 44 47 46 61 63 62
50 52 51 43 45 45 41 43 43 40 42 41 39 41 40 39 41 41 41 43 42
39 41 42 40 41 43 41 42 44 41 43 44 41 42 44 41 43 44 42 44 45
42 44 45 41 42 44 41 43 44 41 42 44 41 42 44 41 42 44 41 42 44
41 42 44 41 42 44 41 43 44 41 42 44 39 41 42 39 40 42 40 42 43
41 43 44 41 42 44 41 42 44 41 42 44 41 42 44 41 42 44 40 41 43
40 42 42 40 42 41 40 42 42 41 43 42 41 43 42 42 44 43 41 43 42
41 43 42 41 43 42 42 44 44 42 44 44 42 43 45 42 43 45 42 43 45
42 43 45 42 43 45 41 42 44 41 42 44 40 41 43 40 42 42 41 43 42
41 43 42 42 44 43 42 44 43 39 40 42 39 40 42 37 38 40 37 38 40
37 38 40 37 38 40 37 38 40 38 40 42 41 43 45 41 42 44 40 42 44
41 42 44 40 41 43 39 41 42 37 39 39 37 40 37 37 39 36 78 81 78
57 59 57 39 41 40 39 40 40 39 41 43 38 39 41 36 37 39 33 35 36
37 39 40 39 41 43 46 48 49 33 35 36 31 33 34 42 43 45 45 47 48
38 40 41 41 42 44 36 38 39 42 44 46 65 67 68 39 40 42 37 39 41
47 49 50 47 49 50 45 47 48 45 47 48 38 40 41 38 39 41 38 39 41
38 39 41 38 39 41 38 40 42 39 40 42 39 40 42 39 40 42 39 40 42
39 41 40 38 40 39 38 40 39 39 41 41 40 42 42 48 50 49 51 53 52
44 46 45 45 47 47 41 43 43 51 53 52 63 65 64 45 47 47 39 42 41
43 45 44 52 54 53 37 39 38 42 44 43 44 46 46 41 43 44 41 42 44
41 42 44 41 43 45 43 44 46 47 49 51 41 43 44 52 54 56 60 62 64
50 52 54 44 45 47 41 43 44 45 47 49 51 53 54 45 47 48 42 44 45
41 43 44 42 44 45 44 46 47 44 46 45 48 50 49 41 43 42 43 45 44
42 44 43 41 43 42 42 44 43 43 45 44 43 45 44 41 43 44 42 43 45
42 43 45 40 42 43 38 40 41 39 41 42 41 43 44 40 42 43 40 41 43
40 42 43 42 43 45 42 43 45 42 43 45 42 43 45 40 42 43 40 42 43
41 42 44 41 42 44 40 42 43 40 41 43 41 42 44 41 42 44 41 42 44
40 41 43 41 42 44 41 42 44 41 42 44 40 41 43 40 42 42 40 42 41
40 42 42 41 43 42 41 43 42 41 43 43 42 44 44 43 45 44 43 45 44
42 44 43 42 44 44 42 43 45 42 43 45 42 43 45 42 43 45 42 44 45
41 43 44 40 42 43 39 41 42 40 41 42 42 44 43 42 44 43 41 43 42
41 43 42 39 40 42 39 40 42 37 38 40 37 38 40 37 38 40 38 39 41
39 40 42 40 42 44 42 43 45 39 41 42 38 40 42 38 39 41 39 41 43
41 42 44 38 40 40 36 38 36 50 52 49 74 77 74 47 49 48 43 45 44
37 39 39 35 36 37 36 37 39 36 37 39 36 37 39 35 37 39 49 51 52
75 77 78 92 94 95 127 129 131 65 67 68 38 40 41 35 37 38 32 34 35
40 42 43 35 36 38 41 43 45 37 38 40 38 40 41 41 43 44 40 42 43
45 46 48 38 40 41 39 41 42 38 39 41 38 39 41 38 39 41 38 39 41
38 40 42 39 40 42 39 40 42 39 40 42 39 40 42 38 40 40 38 41 40
39 42 41 41 43 43 41 43 43 69 71 70 53 55 54 43 45 44 41 43 43
39 41 41 45 48 47 52 54 54 49 51 51 41 43 42 46 48 47 54 56 56
41 43 43 42 44 44 47 49 49 43 44 44 41 43 43 41 43 42 41 43 43
41 43 43 43 45 45 44 46 46 64 66 66 62 64 64 53 55 55 45 47 48
42 44 45 46 47 49 48 50 51 43 45 46 42 43 45 42 44 45 43 44 46
41 43 44 42 44 43 47 49 48 47 49 48 45 47 47 40 42 42 42 44 43
43 45 45 43 45 44 42 44 43 42 44 45 42 43 45 41 42 44 40 41 43
39 41 42 40 42 43 41 43 44 41 43 44 40 42 43 41 42 44 42 43 45
42 43 45 42 43 45 42 43 45 40 41 43 40 41 43 41 42 44 42 43 45
41 42 44 41 42 44 41 43 44 41 43 44 40 42 43 39 41 42 41 42 44
41 42 44 41 42 44 40 41 43 40 42 42 40 42 41 40 42 42 41 43 42
41 43 42 41 43 43 42 44 44 43 45 45 43 45 44 42 44 44 42 44 44
42 43 45 42 43 45 42 43 45 42 43 45 41 43 44 41 42 44 41 42 44
41 42 44 41 43 44 42 44 43 42 44 43 41 43 42 41 43 42 41 42 44
39 40 42 38 39 41 37 38 40 37 38 40 39 41 43 40 41 43 41 43 45
41 43 44 38 40 41 36 38 40 37 38 40 38 40 42 41 42 44 39 41 41
37 39 37 76 78 75 58 60 57 39 41 40 38 40 39 38 40 40 37 39 40
36 38 39 36 37 39 36 37 39 37 39 40 41 43 45 28 30 31 76 78 79
164 166 167 141 143 144 43 45 46 37 39 41 39 40 42 36 38 40 41 43 45
34 36 37 36 37 39 40 42 43 52 54 56 41 43 44 42 44 45 36 38 39
38 39 41 38 39 41 38 39 41 38 39 41 38 39 41 38 40 42 38 39 41
40 41 43 40 41 43 39 40 42 38 40 39 39 42 41 42 45 44 45 47 47
44 46 45 74 76 75 46 48 47 43 45 45 40 42 41 45 47 47 40 42 41
42 44 43 43 45 45 44 46 45 47 49 48 43 45 44 38 40 40 42 44 44
46 48 48 41 43 43 40 42 41 41 43 42 40 42 42 40 42 41 47 49 49
40 42 42 59 62 61 50 52 51 43 45 45 42 44 45 43 45 46 45 47 48
43 45 46 41 43 44 42 44 45 41 43 44 40 42 43 43 45 46 41 43 42
45 47 46 43 45 45 44 46 45 41 43 42 41 43 43 43 45 44 41 43 43
40 42 41 40 42 43 40 42 43 39 41 42 40 42 43 42 43 45 41 42 44
42 44 45 42 44 45 41 42 44 41 43 44 42 43 45 42 43 45 42 43 45
42 43 45 41 42 44 40 41 43 41 42 44 42 43 45 41 43 44 41 43 44
42 43 45 42 43 45 40 42 43 40 41 43 41 42 44 41 42 44 41 42 44
40 41 43 40 42 43 40 42 41 40 42 42 41 43 42 41 43 42 41 43 43
43 45 44 44 46 45 44 46 45 42 44 44 42 44 44 42 43 45 42 43 45
42 43 45 41 43 44 40 42 43 41 42 44 41 42 44 41 42 44 42 43 44
42 44 43 42 44 43 41 43 42 40 42 41 42 44 46 39 40 42 38 39 41
38 40 42 39 41 43 41 43 45 41 42 44 40 41 43 39 40 42 39 40 42
39 41 43 39 40 42 38 39 41 38 40 42 40 42 43 35 38 35 58 61 58
50 52 50 39 42 40 36 39 38 37 39 38 37 38 40 37 38 40 36 37 39
37 39 40 38 40 42 40 42 44 38 40 41 35 37 38 39 40 42 44 46 47
55 56 58 41 43 44 40 41 43 37 38 40 36 38 39 36 38 40 38 40 41
41 43 44 50 52 53 34 36 37 39 41 42 36 38 39 38 40 41 39 40 42
39 40 42 37 39 40 38 40 42 42 44 45 40 42 43 34 36 38 33 35 37
35 36 38 39 41 41 45 47 46 42 44 43 45 47 47 46 48 48 50 52 51
44 46 45 40 42 42 40 42 41 43 45 44 41 43 42 42 44 44 41 43 42
43 45 45 49 51 50 48 50 49 50 52 51 52 54 53 48 50 50 53 55 55
46 49 47 35 37 36 40 43 41 42 44 43 46 48 47 43 45 44 42 45 43
56 58 57 52 54 54 47 49 51 45 47 48 43 45 46 39 41 42 41 42 44
41 42 44 42 44 45 43 45 46 44 45 46 43 45 45 45 47 47 45 47 47
42 44 44 41 43 42 41 43 42 41 43 42 42 44 43 42 44 43 40 42 43
41 42 44 41 42 44 41 42 44 40 42 43 40 42 43 41 43 44 41 43 44
41 43 44 42 44 45 42 43 45 43 44 46 43 44 46 43 44 46 41 43 44
41 42 44 41 42 44 41 42 44 41 42 44 41 43 44 43 44 46 43 44 46
42 44 45 41 42 44 41 42 44 41 42 44 41 42 44 41 42 44 41 43 43
42 44 43 42 44 43 42 44 43 42 44 43 42 44 44 43 45 44 43 45 44
42 44 43 42 44 43 43 45 46 45 46 48 42 44 46 41 43 44 42 44 45
42 44 45 41 43 44 41 42 44 41 42 44 41 43 43 41 43 43 42 44 44
43 45 44 42 44 43 41 43 45 40 41 43 40 41 43 40 41 43 40 42 44
42 43 45 41 42 44 40 41 43 39 40 42 39 40 42 39 40 42 37 39 40
36 37 39 38 40 42 40 42 44 41 43 41 63 66 63 40 42 40 38 40 38
40 42 41 36 39 38 36 37 39 34 36 38 36 38 40 38 40 42 39 40 42
39 41 43 38 40 41 37 38 40 38 40 41 40 42 43 47 48 50 43 45 46
39 40 42 39 41 42 37 39 40 36 38 40 40 42 43 42 44 46 93 95 96
52 54 55 37 39 40 41 43 45 37 38 40 39 40 42 39 40 42 38 40 42
41 43 44 39 41 43 38 40 41 41 43 44 37 39 41 38 39 41 42 44 43
45 47 47 42 44 43 49 51 50 57 59 58 54 56 56 44 46 45 39 42 41
41 43 43 41 43 43 39 41 41 41 43 43 41 43 42 43 45 45 48 50 49
42 44 44 43 45 44 44 46 46 48 50 49 77 80 77 57 59 56 42 45 42
50 53 51 53 55 52 45 48 45 45 48 45 67 69 67 76 78 76 53 55 55
52 54 56 49 51 52 44 46 47 41 43 44 41 42 44 41 43 44 42 43 45
43 44 46 44 45 47 46 48 47 46 48 47 44 46 45 42 44 43 42 44 43
42 44 43 42 44 43 41 43 42 41 43 42 41 42 43 42 43 45 42 44 45
42 43 45 41 43 44 41 43 44 43 45 46 41 43 44 40 42 43 42 44 45
44 45 47 44 45 47 44 46 47 43 45 46 41 43 44 41 42 44 41 42 44
41 42 44 41 42 44 41 43 44 43 44 46 43 44 46 42 44 45 41 42 44
41 42 44 41 42 44 41 42 44 41 42 44 41 43 43 42 44 43 42 44 43
42 44 43 42 44 43 43 45 44 44 46 45 44 46 45 44 46 45 44 46 45
43 45 46 44 45 47 42 44 45 40 42 43 41 43 44 43 45 46 41 43 44
41 42 44 40 42 43 41 43 43 42 44 43 43 45 44 43 45 44 42 44 43
41 43 45 44 45 47 42 43 45 40 41 43 40 41 43 41 42 44 41 42 44
40 41 43 39 40 42 39 40 42 39 41 43 40 41 43 40 41 43 39 41 42
38 40 40 44 46 44 65 67 64 39 41 38 38 41 39 33 36 35 37 39 38
36 37 39 37 38 40 38 40 42 39 40 42 39 40 42 39 40 42 38 40 41
38 39 41 38 40 41 37 39 40 50 51 53 43 44 46 40 41 43 38 40 42
41 43 44 37 39 40 39 41 42 47 49 50 71 73 74 41 43 44 35 37 39
41 43 44 38 39 41 39 40 42 39 40 42 39 41 43 44 46 47 44 46 47
37 39 41 45 47 48 48 50 51 91 93 94 63 65 64 45 47 46 48 51 50
43 45 45 48 50 50 48 50 49 41 44 43 41 43 43 42 44 44 41 43 42
39 41 40 41 43 43 41 43 42 43 45 45 46 49 48 45 47 46 38 40 40
45 47 46 55 57 56 72 74 71 49 51 48 49 51 49 46 49 46 50 53 50
45 48 45 47 49 47 72 75 72 50 52 50 45 47 48 57 59 61 55 57 59
43 45 46 43 45 46 42 43 45 42 43 45 42 43 45 42 43 45 43 45 46
45 47 46 44 46 45 43 45 44 41 43 42 41 43 42 42 44 43 42 44 43
41 43 42 41 43 42 42 43 44 42 44 45 43 44 46 43 44 46 42 43 45
42 44 45 43 45 46 42 44 45 41 42 44 42 44 45 44 46 47 45 46 48
44 45 47 43 45 46 42 43 45 42 43 45 42 43 45 42 43 45 42 43 45
42 44 45 43 44 46 43 44 46 42 44 45 41 42 44 41 42 44 41 42 44
41 42 44 41 42 44 41 43 43 42 44 43 42 44 43 42 44 43 42 44 43
42 44 44 43 45 44 43 45 45 44 46 46 45 47 46 43 45 45 43 45 46
41 43 45 40 42 43 41 43 44 43 44 46 41 43 44 41 42 44 41 42 44
42 43 44 43 45 44 43 45 44 42 44 43 41 43 42 42 44 46 44 45 47
42 43 45 41 42 44 41 42 44 41 43 45 41 42 44 40 41 43 39 40 42
39 40 42 37 39 40 36 37 39 36 37 39 35 36 38 35 37 37 85 88 86
52 54 52 48 50 47 42 44 42 41 43 42 37 39 39 36 38 39 42 44 46
42 44 45 38 40 42 38 40 41 38 39 41 38 39 41 39 40 42 35 36 38
43 45 46 41 43 44 73 74 76 73 75 76 50 52 53 39 41 43 39 41 42
42 43 45 66 68 70 44 46 47 39 41 42 43 44 46 42 44 45 39 41 42
39 40 42 39 40 42 41 43 44 47 49 50 55 57 59 46 48 49 40 42 44
49 51 52 84 85 87 47 49 48 39 41 41 43 45 44 44 46 46 46 48 48
52 54 53 43 45 44 42 44 43 42 44 43 43 45 44 41 43 42 42 44 44
41 43 42 43 45 45 46 49 48 76 78 77 93 95 94 106 108 107 87 89 88
71 74 71 72 74 72 49 52 49 57 59 56 83 85 83 55 58 55 59 62 59
73 76 73 43 46 43 47 49 48 55 57 58 54 56 57 45 47 48 43 45 46
43 44 46 42 44 45 42 43 45 42 43 45 42 43 45 43 45 45 45 47 47
45 47 46 42 44 44 41 43 42 41 43 42 41 43 42 42 44 43 42 44 43
42 44 45 43 45 46 44 45 47 44 45 47 43 44 46 42 44 45 43 45 46
43 44 46 42 44 45 43 45 46 44 45 47 44 45 47 43 44 46 41 43 44
41 43 44 42 43 45 42 43 45 42 43 45 42 43 45 42 43 45 43 44 46
43 44 46 42 44 45 41 42 44 41 42 44 41 42 44 41 42 44 41 42 44
41 43 43 42 44 43 42 44 43 42 44 43 42 44 43 41 43 42 41 43 43
42 44 43 43 45 45 44 46 45 44 46 46 45 46 48 42 44 46 41 43 44
42 44 45 41 42 44 40 42 43 41 42 44 42 44 45 43 45 45 43 45 44
43 45 44 42 44 43 41 43 42 44 46 46 43 45 45 43 44 44 42 44 44
41 43 43 41 43 44 41 42 44 39 40 42 39 40 42 40 41 43 35 37 38
42 43 45 38 40 42 37 39 40 56 58 58 76 78 77 48 50 49 94 96 95
55 57 56 39 41 40 40 42 41 38 40 40 41 44 43 42 44 44 37 39 40
37 39 40 37 39 41 38 39 41 38 40 42 39 41 43 41 42 44 40 41 43
39 41 42 51 53 54 47 49 49 42 44 44 39 41 42 40 42 42 53 55 55
44 46 46 40 42 42 37 39 39 40 42 42 40 41 41 40 41 41 40 42 42
42 44 43 44 46 46 48 50 50 47 49 49 46 48 49 45 47 47 39 41 41
38 40 39 41 42 42 41 41 41 42 43 42 42 43 42 54 55 54 43 44 42
44 45 43 43 45 42 45 46 45 44 45 44 45 46 44 42 43 41 43 44 42
43 44 42 65 66 65 94 95 94 109 109 108 78 79 77 61 63 60 49 50 47
61 62 60 63 64 62 50 51 49 51 52 50 53 54 52 54 55 52 55 56 54
47 49 50 45 47 49 45 46 49 45 46 49 43 43 46 47 47 50 42 41 44
43 43 44 45 45 46 45 45 46 47 49 50 45 47 48 45 47 47 43 45 46
41 43 44 42 43 44 42 43 43 42 43 44 42 44 45 44 45 47 44 46 47
44 45 47 44 45 47 43 45 46 43 45 46 43 45 46 43 44 46 44 45 47
44 45 47 43 44 46 42 43 45 41 43 44 40 42 43 39 41 43 41 43 44
42 43 45 41 43 44 40 42 43 42 43 45 42 43 45 42 43 45 41 43 44
41 43 44 40 41 43 40 41 43 40 41 43 40 42 43 42 43 44 44 46 45
43 45 44 42 44 43 42 44 43 41 44 43 41 43 43 42 44 43 43 45 44
43 45 44 43 45 45 42 44 44 42 44 44 41 43 43 39 42 42 40 42 42
39 41 41 41 43 44 44 46 46 43 45 45 43 44 45 42 44 44 41 43 43
41 42 43 42 44 43 43 45 44 43 45 44 43 45 44 41 43 42 39 41 41
39 40 42 40 41 43 40 41 43 39 40 42 42 44 45 40 41 43 36 38 39
43 45 46 47 49 50 43 45 45 43 45 44 49 51 51 53 55 54 41 44 43
40 42 41 41 43 43 39 41 40 34 36 35 37 39 40 37 38 40 37 39 41
38 39 41 38 39 41 38 39 41 39 41 43 41 42 44 42 43 45 44 46 47
54 56 55 40 42 41 36 38 37 56 58 58 52 54 53 42 44 43 40 42 41
39 41 40 40 42 41 40 42 41 40 43 42 41 43 42 42 44 43 43 45 44
43 45 44 47 49 48 45 47 47 43 45 44 44 44 44 45 45 45 47 47 47
43 43 43 47 47 46 59 59 57 50 50 47 43 44 40 49 49 45 45 46 41
43 43 40 41 42 40 42 43 41 43 43 41 41 41 39 43 43 41 50 50 48
48 49 46 54 55 53 55 55 53 45 45 43 45 46 44 56 57 54 57 58 56
49 49 47 51 52 49 56 56 54 58 59 56 50 50 48 43 44 45 44 45 48
44 46 49 45 46 48 42 41 45 41 41 43 49 47 49 61 59 58 58 56 55
54 54 53 48 50 51 45 47 48 44 45 47 43 45 46 42 44 45 43 44 46
42 43 45 42 43 45 43 44 46 43 45 46 44 45 47 43 44 46 43 44 46
43 44 46 42 43 45 42 43 45 43 44 46 44 46 47 45 47 48 43 45 46
41 43 44 42 44 45 42 44 45 41 42 44 41 42 44 41 42 44 41 42 44
40 41 43 41 43 45 41 43 44 41 42 44 41 42 44 41 43 44 40 42 43
40 41 43 40 41 43 40 42 43 41 43 43 40 42 42 42 44 43 42 44 43
42 44 43 41 43 42 41 43 43 42 44 44 42 44 43 41 43 42 42 44 43
42 44 43 42 44 44 43 45 44 40 43 42 41 43 42 41 43 42 43 45 45
45 47 46 43 45 45 42 44 45 41 43 44 41 42 44 41 42 44 38 40 39
40 43 42 43 46 45 44 46 45 40 42 41 39 40 41 39 40 42 39 40 42
39 40 42 39 40 42 38 40 41 45 46 48 41 43 44 46 48 49 44 46 47
39 41 40 40 42 41 38 40 40 55 57 57 56 58 58 58 60 60 44 46 45
40 42 41 34 36 36 38 40 40 37 38 40 37 39 41 38 39 41 38 39 41
38 39 41 40 42 43 41 42 44 41 43 44 43 45 46 43 46 45 45 47 47
41 43 43 63 65 64 60 62 62 41 43 42 40 42 41 40 42 41 40 43 42
40 42 41 40 43 42 41 43 42 42 44 43 43 45 44 41 43 43 45 47 46
44 46 45 41 43 42 42 44 44 43 43 43 43 43 43 41 41 41 48 48 46
55 55 53 56 56 53 42 43 39 44 45 41 47 48 44 46 46 43 42 42 40
44 44 42 49 49 47 45 45 43 45 46 44 42 43 41 49 50 48 56 56 54
51 51 49 52 53 51 58 58 56 63 63 61 59 59 57 53 54 52 51 51 49
51 51 49 50 51 49 44 45 43 42 43 45 42 43 45 42 44 45 44 46 47
44 43 44 47 47 45 45 43 41 133 132 128 81 80 75 73 73 69 46 48 49
43 45 46 43 45 46 43 45 46 42 44 45 43 44 46 42 43 45 42 43 45
43 44 46 42 44 45 42 43 45 41 43 44 41 42 44 41 42 44 41 43 44
41 43 44 42 44 45 44 46 47 45 46 48 43 45 46 42 44 45 44 46 47
44 46 47 43 44 46 41 43 44 40 42 43 39 41 42 41 42 44 41 43 44
41 42 44 41 42 44 41 42 44 42 44 45 41 43 44 41 42 44 41 42 44
42 44 45 42 43 44 40 42 42 43 45 45 43 45 44 42 44 43 40 42 41
41 43 43 42 44 44 41 44 43 39 41 40 40 42 41 40 42 42 43 45 44
44 46 45 42 45 44 42 44 44 44 46 46 46 48 47 44 46 45 42 44 44
42 43 45 40 42 43 40 41 43 40 42 43 38 40 39 39 42 41 42 44 43
43 45 44 41 43 42 40 42 42 40 41 43 39 40 42 39 40 42 40 42 44
38 40 42 37 39 40 62 64 65 57 59 60 39 41 42 40 42 42 48 50 50
40 42 42 44 46 46 44 46 46 91 93 92 83 85 84 55 57 56 34 36 35
37 39 39 37 38 40 37 39 41 38 39 41 38 39 41 40 42 43 39 41 42
37 39 40 39 41 42 45 47 48 45 47 46 38 40 39 39 41 40 43 45 44
45 47 46 40 42 41 41 43 42 41 43 42 41 43 42 40 42 41 40 43 42
41 43 42 42 44 43 43 45 44 42 44 43 46 48 47 44 46 45 40 42 42
41 42 42 41 41 41 40 40 40 43 43 43 42 42 42 45 46 44 74 75 72
46 46 42 47 48 44 45 45 41 44 44 41 42 42 40 44 45 43 48 48 46
45 45 43 42 42 40 44 44 42 58 58 56 72 72 70 60 60 58 54 54 52
53 53 51 56 57 55 49 49 47 47 47 45 46 47 45 48 49 46 47 47 45
45 45 43 45 47 48 41 43 46 40 42 43 42 44 43 44 45 42 43 44 38
111 111 103 152 151 143 114 114 104 42 42 36 43 45 46 41 43 44
42 44 45 43 45 46 43 44 46 43 44 46 42 43 45 42 43 45 43 44 46
42 44 45 42 43 45 41 42 44 41 42 44 41 42 44 43 44 46 42 44 45
42 43 45 42 44 45 43 45 46 43 45 46 42 43 45 43 45 46 43 45 46
42 43 45 41 43 44 40 42 43 40 41 43 40 42 43 41 42 44 40 42 43
41 42 44 41 43 44 43 45 46 41 43 44 40 42 43 40 42 43 41 43 44
41 43 44 40 42 42 41 43 43 42 44 44 41 43 42 41 43 43 43 45 44
42 44 43 41 43 42 41 43 42 40 42 41 40 42 41 43 45 44 44 46 45
43 45 44 43 45 45 45 47 46 44 46 45 42 44 43 42 44 44 41 43 44
40 41 43 39 41 42 40 41 43 39 41 40 40 42 41 40 42 41 42 44 43
41 43 42 39 41 41 40 42 44 44 46 48 43 45 46 39 41 42 41 43 45
44 46 48 90 91 93 48 50 52 39 41 42 40 42 41 42 44 43 41 43 42
41 43 42 39 41 41 65 67 66 86 88 88 99 101 100 41 43 42 37 39 39
37 38 40 37 39 41 38 39 41 38 39 41 39 40 42 40 41 43 39 41 42
39 41 42 42 44 45 40 43 41 39 41 38 36 38 36 45 47 45 42 45 42
41 43 41 41 43 41 41 43 41 40 42 40 40 42 40 40 43 42 41 43 42
42 44 43 43 45 44 44 46 46 47 49 49 44 46 46 40 42 41 40 41 41
40 40 40 42 42 42 43 43 43 42 42 41 44 44 42 50 51 48 96 97 93
53 54 50 43 44 40 41 42 39 42 42 40 43 43 41 43 43 41 43 43 41
45 45 43 46 46 44 68 69 67 100 100 98 72 72 70 55 55 53 49 50 48
50 50 48 45 45 43 47 48 45 45 46 43 48 48 46 45 46 44 44 45 43
43 44 46 42 44 47 44 46 45 43 45 41 40 41 33 80 82 72 157 157 146
159 158 147 65 64 53 43 43 35 42 44 45 41 42 44 41 43 44 43 44 46
43 44 46 43 44 46 42 43 45 42 43 45 43 44 46 43 44 46 42 43 45
42 43 45 42 43 45 41 42 44 41 42 44 41 42 44 41 43 44 43 45 46
44 46 47 43 45 46 41 42 44 41 43 44 40 42 43 40 42 43 41 42 44
41 42 44 41 42 44 40 41 43 40 41 43 40 41 43 40 42 43 41 43 44
43 45 46 40 41 43 40 41 43 40 41 43 40 42 43 41 43 44 42 44 43
44 46 45 47 49 48 49 51 51 49 51 50 45 48 47 42 44 43 41 43 43
43 45 45 41 44 43 41 43 42 43 45 44 43 45 44 42 44 43 44 46 45
44 46 45 41 43 42 40 42 41 41 43 43 41 42 44 39 41 42 39 40 42
39 41 42 41 44 43 39 41 40 39 41 40 41 43 42 42 44 43 42 44 45
43 44 46 44 45 47 38 40 42 38 39 41 37 39 40 41 43 45 65 67 69
34 36 37 37 39 40 38 40 40 38 40 39 39 41 41 41 43 43 43 45 44
40 42 41 35 37 36 66 68 67 71 73 72 50 52 52 39 40 42 36 38 40
37 39 40 36 38 40 34 36 37 40 42 43 40 42 43 40 41 43 44 46 47
42 45 42 40 42 39 80 82 80 59 61 58 40 43 40 42 45 42 38 40 37
44 46 43 38 40 37 38 40 38 41 44 43 40 42 41 42 44 44 45 47 46
45 47 47 43 45 44 38 40 39 42 44 43 39 41 40 40 41 40 40 40 40
42 42 42 41 42 41 43 43 41 57 57 55 135 136 131 106 106 102 41 42 38
43 43 41 43 43 41 41 42 40 41 42 40 46 46 44 48 49 46 54 54 52
49 49 47 50 50 48 48 48 46 50 50 48 50 51 49 49 49 47 49 49 47
47 47 45 42 42 40 51 51 49 39 39 37 46 46 45 41 42 44 48 50 51
38 41 38 44 47 40 48 49 40 139 141 129 175 175 163 83 82 71 40 39 29
44 44 37 40 42 43 42 44 45 43 45 46 43 44 46 42 43 45 42 43 45
42 43 45 42 43 45 42 43 45 42 43 45 41 43 44 41 42 44 41 43 44
42 44 45 43 44 46 43 44 46 43 44 46 43 44 46 42 43 45 40 41 43
40 41 43 41 42 44 41 42 44 41 42 44 41 42 44 41 42 44 40 42 43
40 41 43 41 43 44 42 43 45 42 43 45 42 43 45 42 43 45 40 41 43
41 43 44 42 43 45 42 43 45 43 45 45 47 49 48 50 52 51 50 53 52
47 50 49 44 46 45 45 47 46 43 45 44 40 42 41 43 45 44 42 44 43
41 43 42 42 44 44 44 46 46 45 48 47 44 46 46 44 47 46 40 42 42
39 41 40 42 44 43 41 43 44 39 41 42 39 41 42 41 42 44 39 41 40
40 42 41 42 45 44 43 45 44 43 45 44 44 46 46 40 42 43 38 40 41
36 38 39 38 40 42 44 46 47 65 66 68 47 49 51 39 41 43 40 42 43
39 41 40 37 39 38 38 40 40 40 42 41 38 40 39 44 47 46 37 39 38
52 54 54 60 62 62 52 54 54 46 48 49 37 39 40 37 39 41 39 41 42
38 40 41 39 40 42 38 39 41 41 43 44 50 52 52 40 43 39 48 50 46
46 48 44 70 73 68 44 46 42 67 69 65 96 99 95 53 56 51 39 42 37
43 45 43 37 39 38 42 44 43 51 53 53 36 38 38 34 36 36 40 42 41
43 45 44 38 40 39 41 43 42 41 41 41 40 40 40 42 42 42 43 43 42
37 38 36 47 47 45 47 48 44 83 83 79 53 54 50 44 44 41 40 41 39
45 45 43 43 44 42 49 49 47 50 50 48 58 58 56 65 65 63 66 66 64
47 47 45 38 38 36 89 89 87 55 56 54 64 64 62 70 70 68 53 54 51
41 41 39 47 47 45 42 42 40 43 44 44 39 42 42 44 47 42 36 39 30
90 92 80 164 166 154 105 106 94 37 37 28 46 45 39 44 43 40 41 42 44
42 44 45 43 44 46 43 44 46 42 43 45 42 43 45 42 43 45 42 43 45
42 43 45 40 42 43 41 42 44 41 43 44 40 42 43 39 40 42 42 43 45
42 43 45 42 43 45 42 43 45 41 43 44 40 41 43 41 42 44 41 42 44
41 43 44 41 43 44 41 42 44 41 42 44 40 42 43 40 41 43 41 43 44
42 43 45 42 43 45 42 43 45 42 43 45 41 43 44 42 44 45 43 44 46
43 44 46 42 44 45 42 44 44 44 46 45 44 46 45 43 45 44 42 44 43
43 45 45 42 45 44 41 43 42 41 43 43 41 43 42 41 43 42 42 44 44
44 46 46 45 47 46 42 44 43 40 42 41 40 42 42 42 44 43 42 44 44
43 44 46 43 44 46 42 44 45 42 43 45 43 45 44 42 45 44 44 46 45
42 44 43 42 44 43 42 44 44 39 41 42 39 41 42 39 41 42 56 58 60
78 80 82 62 64 65 43 44 46 39 41 42 39 41 42 38 40 39 37 39 38
40 42 42 43 46 45 45 47 46 41 43 42 40 42 41 40 43 42 37 39 38
40 41 42 40 41 43 39 41 42 39 41 42 37 39 40 38 40 41 39 40 42
39 40 42 41 43 45 46 48 48 40 43 39 43 46 41 124 127 122 96 98 93
56 58 53 58 61 56 112 115 110 52 54 50 45 47 42 36 38 36 43 45 44
41 43 43 47 49 48 52 54 53 71 73 72 46 48 47 45 47 46 40 42 42
40 42 41 40 40 40 40 40 40 41 41 41 42 42 41 43 44 41 44 44 42
45 45 42 52 53 49 67 68 64 60 60 57 50 50 48 41 41 39 45 45 43
42 42 40 45 45 43 61 61 59 51 51 49 72 73 71 52 52 50 56 56 54
57 57 55 58 58 56 117 118 116 58 58 56 56 57 55 48 48 46 48 48 46
44 44 42 44 45 45 41 43 41 41 43 38 53 55 46 110 112 100 71 73 62
45 45 36 45 43 39 43 41 41 44 43 45 42 43 45 42 43 45 42 43 45
42 43 45 42 43 45 42 43 45 42 43 45 42 43 45 42 43 45 40 42 43
41 43 44 41 43 44 39 41 42 36 38 39 40 41 43 40 41 43 40 41 43
40 41 43 40 42 43 41 42 44 41 42 44 41 43 44 42 43 45 41 43 44
41 42 44 41 42 44 40 42 43 40 41 43 41 43 44 42 43 45 42 43 45
42 43 45 42 43 45 42 43 45 42 44 45 44 45 47 44 45 47 43 45 46
44 46 45 43 45 44 43 45 44 43 45 45 42 44 43 42 44 43 42 44 43
42 44 43 41 43 42 41 43 42 41 43 42 41 43 43 42 44 44 44 46 45
43 45 44 40 42 41 41 43 42 41 44 43 39 41 42 42 43 45 42 44 45
41 43 45 40 42 43 40 43 42 43 45 44 42 44 43 45 47 47 47 49 48
44 46 46 42 44 45 38 40 42 36 38 39 75 76 78 134 135 137 71 73 75
60 62 63 48 50 51 37 39 40 38 40 40 38 40 40 43 45 45 46 49 48
46 48 47 46 48 47 42 44 43 44 46 46 49 51 50 43 45 46 43 45 46
36 38 39 36 38 39 38 40 41 37 38 40 39 41 42 41 43 45 42 44 45
41 43 43 40 43 39 47 49 44 52 55 50 140 142 137 99 102 97 76 79 74
116 118 113 87 90 85 70 73 69 69 71 69 121 123 122 92 94 94
147 149 148 99 101 100 63 65 64 53 55 54 46 48 48 39 41 40 40 42 41
41 41 41 43 43 43 41 41 41 40 40 39 37 38 36 43 44 41 53 53 49
76 77 72 59 59 55 71 71 68 52 53 51 47 48 46 40 41 38 45 46 43
45 45 43 50 51 49 64 64 62 51 52 50 44 44 42 41 41 39 55 55 53
78 79 77 121 121 119 77 77 75 54 54 52 46 46 44 53 54 52 44 45 43
42 43 42 41 44 41 37 40 33 88 91 81 76 78 66 40 42 32 45 45 39
40 38 39 47 45 51 43 41 48 43 45 46 42 43 45 41 43 44 42 43 45
42 43 45 42 43 45 42 43 45 42 43 45 42 43 45 40 42 43 41 42 44
41 43 44 40 42 43 39 40 42 41 42 44 41 42 44 41 42 44 41 42 44
41 42 44 41 42 44 42 43 45 42 43 45 42 44 45 41 43 44 41 42 44
41 42 44 40 42 43 40 41 43 41 43 44 42 43 45 42 43 45 42 43 45
42 43 45 41 43 44 42 44 45 43 44 46 43 44 46 43 44 45 42 44 43
41 43 42 41 43 43 42 44 43 42 44 43 42 44 43 44 46 45 45 47 46
42 45 44 41 43 43 41 43 42 41 43 42 41 43 43 43 45 44 45 48 47
43 45 44 42 44 43 40 42 41 40 42 43 42 43 45 41 43 44 40 42 43
38 40 42 78 79 78 56 57 56 45 47 46 46 49 48 46 48 48 41 43 44
41 43 45 36 37 39 37 39 40 97 99 101 105 107 108 47 49 50 37 39 40
53 55 56 38 40 41 40 42 42 39 41 41 41 43 43 43 45 44 45 47 46
41 43 43 48 50 50 56 58 58 44 46 45 37 39 40 42 44 45 41 43 44
40 42 44 37 39 40 38 40 41 39 40 42 42 44 45 44 45 47 44 46 46
55 58 54 54 57 53 64 67 63 191 194 189 177 180 175 179 182 178
182 185 180 167 169 165 105 107 103 85 87 86 79 82 81 74 76 76
52 54 54 57 59 59 49 51 50 40 42 41 50 52 51 57 59 58 41 43 42
43 44 43 48 48 48 45 46 46 41 42 41 38 39 37 40 41 38 49 50 47
52 53 49 47 48 44 48 48 45 77 78 74 47 47 44 45 45 42 44 44 42
44 44 42 43 43 41 70 70 68 54 55 53 53 53 51 66 65 62 59 58 56
100 101 99 100 101 99 115 116 114 74 75 73 52 53 51 48 48 45 46 47 43
42 42 39 44 45 40 54 55 48 133 135 125 82 82 72 40 41 33 42 42 39
50 49 52 39 37 45 46 45 53 44 46 47 41 43 44 41 42 43 41 43 44
42 43 44 42 43 44 42 43 44 42 43 44 42 43 44 42 43 44 41 43 44
41 42 43 41 43 44 42 44 45 42 43 44 42 43 44 42 43 44 42 43 44
42 43 44 42 43 45 42 43 45 42 44 45 43 44 46 41 43 44 41 42 44
41 42 44 40 42 43 40 41 43 41 43 44 42 43 45 42 43 45 42 43 45
42 43 45 40 41 43 41 43 44 42 43 45 42 43 44 41 43 43 42 44 43
42 44 44 42 44 43 42 44 43 42 44 44 43 45 44 45 47 47 48 50 49
44 46 45 42 44 43 41 43 42 41 43 42 41 43 43 42 44 43 44 46 46
45 47 47 43 45 44 43 45 45 45 47 47 44 46 47 42 44 45 40 42 43
40 42 43 72 70 67 49 48 47 46 47 48 45 46 47 41 44 46 42 44 46
49 50 52 71 73 75 59 61 62 68 70 71 87 89 90 62 64 66 40 41 43
52 54 56 60 61 63 42 44 45 43 45 47 45 46 48 38 40 41 38 40 41
37 39 41 39 41 42 39 41 42 41 43 44 39 41 42 42 43 45 41 43 44
37 39 40 38 39 41 38 40 41 40 42 43 49 51 52 55 57 58 38 39 40
66 69 66 55 57 55 56 58 55 98 100 97 98 100 97 91 94 91 76 78 75
62 64 62 38 41 38 41 44 42 36 38 38 40 42 41 40 42 42 43 45 44
71 74 73 54 56 55 42 44 43 48 50 50 42 44 43 44 45 45 46 48 48
47 49 48 43 45 44 41 43 42 43 45 44 43 45 44 41 43 42 41 43 42
42 43 38 80 81 75 87 88 81 54 55 49 47 47 43 43 44 41 42 42 40
46 46 44 46 46 46 55 54 53 60 57 53 47 46 43 75 76 74 82 84 83
98 101 100 52 56 54 49 50 47 50 51 45 43 43 36 43 39 29 35 30 19
115 110 101 129 125 119 46 43 41 44 42 41 43 43 44 42 43 45 42 44 46
42 45 46 43 45 44 42 44 43 42 44 43 42 44 44 42 44 44 42 44 43
42 44 43 42 44 43 42 44 43 42 44 43 42 44 43 41 43 43 41 43 42
41 43 42 45 47 46 43 45 45 41 43 42 41 43 42 41 43 43 42 43 45
42 43 45 42 43 45 42 43 45 40 42 43 41 43 44 42 44 45 42 44 45
40 42 43 40 41 44 39 40 43 39 40 44 40 42 45 42 43 45 41 43 44
40 42 44 44 46 46 42 44 44 45 47 46 42 44 43 44 46 46 39 41 41
41 43 42 42 44 43 43 45 44 43 45 44 43 45 44 43 45 44 43 45 45
43 44 45 42 43 45 42 43 45 42 43 45 42 44 45 44 45 47 43 44 46
43 45 46 44 46 46 42 44 43 41 43 42 41 43 43 41 43 42 48 46 44
43 43 43 41 43 45 39 41 42 41 44 47 41 44 46 43 44 46 53 54 56
51 53 54 54 56 58 50 51 53 43 45 47 44 46 48 55 57 58 63 65 67
45 46 48 42 43 45 42 44 45 39 40 42 38 40 41 37 39 41 37 38 40
36 37 39 46 48 49 49 51 52 44 46 47 40 42 43 40 42 44 42 44 45
42 44 45 43 45 46 43 45 46 59 61 63 40 42 43 48 50 48 50 52 49
41 44 41 30 33 30 33 35 32 41 44 41 33 36 33 39 41 38 42 44 42
39 41 40 35 37 36 44 46 45 39 41 40 57 59 58 68 70 69 39 41 40
38 40 39 36 38 37 40 42 41 39 42 41 40 42 41 40 42 41 39 41 40
39 41 40 41 43 43 42 44 43 41 43 42 42 44 43 43 45 40 59 60 54
107 108 102 47 48 42 43 44 40 46 46 43 50 50 48 52 52 51 48 48 48
46 45 45 50 46 44 56 54 51 52 53 52 39 43 41 38 42 41 43 47 45
49 52 49 50 50 44 45 44 36 58 53 41 107 102 90 132 127 119 75 70 65
42 39 38 43 43 44 42 43 45 42 43 45 42 45 46 41 45 45 43 45 44
42 44 43 42 44 43 42 44 44 42 44 43 42 44 43 42 44 43 42 44 43
42 44 43 42 44 43 42 44 43 42 44 43 42 44 43 42 44 43 45 47 46
44 46 45 42 44 43 42 44 43 42 44 43 42 43 45 42 43 45 42 43 45
42 43 45 40 42 43 41 43 44 42 44 45 42 44 45 40 42 43 41 42 46
41 42 46 40 42 45 41 42 45 42 43 45 40 42 43 40 42 42 46 48 48
42 44 43 35 37 36 40 42 42 46 48 48 40 42 41 43 45 44 41 43 42
43 45 44 43 45 44 43 45 44 43 45 44 43 45 45 43 44 46 42 43 45
42 43 45 42 43 45 43 45 46 43 44 46 45 47 48 47 48 50 45 47 47
44 46 45 42 44 43 43 45 44 41 43 42 50 48 46 42 43 43 35 37 38
39 41 43 40 44 46 41 45 46 40 42 43 43 45 46 69 71 72 94 96 97
62 64 65 39 41 43 45 46 48 30 31 33 33 35 37 36 38 40 39 41 43
43 45 46 41 43 44 37 39 40 39 41 42 38 40 42 39 41 43 37 39 40
35 37 38 36 38 40 39 41 43 41 43 44 37 39 40 42 44 45 43 45 47
53 55 56 82 83 85 58 60 60 47 49 46 39 41 38 40 42 40 38 41 38
33 36 33 30 33 30 33 36 33 36 39 36 37 39 36 36 38 37 39 42 41
38 40 40 38 40 40 42 45 44 41 43 43 40 42 42 39 41 40 38 40 40
39 41 40 40 42 41 39 41 40 39 41 40 40 42 41 39 41 41 40 42 42
42 44 43 41 43 42 42 44 43 41 43 38 43 44 38 93 94 88 92 93 88
52 52 48 45 46 42 48 48 45 48 48 46 53 54 52 55 54 52 49 46 43
50 48 46 47 48 47 46 48 48 44 46 45 42 44 41 42 42 38 41 40 34
56 54 45 132 128 116 149 144 133 55 50 43 40 37 33 47 44 44 44 43 45
42 43 45 42 43 45 42 45 45 41 45 44 43 45 44 42 44 43 42 44 43
42 44 44 42 44 43 42 44 43 42 44 43 42 44 43 42 44 43 41 43 42
41 43 42 41 43 43 42 44 43 42 44 43 44 46 45 43 45 44 42 44 43
42 44 43 42 44 44 42 43 45 42 43 45 42 43 45 42 43 45 40 42 43
41 43 44 42 44 45 42 44 45 40 42 43 41 43 46 42 43 47 41 42 45
41 42 44 42 43 45 42 44 44 46 49 48 41 43 42 47 49 48 79 81 79
64 66 65 41 43 42 39 41 41 43 45 44 43 45 44 43 45 44 43 45 44
43 45 44 43 45 44 43 45 45 43 44 46 42 43 45 42 43 45 42 44 45
44 46 47 41 43 44 43 45 46 43 45 47 42 44 44 43 45 44 41 43 42
41 43 42 39 41 40 66 65 64 52 52 52 42 43 45 43 44 46 39 42 43
41 43 44 38 40 42 42 44 45 43 44 46 38 39 41 36 38 40 39 41 42
35 36 38 45 46 48 36 37 39 37 39 40 39 41 42 44 46 47 45 47 48
39 41 43 40 42 43 34 35 37 37 39 40 38 40 41 36 38 40 38 40 42
40 42 43 44 45 47 50 52 53 38 39 41 45 47 48 40 42 44 49 51 52
48 50 50 44 46 44 44 47 44 37 39 37 52 54 51 71 74 71 37 39 36
39 41 38 34 37 34 39 41 38 40 43 41 42 44 44 39 41 40 40 43 42
37 39 39 38 41 40 41 43 42 36 38 37 40 42 41 40 43 42 38 40 39
38 40 39 39 41 40 39 41 41 40 42 41 40 42 42 41 43 42 40 42 41
40 42 41 44 45 41 37 38 33 51 52 47 63 64 59 54 54 50 48 48 44
44 45 42 42 42 40 64 64 62 72 72 69 50 48 45 45 44 42 49 50 48
58 61 59 43 45 44 41 43 39 50 51 45 44 41 33 88 84 75 102 98 87
85 81 71 52 49 42 52 50 46 44 42 42 43 43 45 42 43 45 42 43 45
42 45 45 42 45 44 43 45 44 42 44 43 42 44 43 42 44 44 42 44 43
42 44 43 42 44 43 42 44 43 42 44 43 40 42 42 40 42 42 41 43 43
42 44 43 43 45 44 42 44 43 41 43 42 40 42 41 41 43 42 41 43 43
42 43 45 42 43 45 42 43 45 42 43 45 40 42 43 41 43 44 42 44 45
42 44 45 40 42 43 40 41 44 40 41 44 39 41 43 41 42 44 42 44 43
40 42 42 39 41 41 44 47 45 103 105 103 108 110 108 48 51 50 41 43 43
46 48 48 43 46 45 42 44 43 43 45 44 43 45 44 43 45 44 43 45 44
43 45 45 43 44 46 42 43 45 42 43 45 42 43 45 42 43 45 42 44 45
43 45 46 44 46 47 44 46 46 42 44 43 41 43 42 41 43 42 40 42 41
46 46 45 44 44 45 37 39 40 39 40 42 37 39 41 39 41 43 34 36 37
37 39 40 40 41 43 44 46 47 38 40 41 37 39 40 40 41 43 40 42 44
39 41 42 39 40 42 37 39 40 37 39 40 41 43 44 39 41 42 40 41 43
41 42 44 39 41 42 38 39 41 39 41 43 39 41 42 37 39 40 39 41 43
53 55 57 50 51 53 45 47 48 40 42 43 41 43 44 42 44 45 41 43 41
43 46 43 55 58 55 74 76 74 58 60 57 57 59 57 39 42 39 39 41 39
37 39 36 39 41 39 37 39 39 40 42 41 38 40 39 41 43 43 40 42 41
37 39 39 41 43 42 40 42 42 37 39 38 38 40 40 39 41 40 39 42 41
40 42 41 40 42 42 40 42 42 41 43 42 39 41 40 41 42 42 42 43 41
41 42 38 42 43 39 53 53 49 45 46 42 46 47 43 46 47 43 47 48 44
58 59 56 66 66 63 57 55 52 47 45 44 51 52 49 45 47 44 45 47 44
42 43 39 45 44 37 59 56 46 124 119 109 152 149 139 90 89 81 43 42 37
44 43 41 44 43 44 43 43 45 42 43 45 42 43 45 42 44 44 42 44 43
42 44 43 42 44 43 42 44 43 42 44 44 42 44 43 42 44 43 42 44 43
42 44 43 42 44 43 41 43 42 40 42 41 41 43 43 43 45 44 42 44 44
40 42 42 40 42 41 40 42 42 40 42 42 41 43 43 42 43 45 42 43 45
42 43 45 42 43 45 40 42 43 41 43 44 42 44 45 42 44 45 41 43 44
39 40 42 40 41 43 39 40 42 41 43 43 44 46 45 42 44 43 45 47 46
106 109 107 140 142 140 75 77 75 42 44 43 44 46 46 43 45 45 46 49 48
44 46 46 43 45 44 43 45 44 43 45 44 42 44 43 43 45 46 43 45 46
42 43 45 42 43 45 42 43 45 40 42 43 43 45 46 43 45 46 46 48 50
49 51 52 44 46 45 41 43 43 42 44 43 41 43 42 53 54 54 55 56 56
44 46 48 45 47 49 40 42 43 39 41 42 38 40 41 36 37 39 37 39 41
38 40 42 40 42 44 37 38 40 39 41 43 42 44 46 39 41 42 40 42 44
41 42 44 39 40 42 40 41 43 41 43 45 41 42 44 40 41 43 40 41 43
39 40 42 38 40 42 37 39 40 39 41 42 37 39 40 38 40 41 42 44 45
53 55 56 52 54 56 41 43 44 35 37 37 42 44 42 53 55 53 71 73 70
48 51 48 72 75 72 158 160 158 64 67 64 101 104 101 63 65 63 35 37 35
37 40 39 38 40 39 38 40 39 40 42 42 39 41 40 39 42 41 40 42 41
40 42 41 41 43 42 38 41 40 41 43 42 41 43 42 39 41 40 38 40 39
40 42 42 43 45 44 34 36 36 39 41 40 31 32 31 46 46 44 38 38 36
43 44 40 67 68 63 34 35 31 50 50 46 58 59 55 48 48 44 55 54 50
64 63 60 61 60 58 45 45 43 45 47 44 45 47 43 48 48 43 46 44 35
76 71 60 159 153 141 201 198 189 112 113 106 40 42 37 42 43 41
44 44 46 43 44 46 43 44 46 42 44 44 42 44 43 42 44 43 42 44 43
42 44 43 42 44 43 43 45 44 42 44 43 42 44 43 42 44 43 42 44 43
42 44 43 42 44 43 41 43 42 42 44 43 43 45 45 43 45 44 40 42 42
41 43 42 42 44 43 42 44 43 42 44 43 41 42 44 42 43 45 42 43 45
41 43 44 41 43 44 42 43 45 42 43 45 42 43 45 42 43 45 43 45 47
36 38 39 42 44 44 41 43 43 35 37 37 52 54 53 131 134 131 166 169 165
60 63 60 46 49 46 42 44 43 42 44 44 44 46 46 45 47 46 45 47 46
46 48 48 49 51 51 52 54 54 51 53 53 48 50 51 46 48 49 44 46 47
44 45 47 44 45 47 42 44 46 41 42 44 43 44 46 46 48 49 50 52 52
48 50 49 42 44 43 41 43 42 40 42 41 40 41 43 36 38 39 37 39 41
40 42 44 42 43 45 39 41 42 37 38 40 37 38 40 38 40 42 40 42 44
41 42 44 38 40 41 39 41 43 40 42 44 38 40 41 39 41 43 40 42 44
39 41 42 41 43 44 43 45 47 42 43 45 39 40 42 37 39 41 39 41 43
41 43 45 39 41 42 38 40 42 40 42 44 40 42 44 38 40 41 38 40 41
42 44 45 53 55 56 65 67 68 52 54 52 60 63 60 59 61 59 90 92 89
105 107 104 69 72 69 75 77 74 88 91 88 42 44 42 40 42 41 42 45 44
41 43 42 37 39 38 40 42 41 39 41 41 41 43 43 42 45 44 41 43 42
40 42 41 40 42 41 44 46 45 46 48 47 41 43 43 39 41 40 39 41 40
39 42 41 43 45 44 40 42 41 41 42 40 47 47 46 40 40 39 65 65 63
67 68 64 110 111 107 93 94 89 63 64 59 65 66 59 61 61 56 72 70 68
54 54 52 48 49 47 45 47 44 45 46 43 41 41 35 45 41 32 111 105 93
179 171 159 183 181 172 61 64 58 40 43 39 43 45 45 42 43 45 43 44 47
43 44 46 43 45 45 42 44 43 42 44 43 44 46 45 43 45 44 42 44 43
42 44 43 42 44 43 42 44 43 42 44 43 42 44 43 42 44 43 43 45 44
40 42 42 41 43 42 43 45 45 45 47 46 45 47 46 43 45 44 41 43 42
41 43 43 42 44 43 41 42 44 42 43 45 42 43 45 41 43 44 41 43 44
42 43 45 42 43 45 42 43 45 42 43 45 39 41 42 43 45 45 41 43 42
43 45 44 48 50 49 130 132 130 145 147 144 67 70 65 40 42 38 41 44 40
42 44 43 41 43 43 43 45 45 44 46 45 43 45 44 42 44 43 42 44 44
45 47 46 46 48 47 47 49 49 46 48 49 46 47 49 46 47 49 46 47 49
43 45 47 41 42 44 43 44 46 45 47 48 46 48 49 49 51 50 44 46 45
43 45 44 42 44 43 37 38 40 40 42 44 41 42 44 39 41 43 38 39 41
38 40 41 40 41 43 40 41 43 40 42 44 40 42 44 39 41 42 39 40 42
39 40 42 39 40 42 38 39 41 42 43 45 39 41 42 38 40 42 46 48 49
51 53 54 45 47 48 40 42 43 38 40 42 40 42 44 41 42 44 42 43 45
40 42 43 40 41 43 39 41 42 39 41 42 36 38 39 39 41 42 46 48 49
50 52 53 44 46 43 40 43 40 42 44 41 55 57 54 69 72 69 49 51 48
59 62 59 67 70 67 61 63 60 46 49 47 43 45 44 40 42 41 38 40 39
41 43 43 40 42 41 41 43 43 44 46 45 43 45 44 41 43 42 41 43 42
41 43 42 41 43 42 41 43 42 41 43 42 41 43 42 40 42 41 51 54 53
41 43 43 50 51 51 38 38 38 95 95 94 131 132 129 62 62 59 89 89 85
136 136 131 126 127 121 88 89 82 53 53 47 51 50 48 47 47 45 46 46 44
38 39 37 45 44 41 44 42 36 72 67 58 135 128 115 175 166 153
157 155 147 52 55 51 41 44 42 39 41 41 43 45 47 44 45 48 44 45 47
43 45 45 43 45 43 43 45 43 44 46 45 44 46 45 43 45 44 42 44 43
42 44 43 42 44 43 42 44 43 42 44 43 42 44 43 42 44 44 40 42 42
41 43 42 45 47 46 46 48 48 44 46 45 42 44 43 40 42 41 40 42 41
41 43 42 41 42 44 42 43 45 42 43 45 41 43 44 41 42 44 41 42 44
41 42 44 41 42 44 41 42 44 40 42 43 37 40 39 42 44 43 42 44 43
77 80 77 137 140 137 69 72 68 42 45 40 41 44 39 43 45 42 43 45 44
42 44 44 44 46 46 44 46 45 44 46 46 43 45 44 43 45 44 44 46 45
43 45 45 42 44 45 42 44 45 43 45 46 45 47 48 46 48 49 43 45 46
45 47 48 43 44 46 43 44 46 45 47 48 48 50 49 47 49 48 44 46 45
43 45 44 38 39 41 37 38 40 36 38 39 37 39 41 40 41 43 39 41 42
41 42 44 41 42 44 39 40 42 38 39 41 37 38 40 38 39 41 38 40 41
38 40 42 39 41 43 43 44 46 40 42 43 39 40 42 45 47 48 51 52 54
49 51 52 44 46 47 41 42 44 40 41 43 39 41 43 48 50 51 46 48 49
39 41 42 39 40 42 37 39 40 39 41 43 48 50 51 47 49 50 35 37 37
41 44 42 51 53 51 45 47 44 44 46 44 36 38 35 126 129 126 155 157 155
80 82 79 37 40 37 54 56 55 48 50 49 39 41 41 40 42 42 40 42 41
41 43 43 42 45 44 43 45 44 43 45 44 44 46 45 41 43 42 40 42 41
39 41 40 40 42 42 43 45 44 40 42 41 53 55 55 100 102 102 65 67 66
56 57 56 53 53 53 89 89 88 107 107 105 75 75 73 43 43 39 38 38 33
40 41 35 73 74 67 104 104 98 63 62 59 66 66 64 54 54 52 47 47 45
40 39 36 57 55 48 113 108 98 153 145 133 88 78 64 48 47 38 38 42 38
40 44 42 40 43 44 43 44 48 44 45 48 44 45 47 44 46 46 43 45 43
43 45 42 43 45 44 43 45 45 44 46 45 44 46 45 43 45 44 42 44 43
42 44 43 42 44 43 42 44 43 42 44 43 41 43 42 43 45 44 46 48 47
46 48 47 44 46 45 44 46 45 43 45 44 41 43 42 41 43 42 41 42 44
42 43 45 42 43 45 41 43 44 41 42 44 41 42 44 41 42 44 41 42 44
41 42 44 39 41 41 40 42 42 38 40 39 61 63 61 137 140 137 76 78 75
43 46 42 39 42 37 42 44 40 43 45 42 43 45 44 42 44 43 43 45 44
42 44 43 40 42 41 40 42 42 43 45 44 45 47 47 43 46 45 43 45 46
42 44 45 42 44 45 43 44 46 44 46 47 44 46 47 45 47 48 46 47 49
46 47 49 45 46 47 46 48 48 47 50 49 44 46 45 43 45 44 39 40 42
41 43 44 37 39 40 36 38 40 37 39 41 38 40 42 40 41 44 41 42 45
40 42 44 40 41 43 37 39 40 38 40 40 38 40 40 37 39 39 39 41 42
41 43 43 41 43 43 39 41 41 40 42 42 44 46 46 52 54 54 40 42 42
46 48 48 37 39 39 42 44 44 44 46 46 47 49 50 47 49 49 40 41 42
40 42 42 49 51 51 43 45 45 42 44 44 38 40 40 38 41 39 39 41 40
39 41 40 49 51 50 42 45 43 52 54 53 52 54 53 46 48 47 44 46 45
71 73 72 58 60 60 57 60 59 56 58 57 44 46 45 44 46 45 44 46 45
42 44 43 42 45 44 43 46 45 44 46 45 42 44 43 41 43 42 41 43 43
46 48 47 46 49 48 43 45 45 56 58 57 61 64 63 61 62 59 94 95 92
126 127 124 94 94 91 46 47 44 43 43 42 47 47 45 47 47 45 51 51 50
51 51 48 70 70 62 69 68 66 53 50 52 54 49 51 49 45 40 98 94 82
133 129 113 130 127 115 66 62 56 44 44 41 44 47 45 41 44 42 40 43 43
42 44 45 43 45 46 43 45 45 42 44 44 43 45 44 43 45 44 42 44 43
43 45 44 44 46 45 43 45 44 43 45 45 44 46 45 44 46 45 44 46 45
44 46 45 42 44 43 41 43 42 42 44 43 42 44 43 42 44 43 43 45 45
42 44 43 48 50 49 49 51 50 45 47 47 42 44 44 44 46 46 42 44 44
37 39 40 40 42 42 40 42 42 40 41 42 41 43 43 41 43 43 41 43 42
39 41 40 44 46 45 66 68 67 54 56 55 42 44 42 41 43 41 42 44 41
42 44 42 42 44 42 42 44 43 43 45 44 43 45 44 42 44 43 42 44 43
42 44 43 42 44 43 43 45 44 43 45 44 42 44 44 43 45 45 43 45 44
43 45 45 44 46 45 44 46 45 43 45 45 44 46 45 43 45 46 43 45 46
46 48 48 45 47 47 44 45 46 44 45 46 39 40 42 40 41 43 37 39 40
37 38 40 38 40 42 39 40 43 39 41 44 39 40 44 37 39 42 39 41 43
46 48 49 41 44 44 40 42 41 40 42 42 39 41 40 39 41 40 38 40 39
37 39 38 38 41 40 39 41 41 51 53 52 45 47 46 39 41 41 39 41 41
34 36 35 49 51 50 40 42 42 47 49 48 44 46 45 55 57 56 52 54 54
37 39 39 39 41 40 42 44 43 41 43 42 39 41 40 37 39 39 45 47 46
78 80 79 74 76 76 41 43 43 49 51 50 48 50 50 53 55 54 50 52 51
70 73 72 71 73 72 56 58 57 42 44 44 41 43 42 40 42 41 41 43 42
42 44 43 45 47 46 43 45 44 42 44 43 43 45 45 47 49 48 51 53 52
50 52 51 48 50 50 49 51 49 45 47 42 83 84 79 99 100 96 53 53 50
42 43 41 41 41 40 43 43 43 45 45 46 50 50 52 49 49 47 85 86 77
68 66 65 50 44 49 58 51 54 65 58 52 113 108 92 125 122 103
149 149 138 76 76 75 40 41 42 43 45 44 42 44 43 42 44 43 42 44 43
43 45 44 43 45 44 42 44 43 43 45 44 43 45 45 42 44 43 43 45 45
44 46 45 43 45 44 43 45 45 44 46 45 44 46 45 44 46 45 44 46 45
42 44 43 41 43 42 42 44 43 42 44 44 43 45 44 47 49 49 46 48 47
47 49 49 53 55 54 48 50 49 43 45 44 41 43 42 44 46 45 44 46 45
42 44 43 41 43 42 41 43 43 42 44 43 41 43 42 40 42 41 44 46 45
53 55 54 50 52 51 40 42 42 42 44 43 42 44 43 42 44 43 42 44 43
42 44 43 42 44 43 43 45 44 43 45 44 42 44 43 42 44 43 42 44 43
42 44 43 42 44 44 43 45 44 42 44 43 42 44 44 43 45 44 43 45 45
44 46 45 44 46 45 43 45 44 43 45 44 42 44 43 42 44 44 42 44 45
42 43 45 42 44 45 43 45 46 39 40 42 38 39 41 37 38 40 37 39 41
39 41 43 38 39 42 39 41 44 37 38 42 39 40 43 39 40 42 40 42 43
46 48 48 43 46 45 41 44 43 43 45 44 40 42 41 40 42 41 40 43 42
40 42 41 42 44 43 60 62 62 39 41 40 44 46 46 47 49 48 59 61 60
53 55 54 43 45 44 35 38 37 43 45 44 49 51 50 45 47 46 39 42 41
42 44 44 38 40 40 35 37 36 39 41 40 40 42 42 36 38 38 64 66 66
71 73 73 49 52 51 59 61 60 53 55 55 48 50 50 43 45 45 42 44 44
35 37 36 39 41 40 39 41 40 39 41 40 39 42 41 40 43 42 42 44 43
45 47 46 44 46 45 43 45 44 45 47 47 46 48 47 46 48 47 42 45 44
40 42 42 46 48 47 55 57 53 62 63 58 60 61 57 65 66 63 51 51 49
48 48 47 48 48 47 50 50 50 49 49 50 51 51 50 100 101 94 62 59 59
53 48 51 43 37 37 101 95 87 89 85 70 157 155 139 159 158 149 43 43 42
43 44 44 43 45 44 43 45 44 42 44 43 42 44 43 44 46 45 43 45 44
43 45 44 43 45 45 43 45 45 42 44 44 43 45 45 44 46 45 44 46 45
44 46 45 44 46 45 44 46 45 44 46 45 44 46 45 43 45 44 43 45 44
43 45 44 43 45 44 43 45 44 44 46 45 49 51 50 49 51 50 57 59 58
51 53 52 46 48 48 43 45 44 44 46 45 46 48 47 40 42 42 41 43 42
42 44 43 40 42 41 40 42 41 41 43 42 50 52 52 51 53 53 41 44 43
43 45 44 42 44 43 42 44 43 42 44 43 42 44 43 42 44 43 42 44 43
43 45 44 43 45 44 42 44 43 42 44 43 42 44 43 42 44 43 42 44 44
43 45 44 42 44 43 42 44 44 43 45 44 43 45 45 44 46 45 45 47 46
43 45 44 43 45 44 41 43 42 41 43 43 42 43 45 42 43 45 42 44 45
43 45 46 39 40 42 38 39 41 38 40 42 39 40 42 39 40 42 37 39 41
40 42 45 39 41 44 48 49 53 37 39 40 44 46 47 45 47 47 53 55 54
59 61 60 40 42 41 38 40 39 38 41 40 41 43 43 40 42 41 43 46 45
77 79 78 45 47 46 50 52 51 52 54 53 88 91 90 33 35 35 41 44 43
44 46 45 41 43 42 42 44 43 39 41 40 38 41 40 40 42 42 36 38 37
42 44 43 39 41 40 37 40 39 40 42 41 49 51 50 50 52 51 42 44 44
45 47 47 61 63 62 52 54 53 49 51 50 50 52 51 40 42 42 42 44 43
42 44 43 42 44 43 41 44 43 42 44 43 43 45 44 45 47 46 44 46 45
43 45 44 44 46 46 43 45 44 43 45 44 48 50 50 48 50 50 48 50 49
52 53 50 52 53 49 53 53 51 51 51 49 45 45 43 44 44 42 47 47 46
49 49 49 50 50 50 67 67 66 167 168 163 79 78 75 46 42 42 91 86 84
103 98 89 89 85 71 213 211 197 111 110 103 45 46 44 45 46 46 44 46 45
43 45 44 43 45 44 43 45 44 44 46 45 44 46 45 44 46 45 44 46 46
44 46 46 43 45 44 44 46 46 45 47 46 45 47 46 44 46 45 44 46 45
44 46 45 44 46 45 44 46 45 44 46 46 44 46 45 43 45 44 41 43 42
40 42 41 43 45 44 48 50 49 49 51 50 51 53 52 52 54 53 44 46 45
40 42 41 41 43 42 42 44 44 41 43 42 41 43 42 40 42 42 39 41 40
41 44 43 53 55 54 53 55 54 41 43 43 43 45 44 41 43 42 42 44 43
42 44 43 42 44 43 42 44 43 42 44 43 42 44 43 43 45 44 43 45 44
42 44 43 42 44 43 42 44 43 42 44 43 42 44 44 43 45 44 42 44 43
42 44 44 43 45 44 43 45 45 44 46 45 43 45 44 43 45 44 43 45 44
43 45 44 43 45 46 45 46 48 43 45 46 42 44 45 42 44 45 40 41 43
39 40 42 39 40 42 39 40 42 37 38 40 37 39 41 41 43 46 43 45 48
59 61 64 37 38 40 40 42 43 66 68 69 55 57 56 42 44 44 46 48 47
40 42 42 41 43 42 45 47 47 43 45 44 50 52 51 64 66 65 45 47 46
44 46 45 38 41 40 38 40 40 40 42 42 43 45 44 37 40 39 41 44 43
39 41 41 43 45 44 46 48 47 43 45 45 40 42 41 41 43 42 40 42 41
40 42 41 40 42 41 40 42 41 35 37 37 42 44 43 40 42 42 52 54 53
43 45 44 42 44 44 42 44 44 37 39 39 41 43 43 42 45 44 42 44 43
41 43 42 41 43 42 42 44 43 45 47 46 43 45 44 41 43 42 41 43 43
43 45 44 43 45 44 45 47 47 49 51 50 47 49 48 43 44 42 46 46 44
50 50 48 47 47 45 48 48 46 46 47 45 45 46 44 44 44 42 55 55 54
76 77 76 48 50 47 57 58 54 84 82 77 59 55 47 85 81 69 144 141 129
182 180 169 51 52 46 45 47 45 44 46 45 44 46 45 44 46 45 43 45 44
43 45 44 45 47 46 44 46 45 44 46 45 44 46 46 44 46 46 43 45 45
44 46 46 45 47 46 45 47 46 44 46 45 44 46 45 44 46 45 44 46 45
44 46 45 41 43 43 40 42 42 41 43 43 42 44 44 43 45 44 41 43 42
40 42 42 46 48 47 52 55 54 75 77 76 63 65 65 39 41 40 42 45 44
40 42 41 42 44 44 43 45 44 41 43 43 40 42 42 47 49 49 56 58 58
42 44 43 42 44 43 41 43 42 42 44 43 42 44 43 42 44 43 42 44 43
42 44 43 42 44 43 42 44 43 43 45 44 43 45 44 42 44 43 42 44 43
42 44 43 42 44 43 42 44 44 43 45 44 42 44 43 42 44 44 43 45 44
43 45 45 44 46 45 42 44 43 42 44 44 43 45 44 44 46 45 43 45 45
41 42 44 41 42 44 41 43 44 42 44 45 42 44 46 38 39 41 37 38 40
37 38 40 37 39 41 39 41 44 36 38 41 41 43 46 29 31 34 56 58 59
68 70 71 53 55 55 46 48 48 36 38 37 41 43 42 38 40 40 41 43 43
41 43 43 40 42 42 63 65 65 54 56 56 39 41 41 43 45 44 37 39 39
39 41 41 39 41 40 39 42 41 40 42 41 40 43 42 39 41 40 43 45 45
42 44 43 39 41 40 39 41 41 40 43 42 41 43 42 40 42 41 39 41 40
38 40 39 40 42 42 40 42 41 41 43 42 52 54 53 82 84 83 65 67 66
41 43 43 41 43 42 41 43 42 40 42 41 40 42 41 41 44 43 41 43 42
39 41 40 39 41 40 42 44 44 41 44 43 44 46 45 42 44 43 44 46 45
46 48 47 46 48 48 47 49 48 51 51 51 52 52 51 51 51 50 49 49 47
46 46 44 42 42 40 42 42 40 47 47 45 49 50 48 50 51 49 44 45 45
49 50 45 51 51 40 85 83 69 170 168 154 203 201 191 92 91 84 43 44 41
43 45 43 44 46 46 43 45 44 43 45 44 43 45 44 43 45 44 44 46 45
44 46 45 44 46 45 44 46 45 44 46 45 45 47 46 45 47 46 44 46 45
44 46 45 45 47 46 46 48 47 46 48 47 44 46 45 43 45 44 41 43 42
41 43 42 41 43 42 41 43 42 41 43 42 43 45 44 42 44 43 43 45 44
46 48 47 55 57 56 62 65 64 47 49 48 44 46 45 44 46 45 43 45 44
43 45 44 40 42 41 43 45 45 53 55 54 46 48 47 42 44 43 42 44 43
42 44 43 43 45 44 41 44 43 44 46 45 42 44 43 40 43 42 43 46 45
43 45 44 43 45 44 43 45 44 43 45 44 41 44 43 41 43 42 41 43 42
41 43 42 41 43 42 41 43 42 41 43 42 42 44 43 43 45 44 43 45 44
44 46 45 43 45 44 43 45 44 43 45 44 40 42 43 39 40 42 42 43 45
43 44 46 42 44 45 41 43 45 43 44 46 40 42 43 40 41 43 39 40 42
40 42 45 36 38 41 40 42 45 36 37 40 56 58 59 75 77 78 41 43 43
37 39 38 41 43 42 37 39 38 37 39 38 42 44 43 40 42 41 38 40 40
79 81 80 47 49 48 37 39 39 41 43 43 43 45 45 40 42 41 40 42 41
40 42 41 40 43 42 41 43 42 40 42 41 40 42 41 40 42 41 40 42 41
40 42 41 39 41 40 39 42 41 41 43 42 40 42 41 39 41 40 38 41 40
37 39 38 35 38 37 40 42 41 46 48 47 42 44 44 38 40 40 40 43 42
40 42 41 40 42 42 40 42 41 41 44 43 42 44 43 39 41 40 44 46 46
43 45 45 42 44 43 43 45 44 58 60 60 63 65 65 42 44 43 43 45 45
47 49 48 49 49 49 49 49 49 49 49 49 49 49 48 47 48 46 45 46 44
43 43 41 45 46 43 61 62 58 64 65 64 40 41 43 46 47 41 67 68 53
152 151 133 204 202 187 172 169 161 48 46 44 45 46 44 45 47 45
42 44 43 43 45 44 43 45 44 43 45 44 43 45 44 44 46 45 44 46 45
44 46 45 44 46 45 44 46 45 43 45 45 44 46 45 44 46 46 45 47 46
44 46 46 44 46 46 45 47 46 44 46 45 43 45 44 41 43 43 41 43 42
41 43 42 41 43 42 41 43 42 41 43 42 41 43 42 41 43 43 42 44 43
48 50 49 57 59 58 48 50 50 42 44 43 41 43 42 41 43 42 42 44 44
39 41 40 58 60 59 54 56 56 43 45 44 42 44 43 42 44 43 42 44 43
43 45 44 41 44 43 43 45 45 41 43 43 41 43 42 43 45 44 43 45 44
43 45 44 43 45 44 43 45 44 42 44 43 42 44 43 42 44 43 42 44 43
42 44 43 42 44 43 42 44 43 42 44 44 43 45 44 43 45 44 43 45 44
43 45 44 43 45 44 42 44 43 41 43 43 40 41 43 40 41 43 40 42 43
41 43 44 40 41 43 43 44 46 41 42 44 38 40 41 38 39 41 37 38 41
36 38 41 43 45 48 38 39 43 38 39 41 46 47 49 45 47 47 42 44 44
36 38 37 39 41 41 37 39 39 40 42 41 42 44 44 37 39 38 76 78 77
44 46 46 38 40 39 37 39 38 43 45 45 38 40 40 40 42 41 41 43 42
41 43 42 41 44 43 41 43 42 40 42 41 39 41 40 39 42 41 40 42 41
38 41 40 39 42 41 40 43 42 41 43 42 40 42 41 40 43 42 41 43 42
39 41 40 38 41 40 39 41 40 39 42 41 41 43 42 40 42 41 39 41 40
41 43 42 40 42 41 40 43 42 41 44 43 40 42 41 41 43 43 42 44 44
43 45 45 49 51 50 54 56 55 55 57 56 52 54 54 49 51 51 44 46 45
48 49 50 48 48 49 47 47 48 46 46 46 45 45 43 44 44 42 46 47 44
44 44 40 52 52 48 65 66 64 47 49 54 45 46 40 103 104 86 185 186 164
202 201 185 103 102 95 45 43 44 45 45 46 47 50 48 43 46 44 43 45 44
43 45 44 43 45 44 43 45 44 43 45 44 43 45 44 43 45 44 43 45 44
43 45 44 43 45 44 43 45 45 44 46 46 46 48 47 44 46 45 43 45 44
44 46 45 44 46 45 44 46 45 43 45 44 43 45 44 43 45 44 43 45 44
43 45 44 42 44 43 42 44 44 42 44 43 42 44 43 42 44 43 46 48 48
48 50 50 44 46 46 43 45 44 43 45 45 40 42 41 43 45 44 54 56 56
48 50 49 43 45 44 42 44 43 42 44 43 42 44 43 43 45 44 42 44 43
43 45 44 42 44 43 42 44 43 43 45 44 43 45 44 43 45 44 43 45 44
43 45 44 42 44 43 42 44 43 42 44 43 42 44 43 42 44 43 42 44 44
43 45 44 43 45 44 43 45 44 43 45 44 43 45 44 42 44 43 42 44 43
41 43 42 41 43 43 40 42 43 39 41 42 39 41 42 41 43 44 40 41 43
42 43 45 39 41 42 37 38 40 36 37 39 37 39 42 39 40 44 38 39 43
36 38 41 40 42 44 43 45 47 38 40 40 38 41 40 41 43 42 39 41 40
38 40 40 38 40 40 43 45 44 39 41 41 61 63 63 39 41 41 37 39 39
39 41 40 45 47 46 40 42 42 41 43 42 41 43 42 41 44 43 42 44 43
41 43 42 44 47 46 41 43 43 37 40 39 40 42 42 39 41 40 40 43 42
41 43 42 40 42 41 40 42 41 39 41 40 40 42 41 40 42 41 39 41 40
39 41 40 39 41 40 39 42 41 41 44 43 41 43 42 41 44 43 39 41 40
40 42 41 41 43 42 41 43 42 49 51 51 51 53 53 44 46 45 48 50 50
42 44 43 43 46 45 54 57 56 51 53 52 45 47 47 49 49 50 47 47 49
45 45 46 43 43 43 43 43 42 44 44 43 42 42 39 54 55 51 97 98 93
62 63 60 44 47 53 39 43 36 118 121 100 215 217 191 158 158 140
50 49 43 52 51 55 41 42 44 41 45 43 42 45 44 43 45 44 43 45 44
43 45 44 43 45 44 43 45 44 43 45 44 43 45 44 43 45 44 43 45 44
43 45 45 44 46 45 44 46 46 45 47 46 44 46 45 43 45 45 44 46 45
43 45 44 42 44 43 43 45 44 43 45 44 43 45 44 43 45 44 43 45 44
41 43 42 40 42 41 40 42 41 40 42 42 41 43 43 47 49 48 51 53 52
47 49 48 43 45 44 42 44 44 41 43 42 46 48 48 44 46 45 42 44 44
43 45 45 42 44 43 42 44 43 42 44 43 43 45 44 42 44 43 42 44 43
42 44 43 42 44 43 42 44 44 43 45 44 43 45 44 43 45 44 43 45 44
43 45 44 43 45 44 43 45 44 43 45 44 43 45 44 44 46 45 44 46 45
43 45 44 43 45 44 43 45 44 42 44 43 42 44 43 41 43 42 41 43 42
41 43 43 42 43 45 42 43 45 42 43 45 42 43 45 40 41 43 41 42 44
39 40 42 38 39 41 38 39 41 34 36 38 39 41 44 42 43 46 40 42 45
42 44 46 39 41 42 42 44 45 41 43 43 38 40 40 36 38 37 40 42 41
41 42 41 40 42 41 44 46 45 57 58 58 43 44 44 40 42 42 39 41 41
39 40 40 39 41 41 41 43 42 41 43 42 42 44 43 42 44 43 40 42 42
51 53 52 44 46 46 35 37 37 41 43 43 40 43 42 41 43 42 40 42 41
39 41 40 40 42 41 43 45 44 42 44 43 42 44 43 41 43 42 42 44 43
40 42 41 41 44 43 44 46 45 40 42 42 42 44 43 39 41 40 39 42 41
40 43 42 41 43 42 47 49 47 52 53 51 41 42 41 46 47 46 43 44 43
45 47 45 48 49 47 49 50 48 50 51 50 46 47 47 45 45 46 43 43 44
43 43 42 45 45 44 40 40 38 43 44 40 98 99 94 89 90 85 46 47 44
41 43 47 50 53 47 100 103 86 206 209 189 81 82 67 44 44 40 42 43 45
44 46 48 41 44 43 40 43 42 43 45 44 43 45 44 43 45 44 43 45 44
42 44 43 42 44 43 42 44 43 42 44 43 43 45 44 45 47 46 45 47 46
44 46 45 44 46 45 44 46 45 44 46 45 44 46 45 42 44 43 40 42 41
42 44 44 44 46 45 44 46 45 44 46 45 44 46 45 44 46 45 42 44 43
41 43 42 43 45 44 45 47 47 45 47 46 50 52 51 51 53 53 49 51 50
42 44 43 44 46 45 42 45 44 43 45 44 44 46 46 43 45 44 42 44 43
42 44 43 42 44 43 43 45 44 42 44 43 41 43 42 42 44 44 42 44 43
42 44 44 43 45 44 43 45 44 43 45 44 43 45 44 43 45 44 43 45 44
43 45 44 43 45 44 43 45 44 44 46 45 45 47 46 44 46 45 43 45 44
43 45 44 42 44 43 42 44 43 41 43 42 41 43 42 42 44 43 43 44 46
44 46 47 44 46 47 42 44 46 39 40 42 42 44 45 42 44 45 36 38 40
39 41 43 37 39 40 36 37 39 38 40 42 44 46 47 48 50 52 42 44 46
41 42 44 40 41 43 40 41 43 41 42 43 44 44 43 42 43 41 39 39 37
52 52 51 68 68 68 42 43 43 40 40 42 40 40 42 37 37 39 46 47 48
44 46 47 40 42 43 50 51 53 41 43 44 41 43 44 53 55 56 42 43 45
39 41 43 39 41 41 40 42 41 40 42 41 40 42 41 40 42 41 40 42 41
40 42 41 40 42 41 40 42 41 40 42 41 40 42 41 40 43 42 42 45 44
43 45 44 43 45 44 41 43 42 39 41 41 40 43 42 43 45 44 42 43 42
48 47 44 47 46 43 49 48 44 45 43 41 47 45 43 44 43 40 39 37 34
45 43 40 51 50 46 51 51 48 43 44 41 44 44 42 44 44 40 55 56 51
72 72 68 82 83 78 72 73 67 52 53 47 46 47 42 46 48 48 55 57 56
69 71 69 102 104 102 48 50 48 43 45 44 43 45 44 43 45 44 43 45 44
43 45 45 44 46 45 44 46 45 44 46 45 44 46 45 43 45 44 43 45 44
43 45 44 43 45 44 43 45 44 45 47 46 45 47 46 44 46 45 44 46 45
44 46 45 43 45 44 42 44 43 42 44 44 43 45 44 42 44 43 42 44 44
45 47 46 44 46 45 42 44 43 43 45 44 43 45 44 42 44 43 41 43 42
41 43 42 41 43 42 43 45 44 47 49 49 46 48 47 51 53 53 52 54 53
43 46 45 40 42 41 41 43 42 42 44 44 42 44 43 41 43 42 41 43 42
40 42 41 41 43 43 42 44 43 42 44 43 42 44 43 42 44 43 43 45 44
43 45 44 43 45 44 43 45 44 43 45 45 45 47 46 44 46 45 43 45 44
46 48 47 45 47 46 45 47 46 45 47 46 44 46 45 43 45 44 42 44 43
42 44 43 42 44 43 43 45 44 43 45 45 43 45 46 42 43 45 41 43 44
42 43 45 40 42 44 41 43 45 43 44 46 39 41 42 39 41 43 40 41 43
37 39 40 39 41 43 49 51 52 50 51 53 41 43 44 41 43 45 43 45 47
44 45 47 43 44 45 43 43 42 43 43 41 44 44 42 49 49 48 84 84 84
38 38 38 39 39 41 40 40 42 39 39 41 47 48 50 41 43 44 45 47 49
53 55 57 42 44 46 40 42 43 51 53 54 44 46 48 41 43 44 39 41 42
40 42 41 40 42 41 40 42 41 40 42 41 40 42 41 40 42 41 40 42 41
40 42 41 40 42 41 40 42 41 40 42 41 39 42 41 40 43 42 41 44 43
42 45 44 40 43 42 43 45 45 37 39 39 43 45 44 52 50 47 45 44 40
48 47 43 84 82 79 88 87 83 82 81 77 71 69 66 50 48 45 39 38 34
42 42 37 46 47 43 57 58 54 57 58 53 53 54 49 49 50 45 56 56 52
67 67 63 47 47 43 48 49 46 47 49 48 51 53 53 47 50 49 44 46 46
42 44 43 43 45 44 43 45 44 43 45 44 43 45 44 43 45 45 44 46 45
44 46 45 44 46 45 44 46 45 43 45 44 43 45 44 43 45 44 43 45 44
44 46 45 45 47 46 44 46 45 44 46 45 43 45 44 42 44 43 42 44 43
42 44 43 43 45 44 44 46 46 42 44 43 42 44 44 44 46 45 44 46 45
42 44 43 43 45 44 42 44 43 42 44 43 42 44 43 42 44 43 42 44 44
43 46 45 41 44 43 49 51 50 60 62 61 49 51 50 40 42 41 41 44 43
41 43 42 41 44 43 42 44 43 41 43 42 41 43 42 41 43 42 42 44 43
42 44 43 42 44 43 42 44 43 42 44 44 43 45 44 43 45 44 43 45 44
43 45 44 43 45 44 44 46 46 44 46 45 43 45 45 46 48 48 46 48 47
46 48 47 45 47 46 45 47 46 44 46 45 42 44 43 42 44 43 42 44 43
43 45 44 43 45 45 43 45 46 42 43 45 41 43 44 42 43 45 40 41 43
38 40 42 41 43 45 40 42 43 38 39 41 38 39 41 38 40 42 40 41 43
39 40 42 39 40 42 40 42 44 42 44 46 44 45 47 45 46 48 43 44 45
45 45 43 42 43 41 41 42 40 57 57 56 119 119 119 33 33 34 41 40 42
42 42 44 41 41 43 47 48 50 42 43 45 45 47 49 49 51 52 53 55 56
43 45 47 46 48 50 40 42 43 40 42 43 42 44 45 40 42 41 40 42 41
40 42 41 40 42 41 40 42 41 40 42 41 40 42 41 40 42 41 40 42 41
40 42 41 39 41 40 38 40 39 38 41 40 40 43 42 40 42 41 42 44 43
43 45 45 62 64 63 60 62 61 44 43 40 50 49 45 91 89 86 81 80 76
38 37 33 67 66 62 114 113 109 122 120 117 97 95 92 61 61 55 51 52 46
48 49 44 38 39 34 39 39 35 62 63 60 91 91 90 50 51 50 44 44 44
51 52 52 53 55 55 44 46 46 47 49 49 45 47 46 42 44 43 44 46 45
44 46 45 44 46 45 44 46 45 44 46 45 44 46 45 44 46 45 44 46 45
44 46 45 44 46 45 44 46 45 44 46 45 44 46 45 44 46 45 44 46 45
44 46 45 43 45 44 43 45 44 42 44 43 42 44 43 42 44 43 43 45 45
44 46 46 43 45 44 42 44 44 43 45 45 44 46 45 43 45 44 42 44 43
42 44 43 42 44 43 42 44 43 41 43 43 44 46 45 40 42 42 41 43 43
63 65 64 53 55 55 41 43 43 42 44 43 41 43 43 42 44 44 42 44 43
41 43 42 41 43 43 42 44 43 42 44 43 42 44 43 42 44 43 42 44 43
42 44 43 43 45 44 44 46 45 44 46 45 44 46 45 44 46 45 42 45 44
44 46 45 45 47 46 44 46 45 45 47 47 44 46 45 43 45 44 43 45 44
42 44 43 42 44 43 42 44 43 42 44 43 42 44 43 43 45 44 43 45 45
43 45 46 42 43 45 41 43 44 42 43 45 38 39 41 37 39 40 40 42 44
42 44 45 38 40 41 37 39 40 37 39 41 39 41 43 40 41 43 39 41 43
44 46 48 44 45 47 43 44 46 41 42 44 41 42 43 42 43 41 47 47 45
50 50 48 42 42 41 101 101 101 36 36 36 45 44 46 43 43 45 41 40 42
42 42 44 38 40 42 38 40 41 54 56 58 69 71 72 42 44 46 42 43 45
40 41 43 38 40 42 42 44 45 40 42 41 40 42 41 40 42 41 40 42 41
40 42 41 40 42 41 40 42 41 40 42 41 40 42 41 40 42 41 40 42 41
41 43 42 40 42 41 40 42 41 42 44 43 45 47 46 41 43 42 53 55 54
47 49 47 47 47 44 63 63 60 111 111 108 44 43 41 43 42 40 44 44 41
43 42 40 50 50 47 72 71 69 93 93 86 55 56 47 35 36 29 50 50 44
87 87 83 72 72 71 39 39 40 43 42 45 47 47 50 47 47 49 46 48 47
46 48 48 47 49 48 45 47 46 48 50 49 45 47 46 45 47 46 45 47 46
45 47 46 44 46 45 44 46 45 44 46 45 44 46 45 44 46 45 44 46 46
45 47 46 45 47 46 45 47 46 44 46 45 42 44 43 42 44 44 43 45 44
44 46 45 43 45 44 43 45 44 42 44 43 42 44 44 43 45 45 43 45 44
42 44 43 42 44 44 43 45 44 44 46 45 41 43 43 42 44 43 42 44 43
43 45 44 43 45 44 43 45 44 42 44 43 58 60 59 60 62 62 43 45 44
43 45 44 43 45 44 42 44 43 40 42 41 40 42 42 41 43 42 41 43 43
42 44 43 42 44 44 43 45 44 43 45 44 43 45 44 43 45 44 43 45 45
45 47 46 45 47 46 45 47 46 45 47 46 44 46 45 45 47 47 46 48 47
43 46 45 43 45 44 43 45 44 43 45 44 43 45 44 42 44 43 42 44 43
42 44 43 42 44 43 42 44 43 43 45 44 43 45 45 43 45 46 42 43 45
41 43 44 42 43 45 39 40 42 38 40 41 41 43 45 43 45 47 39 41 42
39 41 43 38 40 41 38 40 42 42 44 46 39 40 42 47 49 51 44 46 47
40 42 43 41 42 44 38 39 40 47 47 46 47 47 45 55 55 53 63 63 62
105 105 105 34 33 34 42 42 44 41 41 43 43 42 45 41 42 43 43 45 46
50 52 53 73 74 76 63 65 66 41 43 44 41 43 44 41 43 44 39 41 42
40 41 42 40 42 42 40 42 41 40 42 41 40 42 41 40 42 41 40 42 41
40 42 41 40 42 41 40 42 41 40 42 41 40 43 42 42 44 43 40 42 42
41 43 42 38 40 39 42 44 43 42 45 44 43 45 44 40 41 40 50 50 48
97 97 95 54 54 52 45 45 43 45 45 43 43 44 41 41 41 39 41 41 39
41 41 39 32 33 26 69 70 62 91 92 84 93 94 88 65 65 62 41 41 40
47 47 48 42 41 44 46 45 50 49 48 52 43 45 45 42 44 43 42 44 44
48 50 49 43 45 44 44 46 45 45 47 46 46 48 47 45 47 46 44 46 45
44 46 45 44 46 45 44 46 45 44 46 45 44 46 46 45 47 46 45 47 46
45 47 46 44 46 45 42 44 43 43 45 44 43 45 45 44 46 45 44 46 45
43 45 44 42 44 43 42 44 43 43 45 44 42 44 43 42 44 43 42 44 43
42 44 44 44 46 45 41 43 42 41 43 43 42 44 43 42 44 43 43 45 44
43 45 44 47 49 49 49 51 51 44 46 45 44 46 45 43 45 44 42 44 43
44 46 46 43 45 44 40 42 41 40 42 42 41 43 43 42 44 43 43 45 44
43 45 44 43 45 44 43 45 44 43 45 44 43 45 45 44 46 45 44 46 45
44 46 45 45 47 46 45 47 46 46 48 48 46 48 47 43 45 44 42 44 43
44 46 45 44 46 45 44 46 45 43 45 44 42 44 43 42 44 43 42 44 43
42 44 43 43 45 44 43 45 45 43 45 46 42 44 45 42 43 45 42 43 45
40 41 43 40 41 43 40 42 44 42 44 46 40 42 43 39 41 42 39 40 42
39 41 43 42 44 46 42 43 45 46 48 49 42 43 45 47 49 50 43 45 46
42 43 44 54 55 53 67 67 65 45 46 44 72 72 71 72 72 72 35 35 35
42 42 44 42 42 44 48 47 50 40 40 42 45 47 48 39 41 42 76 78 80
69 70 72 46 47 49 43 45 46 41 43 44 41 42 44 41 42 43 41 43 42
41 43 42 41 43 42 40 42 41 40 42 41 39 41 40 40 42 41 40 42 41
40 43 42 41 44 43 40 42 41 41 43 43 39 41 40 43 45 45 43 45 44
40 42 41 43 45 44 42 44 43 47 48 48 75 76 74 61 62 60 41 42 40
43 44 42 41 42 41 43 43 42 42 42 41 42 42 41 42 43 41 41 42 38
57 58 51 59 60 54 44 44 41 42 42 40 43 43 42 43 43 44 44 43 46
44 43 48 44 43 47 44 46 46 43 45 44 43 45 45 45 47 46 44 46 45
45 47 46 45 47 46 44 46 45 43 45 44 43 45 44 44 46 45 44 46 46
44 46 45 44 46 45 43 45 44 44 46 45 44 46 45 45 47 46 44 46 46
43 45 44 44 46 45 44 46 45 43 45 44 43 45 44 43 45 44 43 45 44
43 45 44 43 45 44 42 44 43 41 43 42 41 43 43 42 44 44 43 45 45
41 43 42 41 43 42 41 43 42 41 43 42 41 43 42 42 44 43 46 48 48
46 48 47 41 43 42 43 45 44 43 45 44 43 45 44 43 45 44 43 45 44
41 43 43 42 44 43 42 44 44 43 45 44 43 45 44 42 44 43 42 44 43
42 44 43 43 45 44 43 45 45 44 46 45 43 45 44 43 45 45 44 46 45
45 47 46 47 49 48 45 48 47 42 45 44 42 44 44 44 46 45 44 46 45
43 45 44 42 44 43 41 43 42 42 44 43 42 44 43 42 44 43 43 45 44
43 45 45 44 45 47 43 44 46 43 44 46 42 43 45 40 41 43 38 39 41
39 41 43 41 43 45 42 43 45 40 41 43 39 40 42 38 40 42 41 43 45
42 43 45 41 43 44 36 38 40 47 49 50 40 42 44 41 43 44 41 42 40
53 53 51 44 44 42 91 91 90 49 49 49 38 38 38 42 41 43 41 41 43
43 43 45 45 46 48 36 38 40 51 53 55 57 59 60 55 57 58 44 46 47
41 43 44 40 42 43 40 41 43 41 42 43 41 43 42 41 43 42 40 42 41
40 42 41 39 41 40 39 41 40 40 42 41 40 42 41 40 43 42 41 43 42
39 41 40 40 42 42 41 43 42 46 48 47 51 53 52 41 43 43 43 45 44
37 40 39 79 82 81 59 61 61 36 38 37 44 45 45 39 41 40 42 44 44
40 42 42 42 44 44 42 44 43 41 43 42 43 44 42 42 43 39 44 45 42
47 47 45 42 43 41 42 42 41 42 42 43 42 42 44 43 42 46 43 43 45
43 45 45 42 44 44 44 46 46 47 49 48 43 45 45 45 47 46 45 47 47
45 47 46 46 48 47 45 47 46 44 46 45 43 45 44 42 44 43 42 44 43
42 44 43 42 44 43 43 45 44 43 45 44 43 45 44 43 45 44 44 46 45
44 46 45 43 45 44 43 45 44 43 45 44 43 45 44 43 45 44 43 45 44
43 45 44 42 44 43 42 44 43 42 44 43 43 45 44 41 43 42 41 43 42
41 43 42 41 43 42 41 43 42 41 43 43 43 45 44 41 43 43 40 42 41
42 44 43 42 44 43 42 44 43 42 44 43 42 44 43 42 44 43 42 44 43
42 44 43 42 44 43 42 44 44 42 44 43 42 44 43 42 44 43 43 45 44
43 45 44 43 45 44 43 45 44 43 45 45 44 46 46 46 48 48 46 48 47
44 46 45 41 44 43 41 43 42 43 45 44 43 45 44 42 44 43 42 44 43
41 43 42 42 44 43 42 44 43 42 44 43 43 45 44 43 45 45 43 44 46
43 44 46 42 43 45 42 43 45 40 41 43 38 39 41 38 40 42 40 42 44
41 42 44 39 40 42 38 39 41 38 40 42 40 42 44 41 42 44 42 43 45
42 43 45 40 42 43 44 46 47 37 39 40 53 54 52 50 50 48 37 37 35
82 82 81 58 58 58 39 39 40 42 42 44 41 41 43 42 42 44 38 40 41
41 42 44 43 45 46 45 47 48 40 42 44 40 42 43 40 41 43 39 41 42
40 41 43 40 41 42 40 42 41 40 42 41 39 41 40 39 41 40 39 41 40
39 41 40 40 42 41 40 42 41 40 43 42 39 41 40 38 41 40 42 44 43
43 45 44 48 50 49 49 51 51 44 46 45 36 38 38 52 55 54 95 98 97
40 42 42 40 42 42 44 47 46 39 41 41 40 42 42 41 43 42 42 44 43
42 44 43 41 43 42 43 44 44 41 41 41 40 40 40 43 43 43 44 44 44
44 44 44 44 44 44 45 45 45 45 45 45 44 44 45 41 43 43 42 44 43
45 47 46 49 51 51 46 48 48 50 52 51 48 51 50 47 50 49 48 50 50
47 49 48 46 48 47 43 45 45 42 44 43 42 44 43 43 45 44 43 45 44
43 45 44 43 45 45 43 45 44 43 45 44 44 46 45 44 46 45 43 45 44
43 45 44 43 45 44 43 45 44 43 45 44 43 45 44 43 45 44 42 44 43
42 44 43 42 44 43 42 44 43 41 43 42 41 43 42 41 43 42 41 43 42
41 43 42 42 44 43 41 43 43 39 41 41 40 42 42 41 43 42 42 44 43
42 44 43 42 44 43 42 44 43 41 43 42 40 42 41 40 42 41 40 42 41
40 42 41 42 44 43 42 44 43 42 44 43 43 45 44 43 45 44 42 44 43
42 44 44 43 45 45 45 47 47 46 48 48 44 47 46 42 44 43 42 44 43
42 44 43 42 44 43 42 44 43 42 44 43 42 44 43 42 44 43 42 44 43
42 44 43 42 44 43 43 45 44 43 45 44 42 43 45 42 43 45 42 43 45
41 42 44 40 41 43 39 40 42 38 39 41 38 40 42 40 41 43 39 40 42
38 39 41 37 39 41 40 42 44 41 42 44 38 40 41 46 47 49 47 49 51
38 40 42 44 45 46 50 50 49 46 46 44 28 28 26 82 82 81 45 45 45
41 41 41 43 43 45 43 43 45 43 43 45 44 45 46 34 36 37 41 43 44
39 41 42 40 42 43 40 41 43 39 40 42 39 40 42 39 40 42 40 41 42
40 42 41 40 42 41 39 41 40 39 41 40 39 41 40 39 41 40 40 42 41
40 42 41 40 43 42 41 43 42 41 43 43 45 47 46 42 44 44 43 45 44
43 45 44 46 48 48 36 38 38 98 100 100 72 74 74 44 46 46 41 43 42
41 43 43 40 42 41 40 42 42 42 44 43 41 43 42 41 43 42 41 43 43
42 42 43 43 43 44 46 45 47 46 46 48 45 45 46 45 45 45 45 45 45
45 45 44 46 46 45 45 46 45 43 45 45 43 45 45 45 47 47 49 51 50
45 47 46 51 54 53 50 52 52 47 49 49 49 51 50 50 52 52 48 51 50
44 46 46 43 45 44 43 45 44 43 45 45 44 46 45 44 46 45 45 47 46
44 46 46 43 45 44 44 46 45 44 46 45 43 45 44 43 45 44 43 45 44
43 45 44 43 45 44 43 45 44 43 45 45 43 45 44 41 43 42 41 43 42
42 44 43 41 43 42 41 43 42 41 43 42 41 43 42 40 42 41 41 43 43
42 44 44 41 43 42 42 44 43 41 43 42 42 44 43 42 44 43 42 44 43
42 44 43 42 44 43 41 43 42 40 42 41 40 42 41 40 42 41 42 44 43
42 44 43 42 44 43 43 45 44 42 44 43 42 44 43 42 44 44 44 46 46
45 47 47 47 49 48 43 45 44 40 42 41 43 45 44 43 45 44 41 44 43
41 43 42 41 43 43 42 44 43 42 44 43 42 44 43 42 44 43 42 44 43
43 45 44 42 44 44 42 43 45 42 43 45 41 42 44 41 42 44 38 39 42
36 37 39 36 37 40 38 40 43 41 43 46 40 42 43 39 40 42 39 40 42
39 41 43 40 41 43 38 40 41 50 52 54 58 60 61 42 44 45 65 66 68
48 49 50 45 46 47 45 46 47 76 77 78 37 38 39 43 44 46 44 45 47
41 42 43 38 39 40 39 40 42 39 41 43 40 41 43 39 41 42 38 39 41
40 42 43 39 41 42 39 41 42 40 42 44 39 41 42 40 42 41 40 42 41
39 41 40 38 40 39 39 41 40 40 42 41 40 42 41 40 42 41 41 44 43
40 42 41 42 44 45 44 46 47 41 43 44 39 41 41 44 46 47 47 49 49
36 38 38 73 75 76 44 46 46 44 46 45 42 44 43 41 43 42 41 43 44
42 43 44 41 42 44 41 42 45 41 42 45 41 42 45 39 40 41 40 42 43
41 42 44 41 42 44 43 45 46 45 46 47 46 47 48 44 46 46 44 45 45
44 46 46 41 43 43 42 44 44 42 44 44 45 47 46 47 49 48 49 51 50
53 55 54 55 57 56 55 57 56 46 48 48 47 50 49 48 51 50 44 46 45
42 44 43 43 46 45 41 43 42 43 45 44 41 43 43 41 43 42 43 45 44
44 46 45 44 46 46 44 46 45 42 44 44 42 44 43 42 44 44 43 45 45
44 46 45 43 45 44 43 45 44 41 43 42 40 42 41 40 42 41 40 42 41
40 42 42 42 44 43 42 44 43 41 43 42 40 42 41 40 42 42 41 43 42
41 43 42 39 41 41 41 43 42 41 43 42 39 41 40 40 42 42 42 44 43
42 44 43 42 44 43 42 44 43 42 44 43 42 44 43 42 44 43 42 44 43
42 44 43 42 44 43 41 43 43 42 44 44 44 46 45 44 46 45 43 45 44
41 43 42 41 43 42 42 44 44 43 45 44 42 44 43 42 44 43 41 43 42
41 43 42 41 43 42 41 43 43 43 45 44 44 46 45 44 46 45 43 45 45
43 45 44 42 44 44 42 44 43 41 43 43 39 40 44 36 38 41 38 40 43
38 39 43 36 37 41 36 38 40 38 40 42 39 40 42 39 41 43 39 41 43
37 39 40 40 42 43 47 49 50 35 37 38 44 46 47 42 44 45 39 41 42
50 51 53 66 68 69 47 49 51 41 43 44 43 44 46 42 44 45 39 40 42
40 42 43 40 41 43 40 41 43 39 41 42 38 40 41 39 41 42 38 40 41
39 41 43 41 43 44 40 42 43 38 40 40 39 41 40 39 42 41 40 42 41
41 43 42 40 42 41 40 42 41 40 43 42 41 44 43 41 43 44 42 44 46
43 44 46 40 42 43 40 41 43 40 42 44 43 45 46 39 40 42 60 61 63
48 49 50 44 46 45 42 44 43 41 43 42 41 42 43 41 43 44 41 42 44
41 42 46 41 42 46 41 42 46 40 42 44 41 43 45 41 43 44 40 41 43
40 42 44 46 48 50 44 46 47 42 44 45 44 46 47 47 49 50 45 47 47
44 46 46 47 49 48 49 51 50 47 49 48 45 47 47 49 51 50 50 52 51
49 51 50 50 52 51 46 48 47 44 46 45 46 48 47 45 47 47 43 45 44
43 45 44 41 43 42 51 53 52 44 46 45 43 45 44 44 46 45 44 46 45
43 45 44 43 45 44 43 45 44 43 45 44 43 45 44 42 44 43 43 45 44
42 44 43 41 43 42 41 43 42 40 42 41 40 42 41 41 43 42 42 44 43
42 44 43 41 43 43 40 42 41 40 42 42 41 43 42 41 43 42 41 43 42
41 43 43 42 44 43 40 42 41 41 43 43 42 44 43 42 44 43 42 44 43
42 44 43 42 44 43 42 44 43 42 44 43 42 44 43 42 44 43 41 43 42
41 43 43 42 44 44 44 46 45 44 46 45 44 46 46 41 44 43 41 43 42
42 44 43 42 44 43 40 42 41 40 42 41 40 42 41 39 41 40 39 41 41
40 42 41 41 43 43 42 44 43 42 44 43 42 44 43 43 45 44 42 44 43
42 44 43 42 44 43 42 43 47 41 42 46 41 42 46 42 43 47 42 44 47
39 40 43 38 39 41 39 40 42 39 40 42 38 40 42 38 40 42 38 39 41
42 43 45 41 43 44 46 48 50 40 42 44 41 42 44 49 50 52 53 55 56
56 58 59 40 42 43 41 43 44 43 45 46 41 42 44 40 42 44 40 41 43
40 42 44 40 41 43 39 40 42 38 40 42 38 39 41 39 41 43 41 43 45
41 43 44 40 42 41 40 42 41 40 42 41 40 42 41 40 42 41 40 42 41
40 42 41 40 43 42 41 44 43 42 44 45 43 44 46 41 43 44 39 41 42
41 43 44 41 43 44 41 43 44 42 44 45 43 45 46 45 47 48 44 46 45
43 45 44 42 44 43 41 42 43 41 42 44 41 42 44 41 42 46 41 42 46
41 42 46 41 42 44 41 43 45 42 43 45 42 44 46 43 44 46 44 45 47
42 44 45 42 44 45 44 46 47 44 46 47 43 45 44 40 42 42 45 47 47
46 48 47 43 45 44 43 45 45 44 46 46 45 47 46 44 46 45 43 45 44
43 45 45 45 47 46 45 47 46 41 44 43 43 46 45 41 43 43 42 44 43
46 48 47 44 46 45 44 46 45 44 46 45 44 46 45 43 45 44 43 45 45
43 45 44 43 45 44 42 44 43 41 43 42 41 43 43 42 44 43 41 43 42
41 43 42 41 43 42 41 43 42 41 43 43 42 44 43 41 43 42 41 43 42
40 42 41 40 42 42 41 43 42 41 43 42 41 43 43 42 44 44 43 45 44
42 44 43 42 44 44 42 44 43 42 44 43 42 44 43 42 44 43 42 44 43
42 44 43 42 44 43 42 44 43 42 44 43 41 43 42 41 43 43 42 44 44
44 46 45 44 46 45 44 46 46 42 45 44 41 43 42 41 43 42 40 42 41
41 43 42 41 43 42 40 42 41 40 42 41 40 42 41 41 43 42 42 44 43
42 44 43 42 44 43 42 44 43 42 44 43 42 44 43 42 44 43 42 44 43
35 36 40 37 38 42 36 37 41 39 41 44 46 48 51 47 49 51 44 45 47
41 43 44 39 40 42 38 39 41 38 40 42 39 40 42 38 40 42 42 44 46
45 46 48 39 41 42 43 45 46 40 42 44 40 42 43 51 53 54 44 46 47
40 42 43 42 44 46 41 42 44 41 43 44 41 42 44 41 42 44 40 42 43
39 41 42 39 41 43 38 40 41 39 41 43 41 43 45 40 42 43 43 45 44
42 44 43 40 42 41 38 40 39 38 40 39 40 42 41 40 42 41 40 43 42
41 44 43 42 44 45 43 44 46 40 42 43 39 40 42 41 43 44 39 41 42
40 42 43 43 45 46 40 42 44 45 47 48 43 45 44 43 45 44 43 45 44
41 43 43 40 42 44 41 42 44 41 42 46 41 42 46 41 42 46 40 41 44
40 41 43 42 44 45 45 47 49 46 48 49 42 43 45 41 42 44 45 47 48
45 47 49 41 43 44 43 45 44 42 44 44 45 47 47 45 47 47 43 45 44
44 46 45 44 46 45 44 46 45 44 46 45 44 46 45 45 47 47 43 45 45
45 47 46 55 57 56 51 53 53 42 44 43 47 49 49 40 42 41 43 45 45
44 46 46 45 47 46 44 46 45 42 44 43 42 44 43 42 44 43 42 44 43
41 43 42 41 43 42 41 43 43 42 44 43 42 44 43 42 44 43 42 44 43
42 44 43 42 44 43 42 44 43 41 43 42 40 42 41 40 42 41 40 42 42
41 43 42 41 43 42 42 44 43 41 43 42 41 43 42 43 45 44 41 43 42
41 43 43 42 44 43 42 44 43 42 44 43 42 44 43 42 44 43 42 44 43
42 44 43 42 44 43 41 43 42 41 43 43 42 44 44 44 46 45 44 46 45
44 46 45 41 44 43 40 42 41 41 43 42 40 42 41 41 43 42 42 44 43
42 44 43 41 43 42 41 43 42 43 45 45 44 46 45 44 46 45 42 44 43
42 44 43 42 44 43 42 44 43 42 44 44 43 45 44 38 39 43 37 38 42
37 38 42 38 39 43 39 41 44 46 48 50 46 48 49 40 42 43 38 39 41
39 41 43 39 40 42 37 39 40 44 46 48 55 57 58 37 38 40 40 42 43
41 43 44 39 41 42 36 38 40 46 48 49 48 50 51 39 41 42 39 41 43
39 41 43 41 42 44 41 42 44 42 43 45 41 42 44 40 41 43 40 42 44
39 41 42 40 41 43 41 42 44 39 41 42 41 43 42 41 43 42 41 43 42
40 42 41 40 42 41 40 42 41 40 42 41 40 43 42 41 44 43 42 43 44
43 44 46 42 44 45 40 42 43 40 42 44 41 43 45 42 44 45 43 45 46
43 45 46 42 44 45 42 45 44 43 46 45 43 45 44 41 43 43 40 42 44
41 42 44 41 42 46 41 42 46 41 42 46 42 44 46 41 43 44 43 45 46
46 48 49 45 47 48 45 47 48 42 44 45 45 47 49 48 50 51 45 47 48
42 44 44 45 47 46 44 46 46 43 45 44 43 45 44 42 44 43 42 44 43
42 44 44 44 46 45 44 46 45 42 44 43 45 47 46 51 53 52 53 55 55
45 47 46 39 42 41 41 43 42 43 46 45 44 46 45 45 47 46 45 47 46
44 46 45 42 44 43 40 42 41 40 42 42 41 43 42 42 44 43 42 44 43
41 43 43 41 43 42 41 43 43 42 44 43 42 44 43 42 44 43 42 44 43
42 44 43 40 42 41 40 42 41 40 42 41 40 42 42 41 43 42 41 43 42
41 43 43 40 42 41 39 42 41 42 44 43 40 42 41 41 43 42 42 44 43
42 44 43 42 44 43 42 44 43 42 44 43 42 44 43 42 44 43 42 44 43
41 43 42 41 43 43 42 44 44 44 46 45 44 46 45 42 45 44 40 42 41
40 42 41 41 43 43 41 43 42 41 43 42 40 42 41 40 42 41 40 42 41
40 42 41 42 44 43 42 44 43 42 44 43 40 42 41 40 42 42 41 43 42
42 44 43 42 44 44 43 45 44 36 38 41 39 40 44 38 39 43 38 39 43
38 40 43 41 42 45 40 41 43 41 43 44 53 55 56 43 45 46 38 40 41
36 38 39 49 51 52 50 51 53 40 42 43 39 41 43 39 40 42 41 43 45
40 41 43 39 41 42 54 55 57 38 40 41 39 41 42 38 40 41 45 46 48
42 44 45 39 41 42 40 42 44 42 44 45 43 44 46 41 43 44 39 41 42
39 41 43 41 43 44 40 42 41 39 41 40 39 42 41 40 43 42 41 43 42
41 43 42 41 43 42 41 43 42 41 43 42 40 42 42 42 43 45 40 41 43
41 43 44 41 42 44 39 41 43 44 46 47 43 44 46 41 43 45 41 42 44
43 46 45 44 47 46 44 46 45 41 43 43 39 41 43 41 42 44 43 45 48
44 45 49 42 43 47 42 43 45 42 43 45 42 43 45 42 43 45 42 43 45
43 44 46 43 45 47 45 47 48 45 46 48 43 45 46 45 47 47 45 47 47
43 45 44 41 43 42 41 43 42 41 43 43 43 45 45 44 46 45 43 45 44
44 46 45 44 46 45 44 46 46 43 45 44 40 42 42 41 43 42 42 44 43
42 44 43 43 45 44 43 45 44 43 45 44 43 45 44 43 45 44 43 45 44
41 43 42 40 42 41 40 42 42 41 43 42 41 43 42 42 44 44 42 44 43
46 48 47 42 44 43 41 43 42 45 47 47 42 44 43 41 43 42 41 43 42
41 43 42 42 44 43 42 44 43 42 44 43 42 44 43 41 43 42 41 43 42
41 43 42 42 44 43 42 44 43 40 42 42 40 42 42 41 43 43 42 44 43
43 45 44 41 43 42 41 43 42 41 43 42 41 43 42 41 43 43 42 44 44
43 45 45 43 45 44 43 45 44 42 44 44 41 43 42 40 42 41 40 42 42
42 44 44 42 44 43 41 43 42 41 43 42 40 42 41 40 42 41 42 44 43
42 44 43 42 44 43 42 44 43 41 43 42 40 42 42 41 43 43 42 44 43
42 44 43 37 38 42 38 39 43 37 38 42 37 38 42 38 40 43 38 39 42
39 41 43 38 40 41 42 44 45 46 48 50 59 61 62 39 41 42 30 31 33
45 47 48 34 36 37 36 38 39 40 42 43 38 40 41 39 40 42 40 42 43
53 55 57 48 49 51 42 44 45 42 44 45 41 42 44 38 40 41 42 44 45
48 50 52 42 44 45 41 43 44 41 42 44 40 41 43 40 41 43 40 42 43
39 41 41 39 41 40 39 41 40 40 43 42 41 43 42 41 43 42 41 43 42
41 43 42 41 43 42 45 47 47 47 49 50 43 45 46 42 44 46 40 42 43
54 56 57 44 46 47 41 43 44 38 40 42 43 45 46 43 46 45 44 46 45
44 46 45 41 43 44 39 41 42 39 41 43 41 42 46 42 43 47 41 42 46
41 43 45 42 43 45 42 43 45 42 43 45 42 43 45 42 43 45 44 46 47
43 44 46 41 43 45 43 45 46 46 48 48 42 44 43 42 44 44 43 45 44
42 44 43 42 44 43 43 45 45 43 45 44 43 45 44 42 44 43 45 47 46
44 46 46 41 43 43 42 44 44 43 45 44 43 45 44 42 44 43 42 44 43
42 44 43 42 44 43 42 44 43 42 44 43 42 44 43 40 42 42 40 42 41
40 42 42 41 43 42 41 43 42 43 45 44 42 44 43 41 43 42 40 42 41
47 49 48 50 52 52 43 45 45 39 41 40 41 43 43 42 44 44 42 44 43
42 44 43 42 44 43 42 44 43 41 43 42 41 43 42 41 43 42 42 44 43
42 44 43 41 43 42 41 43 42 41 43 43 42 44 43 42 44 43 42 44 43
42 44 43 42 44 43 42 44 43 42 44 43 42 44 44 43 45 45 43 45 44
43 45 44 41 43 42 41 43 43 42 44 43 42 44 43 41 43 42 40 42 41
40 42 41 41 43 42 41 43 42 41 43 42 42 44 43 42 44 43 42 44 43
42 44 43 41 43 42 41 43 43 42 44 43 42 44 43 41 43 42 37 38 42
37 38 42 37 38 42 38 39 43 39 41 44 41 43 45 40 42 43 39 41 43
40 42 44 42 43 45 50 51 53 87 88 90 90 92 93 48 50 51 35 37 38
39 41 42 36 38 40 37 38 40 39 40 42 38 40 42 51 53 54 52 53 55
37 39 40 41 43 44 36 38 39 41 43 44 47 49 51 45 47 48 39 41 42
40 41 43 40 41 43 40 41 43 40 41 43 39 40 41 39 41 40 38 40 39
38 41 40 39 42 41 40 43 42 41 43 42 41 43 42 41 43 42 41 43 42
42 43 43 43 45 46 40 42 43 41 43 44 40 41 43 60 62 64 65 67 69
40 42 43 42 43 45 41 43 44 42 44 43 43 45 44 43 45 44 43 44 45
41 42 44 39 40 42 39 40 44 39 41 44 40 41 45 41 43 45 42 43 45
42 43 45 42 43 45 42 43 45 43 44 46 46 48 49 43 44 46 41 43 44
46 48 49 46 48 47 40 42 41 42 44 43 44 46 45 42 44 43 43 45 44
43 45 44 43 45 44 43 45 45 45 48 47 49 51 51 45 48 47 40 42 42
43 45 44 43 45 44 43 45 44 42 44 43 41 43 42 41 43 42 40 42 41
40 42 41 40 42 41 40 42 41 40 42 41 40 42 41 40 42 42 41 43 42
41 43 42 41 43 42 42 44 43 42 44 43 50 52 51 62 64 63 45 47 46
41 43 42 41 43 43 42 44 43 41 43 43 42 44 43 42 44 43 42 44 43
42 44 43 41 43 42 41 43 42 41 43 42 42 44 43 42 44 43 42 44 43
42 44 43 41 43 42 41 43 42 41 43 42 42 44 43 42 44 43 42 44 43
42 44 43 42 44 43 42 44 44 43 45 45 43 45 44 43 45 44 40 43 42
41 43 43 42 44 44 42 44 43 40 42 41 40 42 41 40 42 41 41 43 42
41 43 43 42 44 43 42 44 43 42 44 43 42 44 43 42 44 43 42 44 43
42 44 43 42 44 43 41 43 42 40 42 41 38 39 43 38 39 43 38 40 43
40 42 45 41 43 46 41 42 44 35 37 38 38 40 41 43 44 46 41 42 44
40 42 43 39 40 42 56 58 60 51 53 55 54 56 58 44 46 47 37 39 40
37 39 40 40 42 43 41 42 44 46 47 49 54 56 58 38 40 42 42 44 45
36 38 39 43 45 46 47 48 50 40 42 43 37 39 40 38 40 42 40 41 43
40 41 43 39 41 42 38 40 41 38 40 39 38 40 39 38 40 39 39 41 40
40 42 41 41 43 42 41 43 42 41 43 42 41 43 42 39 41 41 40 42 44
39 41 43 42 44 45 42 43 45 45 47 49 59 61 63 40 41 43 42 44 45
41 43 44 41 43 43 42 44 43 43 45 44 44 45 46 42 44 46 40 41 43
39 40 44 39 41 44 40 42 45 41 43 45 42 43 45 42 43 45 42 43 45
42 43 45 40 42 43 41 43 45 40 42 44 41 43 44 44 46 47 44 46 45
41 43 42 41 43 43 43 45 44 42 44 43 42 44 43 42 44 43 43 45 44
45 47 46 47 50 49 47 49 49 44 46 45 41 43 42 42 44 44 43 45 44
42 44 43 42 44 43 42 44 43 42 44 43 41 43 42 41 43 42 41 43 42
41 43 42 40 42 41 40 42 41 40 42 42 41 43 42 41 43 42 41 43 43
42 44 43 42 44 43 48 50 50 50 52 51 40 42 41 39 41 41 42 44 43
42 44 43 41 43 42 42 44 43 42 44 43 42 44 43 42 44 43 41 43 42
41 43 42 41 43 42 42 44 43 42 44 43 42 44 43 42 44 43 41 43 42
41 43 42 41 43 42 43 45 44 43 45 44 43 45 44 43 45 44 42 44 43
42 44 44 43 45 45 43 45 44 43 45 44 41 43 42 41 43 43 42 44 43
42 44 43 41 43 42 40 42 41 40 42 41 41 43 42 41 43 42 41 43 42
42 44 43 42 44 43 42 44 43 42 44 43 41 43 42 41 43 43 42 44 43
42 44 43 41 43 42 38 39 42 40 41 44 40 41 44 41 43 46 43 45 48
44 46 49 41 42 44 41 43 45 40 41 43 41 43 45 42 44 45 43 44 46
41 42 44 41 42 44 41 43 45 59 60 62 55 57 58 44 46 48 40 42 43
41 43 44 34 36 37 53 54 56 40 42 43 40 42 43 37 39 41 39 41 43
42 44 45 41 43 44 37 39 40 37 39 40 39 41 43 40 42 43 39 41 42
37 39 40 38 40 39 38 40 39 38 40 39 38 40 40 39 41 42 41 43 42
41 43 42 41 43 42 41 43 42 38 40 41 40 42 43 38 40 41 40 42 43
40 42 42 43 45 46 43 45 46 42 44 45 39 41 42 41 42 43 41 43 42
41 43 43 42 44 44 44 46 47 43 45 47 41 43 44 39 40 43 40 42 45
41 43 46 42 44 45 42 43 44 42 43 44 42 43 44 42 43 44 41 43 44
40 42 43 42 44 44 44 46 47 45 46 47 42 44 44 43 45 44 41 43 43
41 43 43 41 43 43 40 42 41 40 42 42 43 45 45 46 48 48 44 46 45
41 43 43 40 42 42 42 44 43 43 45 44 41 43 42 41 43 43 42 44 43
43 45 44 43 45 44 42 44 43 42 44 43 42 44 43 42 44 43 40 42 42
40 42 41 40 42 42 41 43 42 41 43 42 41 43 42 41 43 42 46 48 47
48 50 50 40 42 41 43 45 44 41 43 42 40 42 42 42 44 43 42 44 43
41 43 43 42 44 43 42 44 43 42 44 43 41 43 42 41 43 42 41 43 42
42 44 43 42 44 43 42 44 44 42 44 43 41 43 42 41 43 42 40 42 41
43 45 44 43 45 44 43 45 44 43 45 44 43 44 44 43 44 44 44 45 45
43 45 44 43 45 44 43 44 44 41 43 42 40 42 41 41 42 42 43 44 44
42 44 43 41 43 42 41 43 42 40 42 41 40 42 41 42 44 43 42 44 43
42 44 43 42 44 43 41 43 42 40 42 41 41 43 43 42 44 43 42 44 43
40 41 43 40 41 43 39 40 43 39 41 44 40 41 45 39 40 44 40 41 45
40 41 45 40 41 45 40 41 45 40 42 45 41 42 46 40 41 45 39 40 44
39 40 43 42 44 45 47 48 50 54 56 57 53 55 56 51 53 54 33 35 36
52 54 56 58 60 62 36 38 39 35 37 38 44 46 47 45 47 48 39 41 42
38 40 41 37 38 40 37 39 41 38 40 42 39 40 42 38 39 41 38 39 41
38 39 41 38 40 42 39 40 42 39 41 42 40 41 43 40 41 43 40 41 43
40 41 43 39 41 41 39 41 41 40 43 42 42 44 43 41 43 42 43 45 45
46 48 48 42 44 44 42 44 43 40 42 42 42 44 45 43 45 47 44 45 47
45 46 48 43 45 47 45 47 48 47 48 50 44 45 47 46 48 49 43 45 45
41 43 43 41 43 42 41 43 42 42 44 43 42 44 43 42 44 44 43 45 44
43 45 45 45 47 47 43 45 44 43 45 44 42 44 43 40 42 42 40 42 41
41 43 42 43 45 44 48 50 49 48 50 49 42 44 43 43 45 44 43 45 44
41 43 42 41 43 43 43 45 44 44 46 45 41 43 42 43 45 44 42 44 44
42 44 43 42 44 43 42 44 43 42 44 43 41 43 42 40 42 41 40 42 41
40 42 41 39 41 40 41 43 43 50 52 51 71 73 72 48 50 50 39 41 40
41 43 42 40 42 41 40 42 42 41 43 43 41 43 42 39 41 41 40 42 42
41 43 42 41 43 42 41 43 42 41 43 42 41 43 42 42 44 43 42 44 43
41 43 42 41 43 42 41 43 42 41 43 42 41 43 42 42 44 43 42 44 44
44 46 45 43 45 44 43 44 44 44 44 44 44 44 44 44 44 44 44 44 44
43 43 43 43 43 43 43 43 43 43 43 43 43 43 43 41 42 42 41 43 42
41 43 42 41 43 42 42 44 43 41 43 42 41 43 42 41 43 42 41 43 42
41 43 42 41 43 42 42 44 44 43 45 44 42 44 43 39 40 42 38 39 41
38 40 43 40 41 45 37 38 42 37 39 42 40 41 45 40 41 45 40 41 45
40 41 45 40 41 45 40 41 45 40 41 45 40 41 45 40 41 45 41 43 45
38 40 42 40 41 43 52 54 56 59 61 62 46 47 49 40 42 43 56 58 60
44 46 47 43 45 46 44 46 47 39 41 42 39 41 42 38 40 41 37 39 41
38 40 42 39 41 43 40 41 43 39 40 42 38 39 41 38 39 41 38 40 42
39 40 42 39 40 42 39 40 42 39 40 42 39 40 42 39 40 41 39 40 41
39 42 41 40 43 42 42 44 43 41 43 42 46 48 47 48 51 50 43 45 45
42 45 44 40 42 42 41 43 44 43 45 46 45 46 48 47 49 50 54 55 57
53 54 56 44 46 48 42 44 46 43 45 46 42 44 44 42 44 43 42 44 43
44 46 45 45 47 47 43 45 44 43 45 44 44 46 46 45 47 47 45 47 46
41 43 43 42 44 44 43 45 44 42 44 43 40 42 41 41 43 42 46 48 47
53 55 55 48 50 49 43 45 44 44 46 46 44 46 45 42 44 43 41 43 43
45 48 47 47 49 49 42 45 44 43 45 45 42 44 44 42 44 43 42 44 43
42 44 43 42 44 43 42 44 43 41 43 42 41 43 42 40 42 41 40 42 41
43 45 45 53 55 54 56 58 57 43 45 44 44 46 45 41 43 43 42 44 43
42 44 43 42 44 43 41 43 42 41 43 42 40 42 41 40 42 42 41 43 43
41 43 42 41 43 42 41 43 42 42 44 43 42 44 43 41 43 42 41 43 42
41 43 42 41 43 42 41 43 42 42 44 43 42 44 44 44 46 45 43 45 44
43 44 44 44 44 44 44 44 44 44 44 44 44 44 44 43 43 43 43 43 43
43 43 43 43 43 43 43 43 43 42 43 43 42 44 43 42 44 43 43 45 44
43 45 44 41 43 42 41 43 42 41 43 42 41 43 42 41 43 43 42 44 44
43 45 44 42 44 43 41 43 42 41 42 44 43 44 46 40 41 44 39 40 44
38 39 43 38 40 43 39 40 44 39 40 44 39 40 44 39 40 44 39 40 44
39 40 44 39 41 44 40 42 45 41 42 45 40 41 43 43 45 47 40 42 43
35 37 38 40 42 43 43 45 46 42 44 45 73 75 76 93 95 96 59 61 62
50 51 53 44 46 48 37 39 40 37 39 40 38 40 41 39 40 42 40 41 43
40 41 43 40 41 43 38 39 41 38 39 41 38 40 42 39 40 42 39 41 42
40 41 43 40 41 43 40 41 43 40 41 43 39 41 41 39 42 41 40 43 42
42 44 43 41 43 42 46 48 47 49 51 50 43 45 45 42 45 44 40 42 42
41 43 44 42 44 46 44 46 47 47 48 50 56 58 59 57 59 60 54 56 57
45 47 48 44 45 47 43 45 45 42 44 43 42 44 44 45 47 47 46 48 48
47 49 49 48 50 49 51 53 52 52 54 53 49 51 51 46 48 47 43 45 45
42 44 43 42 44 44 43 45 44 43 45 45 44 46 45 47 49 48 44 46 45
43 45 45 44 46 45 44 46 46 44 46 45 42 44 43 43 45 44 48 50 49
42 45 44 43 45 45 43 45 44 42 44 43 42 44 43 42 44 43 42 44 43
42 44 44 42 44 43 42 44 43 41 43 42 41 43 42 41 43 43 40 42 42
38 40 39 40 42 42 44 46 45 44 46 45 45 47 46 45 47 46 43 45 45
42 44 43 41 43 42 39 41 40 39 41 41 40 42 42 41 43 42 41 43 42
41 43 42 42 44 43 42 44 43 41 43 42 41 43 42 41 43 42 41 43 42
41 43 42 42 44 43 42 44 44 44 46 45 43 45 44 43 44 44 44 44 44
44 44 44 44 44 44 44 44 44 43 43 43 43 43 43 43 43 43 43 43 43
43 43 43 43 44 44 43 45 44 43 45 45 44 46 45 44 46 45 42 44 43
42 44 43 42 44 43 42 44 43 43 45 44 43 45 44 42 44 43 41 43 42
41 43 42 42 43 45 43 45 47 41 42 45 41 42 46 40 41 45 39 40 44
39 40 44 39 40 44 39 40 44 39 40 44 39 40 44 40 41 45 40 41 45
40 41 45 40 42 45 42 44 46 47 49 50 51 52 54 44 46 47 41 43 45
36 38 40 38 40 41 32 34 35 48 50 51 45 46 48 48 49 51 46 48 49
45 47 48 38 40 41 36 38 39 37 39 41 39 40 42 39 40 42 38 39 41
38 39 41 38 39 41 38 40 42 39 40 42 39 41 42 41 42 44 41 42 44
41 42 44 41 42 44 39 41 41 39 42 41 40 43 42 42 44 43 41 43 42
43 45 45 46 49 48 43 45 44 42 45 44 40 42 41 40 42 42 41 43 43
42 44 44 44 46 47 64 66 66 78 80 79 72 74 74 47 49 49 42 44 44
46 48 48 45 47 46 43 45 44 42 44 43 42 44 43 42 44 43 41 43 42
46 48 47 46 48 48 44 46 45 49 51 50 49 51 50 46 48 48 42 44 44
40 42 42 44 46 46 44 46 46 42 44 44 43 45 44 43 45 44 43 45 44
45 47 46 47 49 49 45 47 47 44 47 46 50 53 52 45 47 47 43 45 45
44 46 45 43 45 44 43 45 44 43 45 44 43 45 44 43 45 45 43 45 44
43 45 44 43 45 44 42 44 43 42 44 43 42 44 44 43 45 45 41 43 43
39 41 40 42 44 43 42 44 43 42 44 44 43 45 45 44 46 45 44 46 45
44 46 45 43 45 44 42 44 43 41 43 42 41 43 42 41 43 42 42 44 43
42 44 43 41 43 42 41 43 42 41 43 42 41 43 42 41 43 42 42 44 43
42 44 44 44 46 45 43 45 44 43 44 44 44 44 44 44 44 44 44 44 44
44 44 44 44 44 44 44 44 44 44 44 44 44 44 44 44 44 44 43 44 43
42 44 43 42 44 44 43 45 44 43 45 44 42 44 43 42 44 43 42 44 43
42 44 43 42 44 44 42 44 43 41 43 42 41 43 43 42 44 44 39 40 42
38 39 41 38 40 43 40 42 45 41 43 46 41 43 46 40 41 45 39 40 44
38 39 43 38 39 43 38 39 43 39 41 44 40 42 45 40 41 45 38 39 43
40 41 43 43 44 46 50 52 53 44 46 47 37 39 40 42 44 45 38 40 42
39 41 42 39 41 43 45 47 49 46 47 49 45 47 48 74 76 77 66 68 69
43 45 46 36 38 39 39 41 43 37 39 40 36 38 40 37 38 40 37 39 41
37 39 41 39 40 42 39 41 43 39 41 42 40 42 43 41 42 44 40 42 43
40 42 42 40 42 41 41 43 42 41 43 42 41 43 42 42 44 43 43 46 45
42 45 44 42 44 43 38 40 40 40 42 42 42 44 43 39 41 40 42 44 43
63 65 64 62 64 63 49 51 50 42 44 43 41 43 42 43 45 44 42 44 43
42 44 44 43 45 45 44 46 45 44 46 45 43 45 44 52 54 53 55 57 57
45 47 46 44 46 45 47 49 48 47 49 49 46 48 47 43 46 45 46 48 47
46 48 47 44 46 45 43 45 44 43 45 45 43 45 44 44 46 45 45 47 46
44 46 46 45 47 46 58 60 59 49 51 50 42 44 44 44 46 45 43 45 44
43 45 45 43 45 44 42 44 43 42 44 44 43 45 44 43 45 44 43 45 44
43 45 44 42 44 44 42 44 43 42 44 43 41 43 43 44 46 46 42 44 43
41 43 43 42 44 43 41 43 42 41 43 42 43 45 45 44 46 46 44 46 45
44 46 45 43 45 45 43 45 44 42 44 43 41 43 42 41 43 42 41 43 42
42 44 43 41 43 42 40 42 41 39 41 40 42 44 43 42 44 44 43 45 45
44 46 45 44 45 45 44 44 44 43 43 43 44 44 44 44 44 44 45 45 45
44 44 44 44 44 44 44 44 44 43 43 43 42 43 43 43 45 44 43 45 44
43 45 44 43 45 44 42 45 44 41 43 42 42 44 43 43 45 44 42 44 43
42 44 43 42 44 43 42 44 43 43 45 45 37 38 40 37 39 41 38 39 43
39 41 44 40 42 45 41 42 46 40 41 45 40 41 45 39 40 44 40 41 45
38 39 43 38 39 43 38 40 43 40 42 45 42 44 47 41 42 44 41 43 45
44 46 48 43 44 46 38 40 41 37 39 40 38 40 41 39 41 42 38 39 41
44 46 47 44 46 48 36 38 39 42 44 45 46 48 49 62 64 65 58 59 61
46 48 49 37 39 40 40 41 43 40 41 43 40 41 43 36 38 39 36 38 39
39 41 43 39 41 42 38 40 42 39 41 43 41 43 44 41 43 43 41 43 42
41 43 42 40 42 41 40 42 41 44 46 46 45 47 46 40 42 42 38 40 40
41 43 42 43 45 43 40 42 41 41 44 42 43 45 44 57 59 58 47 49 47
45 47 46 47 50 48 41 43 42 41 44 43 42 44 43 42 44 43 42 44 43
42 44 43 41 43 42 40 42 42 42 44 44 46 48 47 40 42 42 43 45 44
42 44 43 42 44 44 44 46 46 46 48 47 46 48 47 44 46 45 43 45 44
43 45 44 44 46 45 44 46 45 43 45 44 43 45 44 43 45 44 57 59 58
63 65 64 48 50 49 45 47 46 43 45 45 43 45 44 44 46 45 44 46 45
42 44 43 42 44 44 43 45 44 43 45 44 43 45 44 43 45 44 42 44 43
42 44 43 43 45 44 43 45 45 44 46 45 41 43 42 41 43 43 43 45 44
41 43 42 41 43 42 42 44 43 42 44 43 42 44 43 42 44 43 44 46 46
46 48 47 46 48 47 46 48 47 47 49 48 44 46 45 41 43 42 39 41 40
40 42 42 43 45 44 44 46 45 44 46 45 44 46 45 43 45 44 43 44 43
44 44 44 43 43 43 44 44 44 44 44 44 45 45 45 44 44 44 44 44 44
44 44 44 43 43 43 42 43 42 43 45 44 43 45 44 43 45 44 43 45 45
44 47 46 42 45 44 43 45 44 43 45 44 42 44 43 42 44 43 43 45 44
43 45 44 43 45 45 38 39 41 36 38 40 39 41 44 40 42 45 40 41 45
38 39 43 38 40 43 40 42 45 41 42 46 41 42 46 40 41 45 40 41 45
40 41 45 41 43 46 44 46 49 39 41 43 44 46 47 46 47 49 48 50 51
49 51 52 37 39 40 37 39 40 40 42 43 38 39 41 40 42 44 56 58 60
36 38 39 34 36 38 41 42 44 37 39 41 39 41 43 51 52 54 62 64 65
43 45 46 35 37 38 37 39 40 38 39 41 39 40 42 38 40 41 33 35 36
41 43 44 43 45 46 42 43 45 42 44 44 42 44 43 42 45 44 43 46 45
44 46 45 39 41 40 43 45 44 44 46 45 42 44 43 42 44 43 40 42 40
43 45 43 34 36 34 124 127 124 80 83 80 46 49 46 40 42 40 44 47 44
42 45 42 44 46 45 42 44 43 42 44 43 41 43 42 41 43 42 41 43 42
44 46 45 41 43 42 46 48 47 48 50 49 44 46 45 42 44 43 42 44 44
44 46 46 44 46 46 42 44 43 42 44 43 42 44 43 42 44 44 45 48 47
45 47 46 44 46 45 44 46 45 44 46 45 75 77 76 67 69 68 52 54 53
46 48 48 41 43 42 44 46 45 44 46 45 44 46 45 43 45 44 43 45 44
44 46 45 44 46 45 44 46 45 44 46 45 43 45 44 43 45 44 44 46 45
44 46 45 44 46 45 42 44 43 42 44 43 42 44 43 42 44 43 42 44 43
43 45 44 42 44 43 41 43 42 41 43 42 41 43 43 42 44 43 43 45 45
44 46 46 45 47 47 49 51 50 46 48 48 41 43 43 41 43 42 42 44 44
44 46 45 45 47 46 44 46 45 41 44 43 42 43 42 44 44 44 43 43 43
44 44 44 44 44 44 45 45 45 44 44 44 44 44 44 44 44 44 43 43 43
42 43 43 43 45 44 42 44 43 42 44 44 45 47 47 48 51 50 45 48 47
45 47 46 43 45 44 42 44 43 42 44 43 43 45 44 43 45 44 43 45 45
38 40 42 40 41 43 40 41 45 39 40 44 38 39 43 39 40 44 40 42 45
41 42 46 40 41 45 38 39 43 39 41 44 41 43 46 43 45 48 42 43 47
40 41 44 37 39 41 41 42 44 40 42 43 42 44 45 46 48 49 42 44 45
37 39 41 39 41 43 38 39 41 42 43 45 67 69 70 31 33 34 40 42 43
41 43 45 41 43 44 38 39 41 36 37 39 44 46 47 44 46 47 46 47 49
45 47 48 42 44 45 42 44 45 43 45 46 42 44 45 38 39 41 37 39 40
40 42 43 41 43 43 42 44 43 42 45 44 42 44 43 42 44 43 63 65 64
50 53 52 44 46 45 44 46 45 40 42 41 46 49 46 38 40 37 111 114 111
179 181 179 107 110 107 39 41 38 44 46 43 40 43 40 39 41 38 44 46 44
44 46 45 43 45 44 43 45 44 43 45 44 43 45 45 42 44 44 43 45 44
45 47 47 41 43 42 44 46 46 46 48 47 47 49 48 46 48 47 43 46 45
41 43 42 41 43 42 41 43 43 42 44 44 44 46 45 44 46 45 43 45 45
44 46 45 45 47 46 48 50 49 47 49 48 56 59 58 46 48 48 44 46 46
44 46 46 45 47 46 44 46 45 43 45 44 43 45 45 44 46 45 44 46 45
44 46 45 44 46 45 44 46 46 45 47 46 44 46 45 44 46 45 44 46 45
43 45 44 42 44 43 42 44 43 42 44 44 43 45 45 44 46 45 43 45 44
43 45 44 43 45 44 41 43 43 41 43 42 41 43 42 40 42 41 40 42 41
43 45 44 45 47 46 46 48 47 46 48 47 46 48 47 43 45 44 43 45 44
42 44 43 42 44 43 43 44 44 44 44 44 43 43 43 44 44 44 44 44 44
45 45 45 44 44 44 44 44 44 44 44 44 43 43 43 43 44 44 43 45 44
42 44 43 42 44 44 46 48 47 48 51 50 46 48 47 45 47 46 43 45 44
42 44 43 42 44 43 43 45 44 43 45 44 43 45 45 40 42 44 39 41 43
38 40 43 38 40 43 39 41 44 40 42 45 41 42 46 40 41 45 39 40 44
39 40 44 39 41 44 39 41 44 40 42 45 42 43 47 43 44 47 41 42 44
42 44 46 42 44 46 42 43 45 46 47 49 48 50 51 38 39 41 38 40 42
39 40 42 43 45 47 67 69 70 41 43 45 41 43 44 40 41 43 39 41 42
38 40 42 42 44 45 37 39 40 38 40 41 39 41 43 40 41 43 41 43 44
48 50 51 57 59 60 66 68 69 68 70 71 100 102 103 108 110 112 65 68 68
54 56 55 49 52 51 44 47 46 42 44 43 58 60 59 50 52 51 44 46 45
46 47 47 46 48 47 40 42 40 79 82 79 171 173 171 184 186 184
138 140 138 40 43 40 43 45 43 38 40 38 40 43 40 40 43 41 41 43 43
42 44 43 43 45 44 43 45 44 44 46 46 44 46 45 42 44 43 44 46 45
40 42 41 42 44 43 47 49 48 48 50 50 45 47 47 43 45 44 42 44 44
41 43 42 41 43 43 42 44 43 42 44 43 42 44 43 42 44 43 44 45 45
45 47 46 46 48 47 45 47 47 67 69 69 49 51 50 43 45 44 45 47 46
45 47 46 45 47 46 44 46 45 44 46 45 45 47 46 45 47 46 45 47 46
45 47 46 45 47 47 45 47 46 44 46 45 44 46 45 43 45 44 43 45 45
43 45 44 42 44 43 43 45 44 43 45 44 41 43 42 42 44 43 42 44 44
43 45 44 43 45 44 42 44 43 42 44 43 42 44 43 41 43 42 41 43 42
41 43 43 43 45 45 48 50 49 52 54 53 49 51 50 45 47 47 43 45 44
43 45 45 44 46 45 44 44 44 43 43 43 43 44 44 44 44 44 45 45 45
44 45 44 44 44 44 44 44 44 43 43 43 43 44 44 43 45 44 41 43 42
42 44 44 45 47 47 47 50 49 44 47 46 44 46 45 43 45 44 42 44 43
42 44 43 43 45 44 43 45 44 43 45 45 36 40 41 36 40 41 36 40 41
37 41 42 37 41 42 39 41 43 40 41 45 39 40 44 39 40 44 39 40 44
40 42 45 41 42 46 40 41 45 40 41 45 41 43 46 38 40 42 40 42 44
42 43 45 41 42 44 48 49 51 48 49 51 34 36 37 42 44 46 33 35 36
39 41 42 49 51 52 63 64 66 43 44 46 39 41 42 38 40 41 38 39 41
37 39 40 37 38 40 37 38 40 36 38 40 38 40 42 40 41 43 39 40 42
40 42 43 44 46 48 47 49 51 45 47 48 40 42 43 39 42 43 41 45 45
46 50 50 53 57 57 51 53 53 43 45 44 41 43 41 48 49 47 48 49 47
49 50 48 54 55 52 156 157 153 188 189 185 197 198 195 114 114 112
45 46 45 42 43 42 38 39 38 44 44 44 42 44 43 46 48 48 44 46 45
38 40 39 41 43 43 43 45 44 38 40 40 43 45 45 40 42 42 38 40 39
43 45 46 46 47 48 43 45 46 41 43 44 42 44 45 44 45 46 44 45 46
44 45 46 44 45 46 44 45 46 44 44 44 43 43 43 43 44 44 44 45 45
45 45 45 44 44 44 71 72 71 72 73 73 41 43 42 44 46 45 45 47 46
44 46 45 43 45 44 42 44 44 43 45 45 44 46 45 45 47 46 45 47 47
46 48 48 46 48 47 44 46 45 43 45 44 43 45 44 44 46 46 41 43 42
38 40 40 43 45 44 43 45 44 38 40 40 42 44 43 38 40 39 44 46 45
40 42 41 46 48 47 44 46 45 48 50 49 41 43 43 40 42 42 43 46 45
46 48 47 44 46 45 43 45 45 48 50 49 47 49 48 45 47 47 43 45 44
43 45 44 44 46 45 43 45 44 42 44 43 41 43 42 42 44 43 44 46 45
43 44 44 41 43 42 44 46 45 42 44 43 40 42 41 40 42 41 42 44 43
45 47 46 44 46 45 43 45 44 43 45 44 44 46 45 44 46 45 43 45 44
43 45 44 43 45 44 43 45 44 36 40 41 36 40 41 36 40 41 37 41 42
37 41 42 38 41 43 40 41 45 39 40 44 39 40 44 39 40 44 39 41 44
40 41 45 40 41 45 40 42 45 41 43 46 40 41 43 40 42 44 41 42 44
41 42 44 43 45 46 54 56 57 40 42 44 39 41 43 41 42 44 40 41 43
44 46 47 54 56 57 44 46 48 39 41 42 39 40 42 38 40 41 38 39 41
37 39 40 37 38 40 37 38 40 38 40 41 39 40 42 39 40 42 37 39 40
37 39 40 39 41 43 41 42 44 40 41 43 40 44 45 42 46 47 40 44 44
41 44 45 54 56 55 89 91 90 75 76 74 80 80 78 54 54 52 35 36 33
134 135 131 197 197 193 194 195 191 123 124 121 64 64 62 45 46 44
46 46 46 41 41 41 43 43 43 45 46 46 42 44 43 44 46 45 49 51 50
46 48 47 45 47 46 46 48 48 42 44 43 38 40 40 48 50 49 46 48 50
44 46 47 39 41 43 39 41 43 41 43 44 41 42 44 42 44 45 44 46 47
45 47 48 46 46 46 44 44 44 43 43 43 43 43 43 43 43 43 45 45 45
43 43 43 39 39 39 109 109 109 49 50 50 43 45 44 44 46 45 44 46 45
44 46 45 44 46 45 45 47 46 45 47 46 44 46 45 44 46 45 43 45 44
43 45 44 43 45 44 43 45 44 44 46 45 42 44 43 43 45 45 39 41 40
41 43 42 40 42 41 43 45 45 41 43 43 41 43 43 41 43 43 44 46 46
41 43 42 45 47 46 44 47 46 60 62 62 54 57 56 44 46 46 42 44 43
44 47 46 42 44 43 44 46 45 44 46 45 44 46 45 46 48 47 46 48 48
45 47 46 44 46 45 43 45 44 42 44 43 41 43 42 43 45 44 43 46 45
41 44 43 41 43 43 43 45 44 42 44 43 41 43 42 42 44 44 43 45 45
43 45 44 43 45 44 42 44 44 43 45 44 43 45 44 42 44 43 42 44 43
42 44 43 42 44 43 37 40 41 37 40 41 37 40 41 38 41 42 38 41 42
39 41 43 40 41 45 39 40 44 39 40 44 39 40 44 39 41 44 38 39 43
39 40 44 41 43 46 41 42 45 40 41 43 40 42 44 41 42 44 40 41 43
40 42 44 49 51 52 40 42 43 40 42 43 40 42 44 41 42 44 38 40 42
45 47 48 47 49 50 40 42 43 39 40 42 39 40 42 38 40 41 38 39 41
38 39 41 38 39 41 38 39 41 39 40 42 39 40 42 39 41 42 41 42 44
41 42 44 42 43 45 43 45 47 39 42 43 40 44 45 44 48 48 40 44 44
43 45 44 65 67 66 146 147 145 79 80 78 68 68 66 108 108 106
185 186 182 206 206 202 155 156 152 59 59 56 50 51 48 60 60 58
53 53 53 40 40 40 42 42 42 43 45 44 39 41 41 42 44 44 49 51 50
45 47 46 43 45 45 41 43 42 38 40 40 48 51 50 65 67 67 44 45 47
43 44 46 40 42 43 39 41 43 40 42 44 41 42 44 41 43 44 42 44 45
43 45 46 45 46 46 45 45 45 43 43 43 43 43 43 43 43 43 43 43 43
44 44 44 30 30 30 95 95 95 55 55 55 42 44 44 43 45 45 44 46 46
44 46 45 45 47 46 45 47 46 45 47 46 44 46 45 43 45 44 44 46 45
44 46 45 44 46 45 43 45 44 43 45 44 46 48 47 44 46 45 43 45 44
45 47 47 43 45 45 47 50 49 48 50 50 47 49 49 40 42 41 42 44 43
57 59 58 64 66 65 79 81 80 56 58 58 54 56 55 46 48 47 43 45 44
44 46 45 43 45 45 43 45 44 42 44 43 42 44 44 45 47 46 48 50 49
49 51 50 47 50 49 46 48 47 44 46 45 44 46 46 44 46 46 41 44 43
40 42 41 42 44 44 44 46 45 43 45 44 42 44 43 42 44 44 43 45 44
43 45 44 42 44 43 42 44 43 42 44 44 42 44 43 41 43 42 41 43 42
41 43 42 41 43 42 39 38 41 39 38 41 39 38 41 40 39 42 40 39 42
40 41 43 40 41 44 39 40 43 39 40 43 39 40 43 39 41 44 36 37 40
38 40 42 42 44 47 40 41 44 42 44 46 44 46 48 45 46 48 43 44 46
40 42 43 37 39 41 46 48 49 55 57 59 38 40 41 42 43 45 38 40 41
42 44 45 49 50 52 42 44 45 39 41 43 39 41 42 39 40 42 39 40 42
38 39 41 38 40 41 38 39 41 38 39 41 39 40 42 40 42 43 41 43 44
40 42 43 39 41 42 39 40 42 43 46 47 38 42 43 40 44 44 39 42 43
46 48 48 38 40 40 119 120 119 72 73 71 41 42 40 152 152 150
202 202 198 186 187 183 95 96 92 53 54 51 48 48 46 72 72 71 64 64 63
44 44 44 44 44 44 39 41 40 39 41 41 39 41 40 38 40 39 39 41 40
40 42 42 41 43 43 45 47 47 43 45 44 42 44 44 38 40 41 42 43 45
42 44 45 40 42 43 41 42 44 42 43 45 41 42 44 41 42 44 41 42 44
43 44 44 44 44 44 43 43 43 44 44 44 45 45 45 44 44 44 46 46 46
43 43 43 51 51 51 54 55 55 43 45 44 44 46 45 44 46 45 44 46 45
44 46 46 45 47 46 45 47 46 44 46 45 44 46 45 46 48 47 46 48 47
44 46 45 43 45 44 42 44 43 46 48 47 41 43 43 44 46 45 39 41 40
58 60 59 61 63 62 55 58 57 49 52 51 53 55 54 71 73 73 53 55 54
36 39 38 35 37 37 42 44 44 41 43 43 43 46 45 43 45 44 41 43 42
42 44 43 43 45 44 42 44 43 42 44 43 42 44 44 43 45 45 44 46 46
46 48 48 49 51 50 51 53 52 50 52 51 47 49 48 42 45 44 40 42 42
44 46 46 43 45 45 43 45 44 44 46 45 44 46 45 44 46 45 44 46 45
43 45 44 43 45 44 44 46 45 43 45 44 42 44 43 42 44 43 42 44 43
42 44 43 40 38 41 40 38 41 40 38 41 41 39 42 41 39 42 40 40 43
40 41 43 39 40 42 39 40 42 39 40 42 39 41 43 35 37 38 38 40 41
42 44 46 40 42 43 39 41 43 43 45 46 44 46 48 40 42 43 37 39 40
40 42 44 35 37 38 44 46 48 45 47 49 45 47 48 38 40 41 40 42 43
47 49 50 40 42 43 39 41 42 40 41 43 39 41 42 39 40 42 39 40 42
38 40 41 38 39 41 37 38 40 39 41 42 39 41 43 39 40 42 39 41 43
39 41 43 39 40 42 37 40 41 37 41 42 42 46 47 38 42 42 56 59 58
49 51 51 59 59 58 109 109 107 69 69 67 195 196 193 199 199 195
128 128 124 66 67 63 47 48 45 45 46 44 52 52 51 45 45 45 47 47 47
42 42 42 42 44 43 39 41 40 39 41 41 40 42 42 39 41 41 40 42 41
43 45 44 44 46 46 40 42 42 42 44 44 41 43 44 40 42 43 38 39 41
38 40 41 39 41 42 38 40 41 39 41 42 41 43 44 42 44 45 42 43 43
42 42 42 43 43 43 45 45 45 47 47 47 48 48 48 44 44 44 44 44 44
51 51 51 55 56 55 44 46 45 45 47 46 44 46 45 43 45 44 42 44 44
44 46 45 44 46 45 45 47 46 45 47 46 43 45 44 43 45 44 43 45 44
43 45 44 43 45 45 45 47 47 46 48 47 48 50 49 46 48 47 101 103 102
80 83 82 59 61 60 54 56 55 50 52 51 41 43 42 45 47 46 42 44 43
44 46 45 43 45 45 45 47 47 41 43 43 41 43 42 43 45 44 40 42 42
39 41 41 41 43 43 42 44 44 44 46 45 44 46 45 44 46 45 44 46 45
45 47 46 45 47 47 46 48 48 48 50 49 48 51 50 45 47 46 43 45 44
41 43 43 42 44 44 44 46 46 45 47 46 45 47 46 46 48 47 45 47 46
45 47 46 45 47 47 45 47 46 43 45 44 43 45 44 43 45 44 43 45 44
48 46 49 44 42 45 39 36 39 38 36 39 43 40 43 40 40 42 39 41 42
38 40 41 39 41 42 39 41 42 39 41 42 38 40 41 39 41 42 38 40 41
40 42 43 41 42 44 41 42 44 39 41 43 38 40 41 37 38 40 37 39 41
39 41 43 39 41 43 43 45 46 47 49 50 43 45 47 40 42 43 48 49 51
42 44 45 38 40 42 39 40 42 39 40 42 39 40 42 39 40 42 38 39 41
38 40 42 40 41 43 40 41 43 39 41 42 40 41 43 40 41 43 40 41 43
40 41 43 39 42 43 39 43 44 39 43 44 40 44 45 42 44 43 80 82 81
102 103 101 69 69 67 109 109 107 195 195 192 160 161 156 62 63 59
65 65 61 71 71 68 46 46 44 48 48 46 53 53 53 44 44 44 42 43 43
39 41 40 39 41 40 40 42 41 41 43 43 42 44 44 43 45 44 47 49 48
44 46 46 41 43 43 42 44 44 40 42 43 40 41 43 40 41 43 40 41 43
40 41 43 41 42 44 42 44 45 42 44 45 41 43 44 42 43 43 43 43 43
43 43 43 43 43 43 43 43 43 46 46 46 45 45 45 44 44 44 48 48 48
56 57 57 46 48 47 42 44 44 40 42 41 41 43 42 40 42 41 41 43 42
42 44 44 44 46 45 44 46 45 43 45 44 44 46 46 44 46 45 44 46 45
45 47 47 45 47 46 44 46 46 46 48 47 45 47 46 42 44 43 42 44 44
48 50 49 48 50 49 45 47 46 44 46 45 44 46 45 43 45 44 43 45 44
42 44 43 42 44 43 42 44 43 42 44 43 42 44 43 42 44 43 40 42 41
40 42 42 41 43 43 44 46 45 45 47 46 45 47 46 44 46 45 44 46 45
44 46 46 45 47 46 45 47 46 44 46 46 46 48 47 48 50 50 53 55 54
52 54 54 52 54 53 54 56 55 55 57 56 51 53 52 52 54 53 51 53 52
52 54 54 56 58 58 54 56 56 47 49 48 46 48 48 46 48 47 61 60 63
70 69 71 83 82 85 77 76 78 56 56 58 47 47 48 41 43 43 34 36 36
29 31 31 36 38 38 35 37 37 38 40 40 45 47 47 41 43 43 44 46 47
37 39 40 41 43 44 40 42 44 40 42 44 42 44 46 41 42 44 40 41 43
38 39 41 39 41 43 38 40 41 43 45 46 45 47 48 42 44 45 40 42 43
39 40 42 39 40 42 39 40 42 39 40 42 39 40 42 38 40 42 39 40 42
40 41 43 40 41 43 40 41 43 40 41 43 40 41 43 40 41 43 40 41 43
41 44 45 40 44 45 40 44 45 39 43 44 40 42 41 59 61 61 103 104 103
39 39 37 147 148 145 186 186 184 87 87 84 52 53 49 80 81 76 88 88 85
71 71 69 66 66 65 60 60 60 49 49 49 40 40 40 40 41 40 39 41 40
39 41 41 41 43 43 44 46 46 47 49 48 48 50 49 47 49 48 39 41 40
40 42 42 42 43 45 42 43 45 42 43 45 42 43 45 42 43 45 42 43 45
41 42 44 41 42 44 41 43 44 42 42 43 42 42 42 42 42 42 42 42 42
42 42 42 43 43 43 44 44 44 44 44 44 47 47 47 54 54 54 43 45 45
43 45 45 43 46 45 44 46 46 39 41 41 41 43 43 42 44 44 44 46 45
44 46 45 43 45 44 44 46 46 44 46 45 44 46 45 45 47 47 49 51 50
45 47 46 43 45 45 45 47 47 45 47 46 43 45 44 46 48 47 45 47 46
44 46 45 43 45 45 43 45 44 43 45 44 42 44 43 42 44 43 42 44 43
42 44 43 42 44 43 42 44 43 42 44 43 41 43 42 41 43 42 41 43 43
44 46 45 45 47 46 45 47 46 44 46 45 44 46 45 44 46 46 45 47 47
45 47 46 45 47 46 45 47 47 46 48 48 52 54 54 51 53 53 47 49 48
44 46 45 43 45 44 42 44 44 44 46 46 43 46 45 43 45 44 44 46 46
45 47 46 45 47 47 48 50 49 49 51 50 41 43 44 42 45 46 39 42 43
42 45 46 60 63 64 93 95 95 113 115 114 128 131 130 121 123 122
93 95 94 59 61 60 37 39 38 32 34 33 32 34 33 36 38 38 43 45 47
43 45 46 39 41 42 40 42 44 42 44 45 35 37 39 38 40 42 39 41 43
38 39 41 36 38 40 40 42 43 47 49 50 47 49 50 41 43 44 39 41 42
39 40 42 39 40 42 39 40 42 39 40 42 39 40 42 39 41 43 41 42 44
41 42 44 40 42 43 41 42 44 41 42 44 41 42 44 41 42 44 40 43 44
39 43 44 39 43 44 40 44 45 41 44 43 42 44 43 67 68 67 67 68 66
104 104 102 144 144 142 43 43 39 46 46 42 72 73 68 55 56 53 52 53 51
64 64 62 63 63 62 41 41 41 41 41 41 42 43 43 41 43 42 42 44 44
44 46 45 44 46 45 54 56 55 89 91 91 40 42 42 39 41 40 42 44 43
40 41 43 40 41 43 40 41 43 40 41 43 41 43 45 42 44 45 40 42 43
40 41 43 41 43 44 42 42 43 42 42 42 42 42 42 42 42 42 42 42 42
43 43 43 45 45 45 44 44 44 44 44 44 48 49 48 73 75 74 48 50 49
42 44 43 41 43 42 42 44 44 42 44 43 43 45 45 44 46 45 43 45 44
43 45 44 44 46 46 44 46 45 44 46 45 45 47 47 44 46 46 42 44 44
43 45 45 45 47 46 44 46 45 43 45 45 44 46 45 43 45 44 42 44 44
43 45 44 43 45 44 42 44 43 42 44 43 41 43 42 41 43 43 42 44 43
42 44 43 42 44 43 42 44 43 43 45 44 42 44 43 42 44 44 44 46 45
45 47 46 45 47 46 44 46 45 44 46 45 44 46 46 45 47 47 46 48 47
46 48 47 44 46 45 44 46 45 43 45 44 43 45 44 43 45 44 43 45 45
44 46 45 43 45 44 44 46 45 45 47 46 43 45 44 41 43 43 42 44 44
44 46 45 43 45 44 42 44 43 37 41 42 37 41 42 37 41 42 34 38 39
33 37 38 35 38 38 28 30 30 30 32 31 51 53 52 65 67 66 68 70 69
97 99 99 104 106 106 114 116 115 88 90 89 76 78 79 70 72 73 64 65 67
57 58 60 50 52 54 47 48 50 43 44 46 42 44 46 41 42 44 40 41 43
37 39 40 46 48 50 52 54 55 47 49 50 39 41 42 39 40 42 39 40 42
39 40 42 39 40 42 39 41 43 40 42 44 41 43 44 41 42 44 41 42 44
42 43 45 42 43 45 42 43 45 41 43 45 40 43 44 39 43 44 39 43 44
40 44 45 42 44 44 42 44 43 39 40 39 51 51 49 101 101 99 68 68 66
44 44 40 49 50 46 59 60 56 47 48 45 41 42 39 47 48 46 64 64 64
61 61 61 44 44 44 42 43 43 41 43 43 42 44 43 44 46 46 46 48 47
44 46 46 46 48 47 38 40 40 42 44 43 38 40 40 40 42 43 41 42 44
41 42 44 41 42 44 42 43 45 43 44 46 42 43 45 41 43 44 40 42 43
42 43 44 44 44 44 44 44 44 44 44 44 44 44 44 44 44 44 45 45 45
44 44 44 45 45 45 42 42 42 73 75 74 72 74 73 42 44 43 44 46 46
42 44 43 43 45 44 43 45 45 43 45 44 42 44 43 42 44 44 44 46 46
44 46 45 44 46 45 45 47 47 45 47 47 42 44 44 42 44 44 43 45 44
42 44 43 43 45 45 44 46 45 41 43 43 41 43 43 41 43 43 42 44 43
42 44 43 41 43 42 41 43 42 41 43 43 42 44 43 42 44 43 42 44 43
42 44 43 43 45 44 43 45 44 43 45 44 44 46 45 45 47 46 45 47 46
44 46 45 44 46 45 44 46 46 44 46 45 45 47 46 45 47 47 44 46 45
43 45 44 43 45 44 43 45 44 43 45 44 43 45 44 43 45 44 42 44 43
41 43 43 43 45 44 44 46 45 43 45 45 45 47 47 45 47 46 42 44 43
41 43 43 38 41 42 38 41 43 36 39 41 37 40 42 40 43 44 37 39 40
38 40 41 38 40 41 39 41 42 39 41 42 38 40 41 31 33 34 31 33 34
28 30 31 48 49 50 58 59 61 60 62 64 67 69 71 62 64 66 56 58 60
55 57 59 42 44 46 39 40 42 39 41 43 39 40 42 36 38 40 45 46 48
53 55 56 58 59 61 39 41 43 39 40 42 39 40 42 39 41 42 39 40 42
40 41 43 40 42 44 41 43 45 42 43 45 41 43 45 42 43 45 42 43 45
42 43 45 41 43 45 42 44 45 41 44 44 41 44 44 40 43 43 40 42 42
39 41 41 39 40 39 45 46 44 55 56 55 41 41 40 40 40 39 48 49 46
45 46 44 46 47 46 42 43 42 42 43 42 45 45 46 46 47 47 46 46 47
47 49 49 41 43 43 39 41 41 42 44 44 48 50 50 44 46 46 45 47 46
39 41 41 41 43 43 44 46 46 42 43 44 42 43 44 42 43 44 42 43 44
42 43 44 42 44 45 43 44 45 42 44 44 40 42 42 43 44 44 45 45 45
45 45 45 46 46 46 45 45 45 43 43 43 43 44 44 43 44 43 47 48 48
45 46 46 35 37 37 53 55 55 43 45 44 44 46 45 43 45 45 44 46 45
44 46 45 43 45 44 42 44 43 43 45 45 44 46 46 44 46 45 44 46 45
44 46 46 49 51 51 44 46 46 40 42 41 41 43 43 42 44 43 42 44 43
43 45 45 42 44 43 40 42 41 41 43 42 42 44 43 42 44 43 41 43 42
41 43 42 41 43 43 42 44 43 42 44 43 42 44 43 42 44 43 44 46 45
44 46 45 43 45 44 43 45 45 44 46 46 45 47 46 44 46 45 44 46 45
44 46 46 43 46 45 44 46 46 45 47 47 45 47 46 43 45 44 44 46 46
45 47 47 45 47 46 43 45 44 43 45 44 42 45 44 41 43 42 42 44 44
44 46 45 42 45 44 42 44 43 42 44 43 40 42 42 42 44 43 39 41 44
38 40 43 39 40 44 38 39 43 37 39 42 39 40 44 39 40 44 39 40 44
38 39 43 37 38 42 38 40 43 40 41 45 41 42 46 41 43 46 43 44 48
44 46 49 44 45 49 39 40 44 37 38 42 37 38 42 38 39 43 38 39 43
38 39 43 38 39 43 37 38 41 39 41 42 39 41 43 65 67 68 95 97 98
39 41 42 42 44 45 40 42 43 41 43 44 38 40 41 40 41 43 40 42 44
41 43 45 42 44 46 43 44 46 41 43 44 40 42 43 40 41 43 40 41 43
40 42 42 41 43 42 41 43 42 42 44 43 42 44 43 43 46 45 46 48 48
63 65 65 64 66 65 47 49 49 42 43 45 42 43 45 42 43 45 42 43 45
42 43 45 42 43 45 42 43 45 42 44 46 43 44 46 43 44 46 38 40 41
38 40 42 40 41 43 44 46 47 42 43 44 40 42 43 40 41 43 40 42 43
41 42 44 42 44 43 42 44 43 42 44 43 42 44 43 42 44 44 43 45 44
42 44 43 43 45 44 43 45 44 39 41 40 40 42 41 44 46 45 46 48 47
45 47 46 43 45 44 43 45 44 44 46 45 44 46 45 49 50 50 71 73 73
56 58 57 45 47 46 46 48 48 47 49 48 39 41 40 42 44 43 45 47 46
43 45 45 43 45 45 43 45 44 43 45 44 43 45 44 42 44 43 43 45 44
43 45 44 42 44 43 42 44 43 42 44 43 42 44 43 42 44 43 42 44 43
42 44 43 43 45 44 41 43 43 41 43 42 42 44 43 41 43 42 41 43 43
42 44 43 42 44 43 42 44 44 43 45 44 44 46 45 44 46 45 43 45 44
42 44 43 43 45 44 45 47 46 43 45 44 43 45 45 44 46 46 44 47 46
44 46 46 45 47 46 45 47 46 44 46 45 45 47 46 45 47 46 44 46 45
43 45 44 42 44 43 42 44 43 42 44 44 43 45 44 44 46 45 44 46 45
43 45 44 42 44 43 41 43 42 41 43 43 38 39 43 37 39 42 39 40 44
37 38 42 37 39 42 37 38 42 37 39 42 38 40 43 39 40 44 39 40 44
38 39 43 38 39 43 39 40 44 39 41 44 40 41 45 41 42 46 41 43 46
39 40 44 38 40 43 39 40 44 39 40 44 38 39 43 38 39 43 38 39 43
36 38 40 41 43 44 40 42 43 51 53 54 84 85 87 39 41 42 39 41 42
41 43 44 39 41 42 37 39 41 40 41 43 40 41 43 41 42 44 41 43 45
42 43 45 40 42 43 39 41 42 39 40 42 39 41 42 40 42 42 41 43 42
41 43 42 42 44 43 42 44 43 39 41 40 72 74 73 58 60 59 49 51 50
46 48 48 42 43 45 42 43 45 42 43 45 42 43 45 42 43 45 42 44 45
42 43 45 41 43 44 41 42 44 36 38 40 41 42 44 40 42 43 42 44 45
44 46 47 40 42 43 39 40 42 38 39 41 39 40 42 40 41 42 41 43 42
41 43 42 41 43 42 41 43 42 41 43 42 41 43 43 42 44 44 42 44 43
41 43 42 41 43 42 44 46 45 44 46 45 43 45 44 42 44 44 42 44 44
43 45 44 43 45 44 44 46 45 44 46 45 48 50 49 41 43 43 46 48 47
42 44 43 49 52 51 46 48 47 40 42 41 45 47 46 47 49 48 44 46 45
43 45 44 43 45 44 43 45 44 42 44 43 43 45 44 43 45 44 42 44 43
42 44 43 42 44 43 42 44 43 42 44 43 42 44 43 42 44 43 42 44 44
41 43 43 40 42 41 40 42 42 40 42 41 41 43 42 42 44 43 42 44 43
42 44 44 43 45 44 43 45 44 43 45 44 43 45 44 43 45 44 43 45 44
44 46 45 44 46 45 44 46 45 44 46 45 44 46 46 44 46 45 42 44 43
42 44 44 44 46 45 45 47 47 45 47 46 45 47 46 44 46 45 43 45 44
42 44 43 42 44 44 43 45 45 44 46 46 45 47 47 44 46 45 43 45 44
41 43 42 41 43 42 36 37 41 37 39 42 38 39 43 37 38 42 37 38 42
36 38 41 36 38 41 38 40 43 40 41 45 40 41 45 38 39 43 38 39 43
38 39 43 38 39 43 38 39 43 36 37 41 38 40 43 39 40 44 40 42 45
41 43 46 40 41 45 39 40 44 39 40 44 38 39 43 40 42 44 37 39 40
43 45 46 36 38 39 62 64 65 50 52 54 37 39 40 41 43 44 40 42 43
41 43 44 40 41 43 40 41 43 40 42 44 41 42 44 41 42 44 41 42 44
39 41 42 39 40 42 39 41 43 40 42 42 41 43 42 41 43 42 42 44 43
42 44 43 64 66 65 86 88 87 43 45 44 44 46 45 48 50 49 42 43 45
42 43 45 42 43 45 42 43 45 42 43 45 42 43 45 42 43 45 41 42 44
40 42 43 35 37 38 38 40 41 41 43 44 42 44 46 42 43 45 40 42 43
39 40 42 38 39 41 39 40 42 39 41 42 41 43 42 41 43 42 41 43 42
41 43 42 40 42 41 40 42 42 42 44 43 40 42 41 42 44 43 42 44 44
41 43 42 40 42 41 41 43 43 44 46 45 42 44 43 42 44 43 43 45 44
43 45 44 44 46 46 39 41 40 49 51 51 49 52 51 43 45 44 36 39 38
41 43 43 46 48 48 44 46 45 41 43 43 43 45 44 43 45 44 43 45 44
43 45 44 42 44 43 43 45 44 43 45 44 42 44 43 42 44 43 42 44 43
42 44 43 42 44 43 42 44 43 42 44 43 42 44 44 40 42 42 39 41 41
40 42 42 40 42 41 41 43 43 42 44 43 42 44 43 42 44 44 43 45 44
43 45 44 43 45 44 43 45 44 43 45 44 43 45 44 43 45 44 44 46 45
44 46 45 43 45 44 43 45 45 42 44 43 41 43 42 41 43 43 43 45 44
44 46 46 45 47 46 44 46 45 44 46 45 44 46 45 44 46 45 44 46 45
44 46 45 44 46 45 44 46 46 45 47 46 43 45 44 41 43 42 41 43 42
35 36 40 36 38 41 38 39 43 36 37 41 36 38 41 37 38 42 37 38 42
38 40 43 39 40 44 39 40 44 39 40 44 38 39 43 38 39 43 38 39 43
38 39 43 37 39 42 38 40 43 37 38 42 36 38 41 37 39 42 38 39 43
37 38 42 36 37 41 35 36 40 37 38 41 38 40 41 39 41 42 39 41 43
52 54 55 74 76 77 40 42 43 40 42 43 41 43 44 44 46 47 40 41 43
40 41 43 40 41 43 40 41 43 41 42 44 43 44 46 41 43 44 41 42 44
41 43 45 41 43 43 41 43 42 41 43 42 42 44 43 42 44 43 73 75 74
60 62 61 41 43 42 40 42 41 45 47 47 42 43 45 42 43 45 42 43 45
42 43 45 41 42 44 40 41 43 40 42 44 41 42 44 41 42 44 42 44 45
39 41 42 53 55 57 51 53 54 41 42 44 40 42 44 40 42 43 40 41 43
40 42 44 41 42 44 40 42 41 40 42 41 40 42 41 40 42 41 39 41 40
40 42 42 41 43 42 40 42 42 46 48 48 65 67 66 56 58 57 45 47 46
43 45 44 39 41 41 42 44 43 42 44 43 42 44 43 43 45 44 47 49 48
50 52 52 41 43 42 51 53 52 68 71 70 98 101 100 46 48 47 31 34 33
41 43 43 45 47 47 45 47 46 43 45 44 43 45 44 43 45 44 42 44 43
43 45 44 43 45 44 42 44 43 42 44 43 42 44 43 42 44 43 42 44 43
42 44 43 42 44 43 42 44 43 40 42 41 40 42 41 43 45 44 43 45 44
42 44 43 42 44 43 42 44 43 42 44 44 43 45 44 42 44 43 42 44 43
43 45 44 44 46 45 43 45 44 42 44 44 43 45 45 43 45 44 43 45 44
41 43 42 41 43 43 42 44 43 42 44 43 41 43 42 42 44 43 42 44 43
43 45 44 43 45 44 43 45 44 44 46 45 44 46 45 44 46 46 45 47 46
45 47 46 45 47 46 43 45 44 43 45 44 43 45 44 36 37 41 36 37 41
36 37 41 36 38 41 37 39 42 37 39 42 37 38 42 37 39 42 38 39 43
38 39 43 38 39 43 38 39 43 38 39 43 38 39 43 38 39 43 37 39 42
38 39 43 38 39 43 37 38 42 37 39 42 36 37 41 35 37 40 36 37 41
36 37 41 35 36 38 42 44 46 40 42 43 43 45 46 36 38 39 55 57 59
63 65 67 36 38 39 41 43 44 41 43 44 39 41 43 40 41 43 40 41 43
40 41 43 40 42 44 41 43 45 41 43 45 42 43 45 42 43 45 43 45 46
42 44 43 37 39 38 44 46 45 48 50 49 50 53 52 44 46 46 40 42 42
43 45 45 49 51 50 43 45 46 40 42 43 40 42 44 40 42 43 39 41 42
40 42 44 41 42 44 40 42 44 40 41 43 41 43 45 42 44 45 59 61 62
50 52 53 38 40 41 39 41 42 40 41 43 39 40 42 40 41 43 40 42 43
40 42 42 41 43 42 40 42 41 40 42 42 40 42 41 38 41 40 43 45 44
40 42 41 45 47 47 48 50 49 44 46 46 42 44 43 42 45 44 41 43 43
41 43 43 43 45 44 45 47 46 43 45 44 42 45 44 45 47 47 52 54 53
61 63 62 46 48 47 138 140 139 132 134 134 53 55 54 41 43 43 42 44 44
45 47 46 44 46 45 43 45 44 42 44 43 42 44 43 42 44 43 42 44 43
42 44 44 43 45 44 43 45 44 43 45 44 42 44 43 41 43 42 41 43 42
41 43 42 41 43 42 42 45 44 42 44 44 43 45 44 42 44 44 41 43 42
42 44 43 43 45 44 42 44 43 42 44 43 42 44 43 42 44 43 42 44 43
42 44 43 42 44 43 42 44 44 42 44 44 43 45 44 41 44 43 42 44 43
42 44 43 42 44 43 41 43 42 41 43 42 41 43 43 42 44 43 42 44 43
41 43 43 42 44 44 43 45 44 43 45 45 45 47 46 45 47 46 45 47 46
45 47 46 44 46 45 43 45 44 37 38 42 36 37 41 36 37 41 36 38 41
37 39 42 37 39 42 37 38 42 37 39 42 38 39 43 38 39 43 38 39 43
38 39 43 38 39 43 38 39 43 38 39 43 38 39 43 38 39 43 38 39 43
37 38 42 37 38 42 37 38 42 36 38 41 38 39 43 37 38 42 38 40 42
44 45 47 38 39 41 40 42 43 39 41 42 38 40 42 64 66 68 54 56 57
43 45 46 42 44 45 40 41 43 40 41 43 40 41 43 40 41 43 40 41 43
40 42 44 41 43 45 42 43 45 42 43 45 38 40 40 40 42 41 47 49 49
39 41 40 66 68 67 42 44 44 40 43 42 40 42 41 40 42 41 48 50 50
42 44 45 40 42 43 40 42 44 41 42 44 40 42 43 41 42 44 40 42 43
40 41 43 39 41 42 39 40 42 38 39 41 45 46 48 40 42 44 41 43 44
40 41 43 39 40 42 39 40 42 40 41 43 39 41 42 38 40 40 39 41 41
39 41 40 39 41 41 40 42 41 38 40 39 41 43 43 39 41 40 41 43 42
40 42 42 42 44 44 42 44 44 42 44 43 42 44 43 42 44 43 43 45 45
44 46 46 47 49 49 72 74 73 63 65 65 46 48 48 50 52 52 46 48 47
57 59 59 58 60 59 41 43 42 44 46 45 42 44 43 43 45 44 44 46 45
43 45 44 42 44 43 42 44 43 41 43 42 41 43 43 42 44 43 42 44 44
43 45 44 43 45 44 42 44 43 42 44 43 42 44 43 42 44 43 41 43 43
43 46 45 41 43 43 41 43 43 42 44 44 39 41 41 40 42 41 42 44 44
42 44 43 42 44 43 42 44 43 41 43 42 41 43 42 41 43 43 42 44 43
42 44 43 42 44 44 43 45 44 42 44 43 42 44 43 42 44 43 42 44 43
42 44 43 41 43 42 41 43 43 42 44 43 41 43 42 41 43 42 42 44 43
42 44 44 43 45 44 43 45 45 43 45 44 43 45 45 45 47 46 45 47 46
44 46 45 36 37 41 37 38 42 36 37 41 36 37 41 37 38 42 37 38 42
37 38 42 37 39 42 38 39 43 38 39 43 38 39 43 38 39 43 38 39 43
38 39 43 38 39 43 38 39 43 38 39 43 38 39 43 37 38 42 37 38 42
37 38 42 38 40 43 39 41 44 36 37 41 36 38 40 46 47 49 44 46 47
41 42 44 38 40 41 36 38 39 45 47 48 72 74 76 42 44 45 42 44 45
40 41 43 40 41 43 40 41 43 40 41 43 40 41 43 40 42 44 41 43 45
42 43 45 42 43 45 42 44 44 44 47 46 38 40 39 105 107 107 69 71 71
39 42 41 39 42 41 40 42 41 39 42 41 43 45 45 41 43 44 41 42 44
41 43 45 43 44 46 43 44 46 42 44 45 41 42 44 41 42 44 41 43 45
42 43 45 41 43 45 41 42 44 37 39 40 40 41 43 39 41 42 39 40 42
39 40 42 40 41 43 40 41 42 38 40 39 39 41 41 40 42 42 40 42 41
39 41 41 38 41 40 42 44 43 42 44 44 42 44 43 42 44 43 41 43 42
43 45 44 43 45 44 43 45 45 42 44 43 45 47 46 70 72 72 53 55 54
94 96 95 69 72 71 44 46 46 43 45 44 45 48 47 42 45 44 44 46 45
44 46 45 40 42 41 45 47 46 44 46 45 43 45 44 42 44 43 42 44 43
42 44 43 41 43 42 41 43 43 42 44 43 42 44 43 42 44 43 42 44 43
42 44 44 44 46 45 44 46 46 43 45 45 43 45 45 44 46 46 41 43 43
41 43 43 43 46 45 41 43 43 40 42 41 42 44 43 45 47 46 42 44 43
42 44 43 41 43 42 41 43 42 41 43 43 42 44 43 42 44 43 42 44 44
43 45 44 42 44 43 42 44 43 42 44 43 42 44 43 42 44 43 41 43 42
41 43 43 42 44 43 41 43 42 41 43 42 42 44 43 42 44 43 42 44 44
43 45 44 42 44 43 42 44 43 43 45 45 45 47 46 45 47 46 36 37 41
38 39 43 36 37 41 36 37 41 36 38 41 37 38 42 37 38 42 37 39 42
38 39 43 38 39 43 38 39 43 38 39 43 38 39 43 38 39 43 38 39 43
38 39 43 38 39 43 38 39 43 37 38 42 37 38 42 37 38 42 38 39 43
39 41 44 38 39 43 42 43 45 48 50 52 43 45 47 37 39 40 42 44 45
42 44 45 39 41 42 67 68 70 52 54 56 41 43 44 41 42 44 41 42 44
40 41 43 39 40 42 39 40 42 40 42 44 41 43 45 42 43 45 42 43 45
41 43 43 37 40 39 52 54 53 83 85 85 42 44 43 39 42 41 41 44 43
41 43 42 42 44 44 41 43 43 43 45 47 43 45 46 42 44 45 41 43 45
43 45 46 42 43 45 43 45 47 44 45 47 44 45 47 37 39 41 44 46 47
40 42 44 38 40 41 39 41 42 39 40 42 39 40 42 39 40 42 40 41 43
40 41 43 40 42 42 42 44 43 46 48 47 45 47 47 41 43 43 42 44 44
44 46 45 47 49 48 57 59 59 50 52 51 40 43 42 43 45 44 42 45 44
43 45 44 45 47 46 43 46 45 43 46 45 41 43 42 45 47 46 37 39 38
41 43 43 41 43 42 43 45 44 41 43 42 39 41 40 42 44 43 42 44 44
41 43 42 41 43 42 41 43 42 42 44 43 42 44 43 42 44 43 42 44 43
41 43 42 41 43 42 40 42 41 40 42 42 41 43 42 42 44 43 43 45 45
44 46 45 43 45 45 45 47 47 44 46 45 42 44 44 41 43 42 43 45 45
44 46 45 41 43 42 42 44 44 46 48 47 42 44 44 42 44 43 41 43 42
41 43 42 41 43 43 42 44 43 42 44 43 42 44 44 43 45 44 42 44 43
42 44 43 42 44 43 42 44 43 42 44 43 41 43 42 41 43 43 42 44 43
41 43 42 41 43 42 41 43 42 41 43 43 42 44 43 42 44 43 42 44 44
43 45 44 44 46 45 43 45 44 43 45 44 36 37 41 38 39 43 37 38 42
36 37 41 36 37 41 36 38 41 37 38 42 37 39 42 38 39 43 38 39 43
38 39 43 38 39 43 38 39 43 38 39 43 38 39 43 38 39 43 38 39 43
38 39 43 37 38 42 37 38 42 36 37 41 36 38 41 39 41 44 40 42 45
39 40 43 49 51 53 53 55 56 39 41 43 39 41 42 41 42 44 44 45 47
56 58 59 71 73 74 40 42 44 41 43 44 41 42 43 40 41 43 39 40 41
39 40 41 41 42 44 41 43 45 42 43 45 42 43 45 39 41 41 40 43 42
100 102 101 44 46 46 40 42 41 41 43 43 41 43 43 38 41 40 42 45 44
41 43 43 46 48 50 46 48 49 41 43 45 40 42 43 39 41 43 39 41 42
43 45 46 44 46 47 41 43 44 41 43 44 50 52 53 41 43 44 38 40 41
40 42 43 39 40 42 39 40 42 39 40 42 40 41 43 40 41 43 41 43 42
43 45 44 48 50 49 46 48 48 42 44 44 43 45 44 40 42 41 52 54 53
88 90 89 63 65 64 41 43 42 43 45 45 42 44 43 42 44 43 47 49 48
43 46 45 50 52 51 44 46 46 41 43 43 43 46 45 42 44 43 44 46 45
40 42 41 42 44 43 44 46 45 38 40 39 40 42 41 40 42 41 42 44 44
41 43 42 41 43 43 42 44 43 42 44 44 42 44 43 41 43 42 41 43 42
40 42 41 40 42 41 41 43 42 41 43 42 42 44 43 43 45 44 43 45 44
47 49 48 44 46 45 42 44 44 42 44 43 39 41 41 42 44 43 40 42 42
40 42 41 43 45 44 42 44 43 42 44 43 41 43 42 41 43 42 41 43 43
42 44 43 42 44 43 42 44 44 43 45 44 42 44 43 42 44 43 42 44 43
42 44 43 42 44 43 41 43 42 41 43 43 42 44 43 41 43 42 41 43 42
41 43 42 41 43 42 41 43 43 42 44 43 41 43 42 41 43 42 42 44 44
44 46 45 44 46 46 36 37 41 37 38 42 37 38 42 38 39 43 38 39 43
37 38 41 36 38 40 38 39 41 37 38 40 38 40 42 37 39 40 35 36 38
35 36 38 35 37 39 37 39 41 38 39 43 38 39 43 38 39 43 38 39 43
38 39 43 39 40 44 39 40 44 41 43 46 41 42 46 38 39 43 39 40 44
47 48 51 50 51 55 41 43 46 43 44 48 37 38 41 47 48 51 72 74 77
47 48 50 44 44 44 42 43 41 37 38 37 38 39 38 43 43 44 44 44 45
43 43 45 42 42 44 45 46 47 40 40 42 88 90 91 97 99 100 39 41 42
40 42 42 40 42 43 42 43 44 39 41 42 41 43 44 50 52 53 53 55 56
41 43 45 40 42 43 43 44 46 41 43 44 42 44 46 45 47 48 49 50 52
41 42 44 42 44 45 45 47 48 39 41 42 39 41 42 39 41 43 39 40 42
38 39 41 38 40 42 40 41 43 40 42 43 40 42 41 40 42 41 40 42 42
43 45 45 43 45 44 43 45 44 45 47 46 47 49 49 46 48 48 47 49 48
44 47 46 43 45 44 50 52 51 59 62 61 45 47 47 43 45 44 42 44 43
41 43 42 41 43 42 42 44 44 44 46 45 42 44 43 41 43 42 42 44 43
43 45 44 42 44 43 40 42 41 40 42 41 41 43 42 42 44 43 42 44 43
42 44 43 42 44 43 41 43 42 41 43 42 41 43 42 41 43 42 41 43 42
40 42 42 43 45 45 43 45 44 42 44 43 42 44 44 44 46 45 44 46 46
44 46 45 43 45 44 42 44 43 42 44 43 42 44 43 42 44 43 42 44 43
42 44 43 47 49 48 43 45 45 39 41 41 41 44 43 40 42 41 40 42 41
41 43 43 42 44 44 44 46 45 42 45 44 41 43 42 42 44 43 40 42 41
41 43 42 41 43 43 42 44 43 41 43 42 41 43 42 40 42 41 40 42 41
40 42 41 39 41 40 40 42 41 42 44 44 43 45 44 41 43 42 41 43 43
36 37 41 35 36 40 36 37 41 36 37 41 36 38 41 36 37 40 36 38 40
38 39 41 37 38 40 38 40 42 37 39 40 36 37 39 36 37 39 36 38 40
37 39 41 38 39 43 38 39 43 38 39 43 38 39 43 37 38 42 35 36 40
36 38 41 39 40 44 38 39 43 38 40 43 36 37 41 35 37 40 40 42 45
40 41 45 37 39 42 46 47 51 35 37 40 63 64 68 95 96 98 49 49 47
42 42 40 41 41 39 37 38 36 42 41 42 43 43 43 43 43 45 44 44 46
42 42 44 38 39 40 116 118 119 58 60 61 36 38 39 41 43 44 41 42 44
42 43 45 39 41 42 41 43 44 49 50 52 56 58 59 43 44 46 39 41 42
42 44 46 44 46 47 36 38 39 44 46 47 46 48 49 42 43 45 50 52 53
47 49 51 38 40 41 40 41 43 41 43 44 39 41 42 39 40 42 39 40 42
40 41 43 40 42 43 40 42 41 40 42 41 41 43 43 43 45 45 40 42 41
70 72 72 96 98 97 56 58 57 38 40 40 41 43 42 40 42 41 41 43 42
47 49 48 52 54 53 44 46 45 42 44 43 42 44 43 41 43 42 41 43 42
41 43 42 43 45 44 42 44 43 42 44 43 43 45 45 44 46 45 44 46 45
42 44 43 42 44 43 40 42 42 40 42 41 40 42 41 40 42 41 40 42 41
41 43 42 41 43 42 41 43 42 41 43 42 41 43 42 42 44 43 41 43 42
42 44 43 42 44 44 43 45 44 43 45 45 44 46 45 44 46 45 43 45 44
42 44 43 42 44 43 42 44 43 42 44 43 42 44 43 42 44 43 48 50 49
45 47 47 41 43 42 41 43 43 41 43 42 41 43 42 41 43 43 42 44 44
44 46 45 41 44 43 41 43 42 42 44 44 41 43 42 41 43 42 41 43 43
42 44 43 41 43 42 41 43 42 42 44 43 42 44 43 42 44 43 42 44 43
41 43 42 40 42 42 42 44 43 41 43 42 41 43 43 36 37 41 36 37 41
36 37 41 37 38 42 37 38 42 37 38 40 37 39 41 38 39 41 37 38 40
37 39 41 36 38 39 36 37 39 36 38 40 37 39 41 38 39 41 38 39 43
38 39 43 38 39 43 38 39 43 37 38 42 35 37 40 36 38 41 38 40 43
38 39 43 39 41 44 38 39 43 37 38 42 39 41 44 41 42 46 42 44 47
37 39 42 40 42 45 35 36 40 81 82 84 93 93 92 41 41 39 37 38 35
43 43 42 40 40 40 42 42 42 44 43 45 44 44 46 40 40 42 78 79 81
102 104 105 38 40 42 44 46 47 40 42 43 40 42 44 41 42 44 39 41 42
41 43 44 45 47 49 48 50 51 41 43 45 40 42 44 42 43 45 41 43 44
41 42 44 40 42 44 51 53 55 61 63 64 48 50 52 43 45 46 38 40 41
41 43 44 40 42 43 40 41 43 39 41 42 39 40 42 40 41 43 40 42 43
39 41 40 39 41 41 41 43 43 43 45 45 46 48 47 38 40 39 33 35 34
43 45 44 43 45 45 43 45 44 43 45 45 42 44 43 41 43 42 40 42 41
41 43 42 42 44 43 42 44 43 41 43 42 41 43 42 40 42 42 43 45 44
43 45 44 42 44 44 43 45 45 43 45 44 43 45 44 42 44 43 42 44 43
40 42 42 40 42 41 40 42 41 40 42 41 40 42 41 41 43 42 41 43 42
41 43 42 41 43 42 41 43 42 41 43 42 40 42 41 40 42 42 42 44 44
43 45 44 43 45 44 43 45 45 43 45 44 43 45 44 42 44 43 42 44 43
42 44 43 42 44 43 42 44 43 42 44 43 47 49 48 46 48 47 41 44 43
41 43 42 41 43 42 41 43 42 42 44 44 43 45 45 46 48 47 45 48 47
43 45 44 43 45 44 41 43 42 41 43 43 42 44 44 43 45 44 42 44 43
41 43 42 41 43 42 41 43 43 42 44 43 42 44 43 43 45 44 45 47 46
45 47 46 42 44 43 41 43 42 36 37 41 37 38 42 37 39 42 38 39 43
38 40 43 38 39 42 38 40 42 38 39 41 36 37 39 36 38 40 36 38 39
37 38 40 38 39 41 38 39 41 37 38 40 38 39 43 38 39 43 38 39 43
38 39 43 38 39 43 37 38 42 38 40 43 40 42 45 40 41 45 36 37 41
36 38 41 38 40 43 39 40 44 39 40 44 38 39 43 43 44 48 40 42 45
42 44 47 37 38 41 126 126 125 53 54 52 35 35 33 45 46 44 41 41 41
42 42 42 43 43 45 42 42 44 45 45 47 87 88 90 63 64 66 47 48 50
41 42 44 41 42 44 42 44 45 40 42 43 40 41 43 40 42 44 42 44 45
39 40 42 40 42 44 42 44 46 40 42 43 40 42 43 37 39 41 45 46 48
41 43 44 75 77 79 55 57 58 38 40 41 39 41 42 40 42 43 39 40 42
41 43 44 41 42 44 40 41 43 40 41 43 41 42 44 45 47 46 42 44 44
40 42 41 39 41 40 38 40 39 42 44 44 46 48 48 42 44 43 40 42 41
39 42 41 39 41 41 40 42 42 40 42 41 39 41 40 40 42 41 40 42 42
41 43 42 41 43 43 41 43 43 41 43 42 43 45 44 42 44 43 42 44 43
41 43 43 41 43 42 41 43 42 41 43 42 41 43 42 41 43 43 42 44 43
42 44 43 42 44 43 42 44 43 41 43 42 41 43 42 41 43 42 41 43 42
41 43 42 41 43 42 40 42 41 41 43 42 41 43 43 42 44 43 42 44 44
43 45 44 43 45 44 42 44 43 42 44 43 42 44 43 42 44 43 42 44 43
42 44 43 43 45 44 44 46 46 43 45 44 41 43 42 41 43 43 42 44 43
42 44 43 42 44 44 43 45 45 47 49 49 46 49 48 44 46 45 44 46 45
41 44 43 42 44 43 42 44 44 43 45 44 43 45 44 42 44 43 42 44 43
41 43 42 41 43 42 40 42 41 42 44 43 46 48 47 45 47 46 41 43 42
40 42 41 36 38 41 35 37 40 36 37 41 36 37 41 37 38 42 37 39 41
38 40 42 39 40 42 36 38 39 36 38 40 36 37 39 37 39 41 38 40 42
39 40 42 37 38 40 38 39 43 38 39 43 38 39 43 38 39 43 38 39 43
37 38 42 37 39 42 40 41 45 40 41 45 35 37 40 36 38 41 38 39 43
39 41 44 40 42 45 39 40 44 42 44 47 43 44 48 45 47 50 35 36 39
113 113 112 77 77 75 41 41 39 39 40 39 42 42 42 42 42 42 43 43 45
40 39 41 50 50 52 66 67 69 43 45 46 48 50 51 60 62 63 40 42 44
41 42 44 39 41 42 40 41 43 41 42 44 41 42 44 42 44 45 41 43 45
41 42 44 40 42 43 43 44 46 42 43 45 38 40 42 40 42 43 55 57 58
50 52 53 39 40 42 39 41 43 36 38 39 40 42 44 42 44 45 41 43 44
40 41 43 40 41 43 40 42 43 42 44 43 41 43 42 41 43 42 41 43 43
41 43 42 42 44 43 43 45 44 40 42 41 40 42 42 39 41 40 39 41 40
39 41 40 38 40 39 38 40 39 39 41 41 40 42 41 40 42 42 41 43 43
42 44 43 42 44 44 44 46 45 42 44 43 41 43 42 42 44 43 43 45 44
43 45 44 43 45 44 43 45 45 41 43 42 40 42 41 40 42 41 40 42 41
40 42 41 41 43 42 41 43 42 41 43 42 41 43 42 40 42 42 39 41 41
41 43 43 42 44 43 41 43 42 40 42 42 42 44 43 42 44 44 42 44 43
41 43 42 41 43 43 42 44 43 42 44 43 42 44 43 42 44 43 43 45 44
42 44 43 40 42 41 40 42 41 41 43 43 42 44 43 42 44 43 43 45 45
44 46 46 43 45 44 41 43 42 41 43 43 42 44 44 43 45 44 42 44 43
43 45 44 44 46 45 43 45 44 42 44 43 46 48 47 44 46 45 43 45 44
41 43 42 40 42 41 41 43 42 41 43 42 39 41 40 39 41 41
