P3
102 102
255
199 199 199 174 173 174 179 179 179 174 173 174 191 191 191 183 183 183 183 183 183 177 177 177 184 184 184 168 168 168 146 146 146 171 171 171 168 168 168 160 160 160 183 183 183 168 168 168 186 186 186 167 167 167 175 175 175 175 175 175 135 135 135 157 157 157 189 189 189 167 167 167 184 184 184 194 194 194 194 194 194 179 179 179 165 165 165 178 178 178 183 183 183 161 161 161 169 169 169 162 162 162 176 176 176 187 187 188 164 164 164 161 161 161 155 155 155 174 173 174 174 173 174 194 194 194 193 193 193 179 179 179 186 186 186 201 201 201 191 191 191 189 189 189 191 191 191 184 184 184 176 176 176 193 193 193 185 185 185 185 185 185 192 192 192 191 191 191 183 183 183 183 183 183 185 185 185 186 186 186 185 185 185 193 193 193 192 192 192 178 178 178 204 204 204 212 212 212 204 204 204 176 176 176 197 197 197 186 186 186 194 194 194 203 203 203 199 199 199 192 192 192 192 192 192 182 182 182 190 190 190 193 193 193 196 196 196 192 192 192 172 172 172 186 186 186 201 201 201 190 190 190 172 172 172 161 161 161 176 176 176 182 182 182 187 187 188 179 179 179 181 180 181 184 184 184 192 192 192 183 183 183 189 189 189 197 197 197 164 164 164 193 193 193 186 186 186 176 176 176 182 182 182 193 193 193 
194 194 194 190 190 190 160 160 160 179 179 179 198 198 198 171 171 171 175 175 175 177 177 177 192 192 192 165 165 165 175 175 175 167 167 167 185 185 185 174 173 174 178 178 178 174 173 174 175 175 175 182 182 182 182 182 182 183 183 183 174 173 174 171 171 171 185 185 185 199 199 199 194 194 194 199 199 199 187 187 188 169 169 169 179 179 179 161 161 161 169 169 169 184 184 184 177 177 177 155 155 155 157 157 157 161 161 161 147 147 147 171 171 171 179 179 179 181 180 181 204 204 204 192 192 192 179 179 179 162 162 162 181 180 181 190 190 190 177 177 177 177 177 177 184 184 184 171 171 171 153 153 153 171 171 171 187 187 188 197 197 197 194 194 194 191 191 191 185 185 185 185 185 185 184 184 184 183 183 183 198 198 198 200 200 200 187 187 188 199 199 199 211 211 211 197 197 197 179 179 179 175 175 175 194 194 194 181 180 181 211 211 211 205 205 205 203 203 203 185 185 185 187 187 188 191 191 191 184 184 184 177 177 177 179 179 179 123 123 123 149 149 149 185 185 185 192 192 192 183 183 183 161 161 161 179 179 179 194 194 194 197 197 197 186 186 186 184 184 184 194 194 194 204 204 204 196 196 196 201 201 201 191 191 191 181 180 181 184 184 184 192 192 192 187 187 188 179 179 179 190 190 190 198 198 198 
194 194 194 211 211 211 169 169 169 179 179 179 187 187 188 175 175 175 174 173 174 184 184 184 183 183 183 169 169 169 171 171 171 172 172 172 175 175 175 171 171 171 175 175 175 190 190 190 175 175 175 181 180 181 164 164 164 172 172 172 184 184 184 163 163 163 182 182 182 196 196 196 189 189 189 186 186 186 184 184 184 183 183 183 185 185 185 168 168 168 164 164 164 161 161 161 149 149 149 165 165 165 176 176 176 192 192 192 185 185 185 183 183 183 186 186 186 178 178 178 178 178 178 192 192 192 199 199 199 191 191 191 196 196 196 184 184 184 184 184 184 194 194 194 189 189 189 181 180 181 174 173 174 187 187 188 206 206 206 184 184 184 185 185 185 183 183 183 187 187 188 187 187 188 187 187 188 187 187 188 189 189 189 181 180 181 182 182 182 196 196 196 206 206 206 190 190 190 177 177 177 192 192 192 181 180 181 178 178 178 182 182 182 192 192 192 185 185 185 182 182 182 190 190 190 191 191 191 189 189 189 208 208 208 214 214 214 189 189 189 183 183 183 183 183 183 183 183 183 190 190 190 196 196 196 175 175 175 189 189 189 181 180 181 171 171 171 170 170 170 184 184 184 194 194 194 179 179 179 191 191 191 189 189 189 196 196 196 192 192 192 190 190 190 181 180 181 164 164 164 182 182 182 190 190 190 
193 193 193 187 187 188 190 190 190 197 197 197 168 168 168 191 191 191 186 186 186 178 178 178 167 167 167 179 179 179 165 165 165 174 173 174 190 190 190 170 170 170 156 156 156 184 184 184 197 197 197 142 142 142 102 102 102 174 173 174 165 165 165 182 182 182 176 176 176 178 178 178 200 200 200 187 187 188 171 171 171 178 178 178 183 183 183 182 182 182 167 167 167 168 168 168 193 193 193 200 200 200 184 184 184 146 146 146 187 187 188 178 178 178 189 189 189 189 189 189 197 197 197 178 178 178 197 197 197 193 193 193 192 192 192 181 180 181 187 187 188 194 194 194 187 187 188 194 194 194 197 197 197 191 191 191 185 185 185 196 196 196 184 184 184 186 186 186 181 180 181 183 183 183 179 179 179 169 169 169 179 179 179 190 190 190 190 190 190 176 176 176 181 180 181 185 185 185 184 184 184 191 191 191 179 179 179 191 191 191 189 189 189 172 172 172 194 194 194 191 191 191 208 208 208 201 201 201 199 199 199 199 199 199 192 192 192 179 179 179 176 176 176 208 208 208 178 178 178 201 201 201 179 179 179 182 182 182 199 199 199 184 184 184 183 183 183 191 191 191 190 190 190 179 179 179 187 187 188 189 189 189 160 160 160 199 199 199 183 183 183 185 185 185 177 177 177 175 175 175 187 187 188 187 187 188 
186 186 186 169 169 169 125 125 125 181 180 181 178 178 178 194 194 194 197 197 197 168 168 168 182 182 182 161 161 161 156 156 156 201 201 201 187 187 188 184 184 184 183 183 183 181 180 181 174 173 174 151 151 151 181 180 181 187 187 188 204 204 204 177 177 177 182 182 182 183 183 183 192 192 192 183 183 183 179 179 179 189 189 189 197 197 197 190 190 190 183 183 183 190 190 190 187 187 188 196 196 196 183 183 183 115 115 115 196 196 196 186 186 186 178 178 178 182 182 182 197 197 197 197 197 197 200 200 200 184 184 184 196 196 196 196 196 196 185 185 185 189 189 189 193 193 193 198 198 198 194 194 194 184 184 184 192 192 192 181 180 181 187 187 188 179 179 179 175 175 175 184 184 184 189 189 189 184 184 184 167 167 167 177 177 177 175 175 175 157 157 157 169 169 169 169 169 169 196 196 196 192 192 192 193 193 193 210 210 210 210 210 210 194 194 194 199 199 199 197 197 197 197 197 197 198 198 198 207 207 207 184 184 184 162 162 162 147 147 147 148 148 148 182 182 182 181 180 181 183 183 183 172 172 172 193 193 193 199 199 199 193 193 193 197 197 197 204 204 204 200 200 200 187 187 188 182 182 182 161 161 161 158 158 158 204 204 204 149 149 149 161 161 161 169 169 169 174 173 174 200 200 200 181 180 181 
199 199 199 189 189 189 170 170 170 183 183 183 158 158 158 155 155 155 183 183 183 200 200 200 187 187 188 168 168 168 161 161 161 189 189 189 187 187 188 176 176 176 182 182 182 183 183 183 165 165 165 170 170 170 197 197 197 179 179 179 184 184 184 177 177 177 165 165 165 186 186 186 186 186 186 183 183 183 169 169 169 184 184 184 171 171 171 172 172 172 185 185 185 191 191 191 194 194 194 197 197 197 197 197 197 200 200 200 178 178 178 182 182 182 192 192 192 164 164 164 189 189 189 189 189 189 182 182 182 196 196 196 206 206 206 191 191 191 192 192 192 189 189 189 192 192 192 187 187 188 191 191 191 199 199 199 190 190 190 178 178 178 177 177 177 170 170 170 169 169 169 186 186 186 199 199 199 199 199 199 189 189 189 176 176 176 201 201 201 190 190 190 179 179 179 198 198 198 203 203 203 201 201 201 214 214 214 211 211 211 206 206 206 205 205 205 206 206 206 201 201 201 200 200 200 203 203 203 199 199 199 190 190 190 186 186 186 191 191 191 191 191 191 186 186 186 190 190 190 198 198 198 192 192 192 197 197 197 189 189 189 200 200 200 205 205 205 210 210 210 203 203 203 189 189 189 176 176 176 167 167 167 192 192 192 140 140 140 128 128 128 187 187 188 156 156 156 184 184 184 190 190 190 183 183 183 
198 198 198 155 155 155 193 193 193 211 211 211 184 184 184 183 183 183 175 175 175 182 182 182 191 191 191 189 189 189 184 184 184 186 186 186 183 183 183 171 171 171 172 172 172 183 183 183 176 176 176 181 180 181 177 177 177 184 184 184 172 172 172 191 191 191 153 153 153 157 157 157 174 173 174 156 156 156 179 179 179 179 179 179 179 179 179 186 186 186 197 197 197 182 182 182 164 164 164 163 163 163 187 187 188 194 194 194 172 172 172 190 190 190 200 200 200 191 191 191 201 201 201 183 183 183 151 151 151 178 178 178 181 180 181 162 162 162 177 177 177 179 179 179 177 177 177 179 179 179 186 186 186 193 193 193 176 176 176 190 190 190 161 161 161 175 175 175 172 172 172 187 187 188 198 198 198 201 201 201 198 198 198 184 184 184 196 196 196 193 193 193 196 196 196 212 212 212 211 211 211 215 215 215 215 215 215 214 214 214 213 213 213 213 213 213 205 205 205 192 192 192 200 200 200 185 185 185 172 172 172 183 183 183 190 190 190 190 190 190 190 190 190 177 177 177 176 176 176 192 192 192 190 190 190 197 197 197 201 201 201 206 206 206 205 205 205 208 208 208 200 200 200 185 185 185 175 175 175 182 182 182 189 189 189 108 108 108 151 151 151 170 170 170 158 158 158 182 182 182 165 165 165 143 143 143 
199 199 199 136 136 136 181 180 181 200 200 200 161 161 161 197 197 197 205 205 205 167 167 167 185 185 185 186 186 186 186 186 186 191 191 191 192 192 192 175 175 175 175 175 175 167 167 167 182 182 182 187 187 188 185 185 185 184 184 184 172 172 172 181 180 181 175 175 175 177 177 177 176 176 176 174 173 174 176 176 176 175 175 175 186 186 186 185 185 185 196 196 196 174 173 174 165 165 165 190 190 190 183 183 183 190 190 190 184 184 184 171 171 171 194 194 194 196 196 196 192 192 192 196 196 196 197 197 197 196 196 196 203 203 203 193 193 193 190 190 190 186 186 186 167 167 167 176 176 176 174 173 174 177 177 177 162 162 162 187 187 188 172 172 172 170 170 170 182 182 182 200 200 200 190 190 190 191 191 191 196 196 196 190 190 190 197 197 197 194 194 194 189 189 189 193 193 193 218 218 218 214 214 214 221 221 221 221 221 221 219 219 219 212 212 212 201 201 201 213 213 213 176 176 176 160 160 160 187 187 188 199 199 199 192 192 192 185 185 185 207 207 207 196 196 196 187 187 188 190 190 190 189 189 189 198 198 198 204 204 204 204 204 204 207 207 207 211 211 211 203 203 203 187 187 188 176 176 176 160 160 160 179 179 179 185 185 185 165 165 165 172 172 172 179 179 179 181 180 181 153 153 153 134 134 134 
201 201 201 154 154 154 187 187 188 204 204 204 201 201 201 194 194 194 206 206 206 190 190 190 175 175 175 185 185 185 184 184 184 177 177 177 182 182 182 181 180 181 177 177 177 170 170 170 191 191 191 186 186 186 184 184 184 185 185 185 172 172 172 179 179 179 183 183 183 177 177 177 174 173 174 178 178 178 172 172 172 176 176 176 189 189 189 189 189 189 184 184 184 187 187 188 200 200 200 186 186 186 175 175 175 181 180 181 176 176 176 168 168 168 181 180 181 192 192 192 192 192 192 197 197 197 194 194 194 186 186 186 196 196 196 190 190 190 197 197 197 219 219 219 193 193 193 181 180 181 192 192 192 192 192 192 193 193 193 187 187 188 176 176 176 175 175 175 186 186 186 198 198 198 197 197 197 189 189 189 182 182 182 189 189 189 198 198 198 197 197 197 197 197 197 205 205 205 208 208 208 219 219 219 221 221 221 224 224 224 222 222 222 218 218 218 194 194 194 169 169 169 185 185 185 205 205 205 212 212 212 189 189 189 176 176 176 191 191 191 194 194 194 196 196 196 199 199 199 205 205 205 194 194 194 203 203 203 206 206 206 205 205 205 211 211 211 218 218 218 215 215 215 204 204 204 190 190 190 182 182 182 184 184 184 171 171 171 170 170 170 193 193 193 193 193 193 194 194 194 129 129 129 187 187 188 
200 200 200 154 154 154 185 185 185 197 197 197 196 196 196 167 167 167 179 179 179 187 187 188 191 191 191 187 187 188 184 184 184 187 187 188 168 168 168 175 175 175 182 182 182 184 184 184 181 180 181 161 161 161 179 179 179 178 178 178 192 192 192 186 186 186 167 167 167 174 173 174 171 171 171 184 184 184 165 165 165 178 178 178 190 190 190 190 190 190 182 182 182 197 197 197 175 175 175 157 157 157 178 178 178 192 192 192 189 189 189 189 189 189 192 192 192 189 189 189 199 199 199 194 194 194 197 197 197 205 205 205 194 194 194 192 192 192 186 186 186 172 172 172 187 187 188 183 183 183 193 193 193 191 191 191 175 175 175 181 180 181 192 192 192 194 194 194 191 191 191 197 197 197 183 183 183 205 205 205 192 192 192 192 192 192 194 194 194 204 204 204 198 198 198 193 193 193 206 206 206 215 215 215 219 219 219 221 221 221 221 221 221 218 218 218 204 204 204 198 198 198 198 198 198 197 197 197 176 176 176 196 196 196 205 205 205 191 191 191 200 200 200 204 204 204 203 203 203 199 199 199 204 204 204 208 208 208 210 210 210 206 206 206 212 212 212 219 219 219 217 217 217 205 205 205 192 192 192 191 191 191 185 185 185 169 169 169 182 182 182 186 186 186 196 196 196 184 184 184 162 162 162 199 199 199 
203 203 203 144 144 144 184 184 184 192 192 192 172 172 172 179 179 179 192 192 192 191 191 191 169 169 169 181 180 181 193 193 193 185 185 185 177 177 177 168 168 168 182 182 182 182 182 182 175 175 175 167 167 167 186 186 186 193 193 193 183 183 183 181 180 181 178 178 178 182 182 182 169 169 169 189 189 189 161 161 161 181 180 181 187 187 188 190 190 190 191 191 191 197 197 197 165 165 165 172 172 172 184 184 184 183 183 183 182 182 182 197 197 197 204 204 204 198 198 198 203 203 203 199 199 199 198 198 198 200 200 200 184 184 184 146 146 146 167 167 167 193 193 193 185 185 185 163 163 163 196 196 196 194 194 194 192 192 192 194 194 194 191 191 191 192 192 192 191 191 191 186 186 186 178 178 178 189 189 189 196 196 196 198 198 198 189 189 189 187 187 188 190 190 190 185 185 185 203 203 203 214 214 214 219 219 219 219 219 219 215 215 215 210 210 210 205 205 205 194 194 194 197 197 197 194 194 194 182 182 182 198 198 198 214 214 214 198 198 198 200 200 200 206 206 206 205 205 205 199 199 199 210 210 210 213 213 213 212 212 212 207 207 207 212 212 212 214 214 214 206 206 206 191 191 191 182 182 182 183 183 183 181 180 181 181 180 181 191 191 191 184 184 184 177 177 177 183 183 183 203 203 203 181 180 181 
186 186 186 153 153 153 196 196 196 192 192 192 176 176 176 187 187 188 192 192 192 171 171 171 169 169 169 186 186 186 172 172 172 178 178 178 187 187 188 174 173 174 176 176 176 182 182 182 191 191 191 174 173 174 162 162 162 175 175 175 177 177 177 167 167 167 176 176 176 160 160 160 174 173 174 179 179 179 184 184 184 172 172 172 193 193 193 181 180 181 196 196 196 194 194 194 171 171 171 175 175 175 174 173 174 183 183 183 191 191 191 198 198 198 175 175 175 161 161 161 197 197 197 191 191 191 183 183 183 189 189 189 194 194 194 203 203 203 190 190 190 184 184 184 196 196 196 187 187 188 190 190 190 194 194 194 185 185 185 187 187 188 187 187 188 191 191 191 189 189 189 196 196 196 194 194 194 189 189 189 191 191 191 192 192 192 174 173 174 168 168 168 175 175 175 203 203 203 207 207 207 222 222 222 218 218 218 218 218 218 211 211 211 198 198 198 205 205 205 198 198 198 204 204 204 204 204 204 207 207 207 182 182 182 185 185 185 193 193 193 203 203 203 205 205 205 201 201 201 204 204 204 212 212 212 212 212 212 213 213 213 212 212 212 214 214 214 210 210 210 200 200 200 199 199 199 175 175 175 168 168 168 176 176 176 193 193 193 191 191 191 170 170 170 154 154 154 191 191 191 189 189 189 193 193 193 
164 164 164 170 170 170 191 191 191 179 179 179 168 168 168 165 165 165 170 170 170 175 175 175 177 177 177 197 197 197 181 180 181 171 171 171 177 177 177 172 172 172 155 155 155 184 184 184 168 168 168 169 169 169 177 177 177 175 175 175 176 176 176 155 155 155 156 156 156 170 170 170 178 178 178 183 183 183 182 182 182 178 178 178 187 187 188 175 175 175 185 185 185 177 177 177 176 176 176 185 185 185 192 192 192 196 196 196 200 200 200 193 193 193 190 190 190 186 186 186 187 187 188 172 172 172 187 187 188 192 192 192 196 196 196 203 203 203 192 192 192 165 165 165 186 186 186 197 197 197 187 187 188 179 179 179 190 190 190 191 191 191 199 199 199 189 189 189 193 193 193 198 198 198 171 171 171 197 197 197 199 199 199 190 190 190 183 183 183 189 189 189 182 182 182 189 189 189 215 215 215 215 215 215 217 217 217 218 218 218 212 212 212 200 200 200 193 193 193 196 196 196 189 189 189 193 193 193 172 172 172 168 168 168 183 183 183 198 198 198 206 206 206 205 205 205 205 205 205 210 210 210 214 214 214 214 214 214 214 214 214 214 214 214 213 213 213 204 204 204 192 192 192 186 186 186 183 183 183 189 189 189 191 191 191 189 189 189 187 187 188 169 169 169 151 151 151 170 170 170 169 169 169 174 173 174 
163 163 163 164 164 164 169 169 169 160 160 160 153 153 153 149 149 149 155 155 155 174 173 174 185 185 185 194 194 194 185 185 185 182 182 182 185 185 185 176 176 176 174 173 174 186 186 186 165 165 165 170 170 170 178 178 178 174 173 174 190 190 190 175 175 175 175 175 175 196 196 196 174 173 174 177 177 177 154 154 154 183 183 183 178 178 178 170 170 170 179 179 179 168 168 168 186 186 186 192 192 192 184 184 184 196 196 196 196 196 196 198 198 198 184 184 184 201 201 201 200 200 200 196 196 196 199 199 199 189 189 189 187 187 188 198 198 198 185 185 185 186 186 186 185 185 185 183 183 183 185 185 185 175 175 175 196 196 196 204 204 204 198 198 198 194 194 194 190 190 190 189 189 189 182 182 182 190 190 190 185 185 185 177 177 177 185 185 185 190 190 190 183 183 183 187 187 188 191 191 191 204 204 204 204 204 204 206 206 206 203 203 203 192 192 192 193 193 193 186 186 186 176 176 176 186 186 186 164 164 164 181 180 181 197 197 197 212 212 212 210 210 210 206 206 206 208 208 208 215 215 215 217 217 217 217 217 217 217 217 217 217 217 217 213 213 213 200 200 200 169 169 169 177 177 177 179 179 179 194 194 194 198 198 198 185 185 185 184 184 184 171 171 171 186 186 186 182 182 182 177 177 177 172 172 172 
148 148 148 189 189 189 171 171 171 155 155 155 169 169 169 169 169 169 161 161 161 165 165 165 162 162 162 156 156 156 160 160 160 178 178 178 200 200 200 169 169 169 175 175 175 177 177 177 186 186 186 178 178 178 167 167 167 170 170 170 171 171 171 176 176 176 184 184 184 182 182 182 174 173 174 177 177 177 172 172 172 175 175 175 170 170 170 169 169 169 183 183 183 171 171 171 185 185 185 162 162 162 186 186 186 194 194 194 189 189 189 189 189 189 185 185 185 187 187 188 183 183 183 196 196 196 185 185 185 200 200 200 204 204 204 199 199 199 187 187 188 182 182 182 175 175 175 183 183 183 181 180 181 176 176 176 206 206 206 200 200 200 201 201 201 198 198 198 192 192 192 183 183 183 193 193 193 199 199 199 170 170 170 175 175 175 190 190 190 183 183 183 190 190 190 175 175 175 169 169 169 185 185 185 191 191 191 194 194 194 192 192 192 183 183 183 186 186 186 191 191 191 191 191 191 170 170 170 172 172 172 196 196 196 203 203 203 212 212 212 210 210 210 210 210 210 214 214 214 218 218 218 218 218 218 218 218 218 218 218 218 218 218 218 211 211 211 196 196 196 144 144 144 179 179 179 184 184 184 201 201 201 208 208 208 203 203 203 200 200 200 200 200 200 181 180 181 167 167 167 181 180 181 176 176 176 
114 114 114 156 156 156 167 167 167 184 184 184 187 187 188 168 168 168 174 173 174 181 180 181 147 147 147 157 157 157 174 173 174 192 192 192 198 198 198 192 192 192 158 158 158 182 182 182 176 176 176 165 165 165 178 178 178 164 164 164 174 173 174 162 162 162 186 186 186 192 192 192 181 180 181 178 178 178 169 169 169 163 163 163 171 171 171 170 170 170 167 167 167 178 178 178 178 178 178 181 180 181 179 179 179 184 184 184 199 199 199 190 190 190 190 190 190 191 191 191 183 183 183 183 183 183 191 191 191 189 189 189 201 201 201 211 211 211 187 187 188 185 185 185 189 189 189 177 177 177 193 193 193 193 193 193 204 204 204 193 193 193 197 197 197 199 199 199 171 171 171 163 163 163 182 182 182 174 173 174 170 170 170 184 184 184 185 185 185 187 187 188 187 187 188 167 167 167 181 180 181 184 184 184 183 183 183 192 192 192 200 200 200 191 191 191 194 194 194 178 178 178 172 172 172 179 179 179 196 196 196 200 200 200 206 206 206 210 210 210 217 217 217 218 218 218 219 219 219 215 215 215 219 219 219 217 217 217 215 215 215 214 214 214 201 201 201 185 185 185 194 194 194 184 184 184 205 205 205 207 207 207 208 208 208 187 187 188 192 192 192 207 207 207 191 191 191 189 189 189 172 172 172 178 178 178 
141 141 141 189 189 189 177 177 177 183 183 183 185 185 185 177 177 177 177 177 177 167 167 167 130 130 130 139 139 139 169 169 169 181 180 181 179 179 179 183 183 183 193 193 193 169 169 169 175 175 175 179 179 179 185 185 185 185 185 185 185 185 185 179 179 179 176 176 176 169 169 169 157 157 157 171 171 171 182 182 182 179 179 179 162 162 162 175 175 175 164 164 164 172 172 172 176 176 176 183 183 183 179 179 179 183 183 183 186 186 186 167 167 167 186 186 186 196 196 196 174 173 174 178 178 178 187 187 188 184 184 184 197 197 197 177 177 177 167 167 167 174 173 174 189 189 189 189 189 189 196 196 196 203 203 203 205 205 205 205 205 205 204 204 204 198 198 198 199 199 199 201 201 201 189 189 189 177 177 177 178 178 178 168 168 168 174 173 174 179 179 179 162 162 162 175 175 175 196 196 196 183 183 183 191 191 191 201 201 201 198 198 198 190 190 190 169 169 169 167 167 167 181 180 181 194 194 194 197 197 197 201 201 201 207 207 207 211 211 211 218 218 218 219 219 219 220 220 220 217 217 217 219 219 219 219 219 219 215 215 215 211 211 211 191 191 191 183 183 183 181 180 181 193 193 193 213 213 213 204 204 204 196 196 196 185 185 185 171 171 171 200 200 200 205 205 205 189 189 189 176 176 176 178 178 178 
179 179 179 198 198 198 186 186 186 186 186 186 176 176 176 181 180 181 190 190 190 175 175 175 176 176 176 160 160 160 171 171 171 151 151 151 154 154 154 185 185 185 187 187 188 192 192 192 157 157 157 175 175 175 181 180 181 175 175 175 178 178 178 187 187 188 177 177 177 160 160 160 170 170 170 167 167 167 176 176 176 174 173 174 170 170 170 174 173 174 169 169 169 178 178 178 172 172 172 175 175 175 182 182 182 175 175 175 192 192 192 175 175 175 182 182 182 196 196 196 171 171 171 190 190 190 201 201 201 186 186 186 170 170 170 142 142 142 183 183 183 183 183 183 179 179 179 181 180 181 187 187 188 204 204 204 207 207 207 203 203 203 196 196 196 197 197 197 196 196 196 191 191 191 191 191 191 203 203 203 204 204 204 201 201 201 205 205 205 199 199 199 192 192 192 204 204 204 196 196 196 189 189 189 189 189 189 194 194 194 197 197 197 167 167 167 194 194 194 187 187 188 191 191 191 203 203 203 199 199 199 204 204 204 210 210 210 213 213 213 220 220 220 221 221 221 222 222 222 219 219 219 208 208 208 213 213 213 213 213 213 207 207 207 198 198 198 187 187 188 178 178 178 203 203 203 199 199 199 187 187 188 181 180 181 191 191 191 197 197 197 182 182 182 192 192 192 189 189 189 177 177 177 175 175 175 
154 154 154 184 184 184 171 171 171 185 185 185 178 178 178 178 178 178 190 190 190 187 187 188 189 189 189 191 191 191 174 173 174 167 167 167 183 183 183 178 178 178 164 164 164 187 187 188 187 187 188 177 177 177 171 171 171 164 164 164 171 171 171 168 168 168 176 176 176 182 182 182 170 170 170 160 160 160 160 160 160 139 139 139 165 165 165 169 169 169 177 177 177 168 168 168 181 180 181 175 175 175 198 198 198 177 177 177 170 170 170 205 205 205 185 185 185 186 186 186 177 177 177 185 185 185 198 198 198 194 194 194 197 197 197 205 205 205 191 191 191 194 194 194 197 197 197 186 186 186 196 196 196 208 208 208 208 208 208 214 214 214 201 201 201 196 196 196 199 199 199 176 176 176 196 196 196 204 204 204 196 196 196 201 201 201 199 199 199 201 201 201 201 201 201 198 198 198 198 198 198 183 183 183 194 194 194 192 192 192 183 183 183 161 161 161 168 168 168 181 180 181 187 187 188 203 203 203 200 200 200 205 205 205 211 211 211 214 214 214 221 221 221 222 222 222 224 224 224 220 220 220 210 210 210 211 211 211 203 203 203 187 187 188 168 168 168 178 178 178 171 171 171 156 156 156 179 179 179 194 194 194 178 178 178 161 161 161 162 162 162 200 200 200 191 191 191 193 193 193 182 182 182 176 176 176 
169 169 169 175 175 175 184 184 184 186 186 186 181 180 181 165 165 165 160 160 160 169 169 169 185 185 185 175 175 175 182 182 182 183 183 183 178 178 178 179 179 179 170 170 170 184 184 184 187 187 188 192 192 192 184 184 184 189 189 189 187 187 188 175 175 175 179 179 179 170 170 170 151 151 151 150 150 150 153 153 153 156 156 156 178 178 178 190 190 190 172 172 172 167 167 167 184 184 184 178 178 178 176 176 176 177 177 177 162 162 162 183 183 183 185 185 185 190 190 190 177 177 177 179 179 179 196 196 196 196 196 196 187 187 188 187 187 188 177 177 177 186 186 186 183 183 183 178 178 178 205 205 205 207 207 207 213 213 213 213 213 213 210 210 210 203 203 203 208 208 208 201 201 201 198 198 198 193 193 193 192 192 192 185 185 185 193 193 193 214 214 214 198 198 198 174 173 174 183 183 183 193 193 193 187 187 188 186 186 186 179 179 179 168 168 168 162 162 162 184 184 184 200 200 200 203 203 203 207 207 207 206 206 206 211 211 211 217 217 217 227 227 227 224 224 224 218 218 218 210 210 210 210 210 210 193 193 193 181 180 181 170 170 170 161 161 161 192 192 192 162 162 162 150 150 150 161 161 161 170 170 170 153 153 153 167 167 167 172 172 172 170 170 170 163 163 163 127 127 127 132 132 132 146 146 146 
153 153 153 140 140 140 169 169 169 185 185 185 184 184 184 164 164 164 158 158 158 172 172 172 174 173 174 176 176 176 161 161 161 191 191 191 178 178 178 178 178 178 177 177 177 176 176 176 184 184 184 176 176 176 185 185 185 182 182 182 168 168 168 168 168 168 182 182 182 149 149 149 125 125 125 149 149 149 150 150 150 156 156 156 179 179 179 167 167 167 168 168 168 169 169 169 176 176 176 170 170 170 167 167 167 164 164 164 175 175 175 182 182 182 175 175 175 185 185 185 183 183 183 183 183 183 181 180 181 185 185 185 189 189 189 196 196 196 184 184 184 176 176 176 175 175 175 181 180 181 203 203 203 208 208 208 217 217 217 211 211 211 208 208 208 210 210 210 205 205 205 203 203 203 193 193 193 175 175 175 191 191 191 181 180 181 196 196 196 201 201 201 193 193 193 183 183 183 176 176 176 196 196 196 175 175 175 171 171 171 183 183 183 175 175 175 179 179 179 190 190 190 196 196 196 206 206 206 204 204 204 208 208 208 211 211 211 211 211 211 213 213 213 219 219 219 220 220 220 212 212 212 177 177 177 171 171 171 172 172 172 182 182 182 187 187 188 187 187 188 175 175 175 187 187 188 186 186 186 198 198 198 169 169 169 184 184 184 183 183 183 172 172 172 182 182 182 192 192 192 154 154 154 169 169 169 
147 147 147 135 135 135 143 143 143 175 175 175 192 192 192 178 178 178 185 185 185 175 175 175 174 173 174 175 175 175 170 170 170 186 186 186 179 179 179 175 175 175 178 178 178 155 155 155 168 168 168 182 182 182 171 171 171 187 187 188 175 175 175 160 160 160 157 157 157 155 155 155 140 140 140 154 154 154 149 149 149 153 153 153 161 161 161 177 177 177 164 164 164 167 167 167 144 144 144 183 183 183 176 176 176 182 182 182 183 183 183 178 178 178 179 179 179 186 186 186 181 180 181 184 184 184 196 196 196 199 199 199 196 196 196 187 187 188 176 176 176 174 173 174 190 190 190 200 200 200 208 208 208 208 208 208 215 215 215 212 212 212 211 211 211 214 214 214 212 212 212 207 207 207 201 201 201 199 199 199 194 194 194 198 198 198 208 208 208 196 196 196 199 199 199 193 193 193 198 198 198 192 192 192 168 168 168 176 176 176 165 165 165 179 179 179 179 179 179 191 191 191 186 186 186 194 194 194 198 198 198 201 201 201 203 203 203 199 199 199 203 203 203 203 203 203 189 189 189 165 165 165 170 170 170 174 173 174 204 204 204 163 163 163 144 144 144 186 186 186 172 172 172 185 185 185 200 200 200 150 150 150 177 177 177 198 198 198 187 187 188 201 201 201 185 185 185 197 197 197 176 176 176 161 161 161 
160 160 160 139 139 139 143 143 143 149 149 149 185 185 185 190 190 190 176 176 176 184 184 184 164 164 164 176 176 176 177 177 177 163 163 163 169 169 169 168 168 168 150 150 150 170 170 170 165 165 165 164 164 164 168 168 168 179 179 179 167 167 167 162 162 162 170 170 170 167 167 167 170 170 170 157 157 157 155 155 155 165 165 165 165 165 165 170 170 170 157 157 157 179 179 179 190 190 190 189 189 189 167 167 167 186 186 186 186 186 186 168 168 168 178 178 178 163 163 163 168 168 168 183 183 183 175 175 175 170 170 170 157 157 157 146 146 146 151 151 151 170 170 170 196 196 196 207 207 207 213 213 213 210 210 210 212 212 212 215 215 215 217 217 217 213 213 213 214 214 214 201 201 201 189 189 189 200 200 200 190 190 190 189 189 189 187 187 188 187 187 188 203 203 203 190 190 190 197 197 197 184 184 184 184 184 184 169 169 169 148 148 148 175 175 175 191 191 191 191 191 191 184 184 184 198 198 198 194 194 194 189 189 189 185 185 185 186 186 186 186 186 186 174 173 174 174 173 174 184 184 184 171 171 171 192 192 192 211 211 211 198 198 198 174 173 174 160 160 160 153 153 153 200 200 200 191 191 191 174 173 174 198 198 198 185 185 185 187 187 188 192 192 192 185 185 185 167 167 167 162 162 162 135 135 135 
175 175 175 154 154 154 127 127 127 134 134 134 167 167 167 192 192 192 194 194 194 187 187 188 186 186 186 175 175 175 175 175 175 172 172 172 172 172 172 170 170 170 123 123 123 184 184 184 189 189 189 134 134 134 167 167 167 167 167 167 156 156 156 151 151 151 167 167 167 172 172 172 177 177 177 178 178 178 175 175 175 162 162 162 158 158 158 158 158 158 156 156 156 142 142 142 163 163 163 162 162 162 169 169 169 177 177 177 183 183 183 178 178 178 160 160 160 134 134 134 164 164 164 176 176 176 192 192 192 187 187 188 183 183 183 194 194 194 193 193 193 184 184 184 203 203 203 203 203 203 204 204 204 204 204 204 207 207 207 217 217 217 218 218 218 212 212 212 222 222 222 212 212 212 198 198 198 185 185 185 186 186 186 184 184 184 186 186 186 204 204 204 184 184 184 184 184 184 186 186 186 199 199 199 178 178 178 172 172 172 186 186 186 164 164 164 169 169 169 177 177 177 197 197 197 194 194 194 185 185 185 191 191 191 182 182 182 183 183 183 189 189 189 182 182 182 185 185 185 193 193 193 158 158 158 172 172 172 211 211 211 208 208 208 160 160 160 187 187 188 189 189 189 183 183 183 185 185 185 185 185 185 129 129 129 163 163 163 163 163 163 176 176 176 163 163 163 135 135 135 156 156 156 172 172 172 
187 187 188 181 180 181 155 155 155 137 137 137 146 146 146 181 180 181 184 184 184 184 184 184 185 185 185 179 179 179 178 178 178 194 194 194 190 190 190 179 179 179 174 173 174 193 193 193 177 177 177 170 170 170 176 176 176 153 153 153 191 191 191 157 157 157 136 136 136 171 171 171 177 177 177 184 184 184 183 183 183 190 190 190 189 189 189 194 194 194 189 189 189 176 176 176 182 182 182 185 185 185 174 173 174 177 177 177 171 171 171 192 192 192 187 187 188 170 170 170 186 186 186 197 197 197 198 198 198 197 197 197 184 184 184 189 189 189 179 179 179 179 179 179 198 198 198 197 197 197 197 197 197 196 196 196 206 206 206 213 213 213 215 215 215 211 211 211 217 217 217 212 212 212 197 197 197 196 196 196 186 186 186 194 194 194 199 199 199 187 187 188 181 180 181 199 199 199 198 198 198 203 203 203 181 180 181 177 177 177 184 184 184 174 173 174 190 190 190 182 182 182 181 180 181 172 172 172 167 167 167 185 185 185 190 190 190 177 177 177 172 172 172 189 189 189 187 187 188 168 168 168 167 167 167 184 184 184 193 193 193 199 199 199 189 189 189 187 187 188 158 158 158 156 156 156 184 184 184 150 150 150 143 143 143 185 185 185 150 150 150 169 169 169 197 197 197 169 169 169 174 173 174 186 186 186 
143 143 143 150 150 150 161 161 161 158 158 158 162 162 162 141 141 141 165 165 165 196 196 196 184 184 184 185 185 185 181 180 181 186 186 186 184 184 184 187 187 188 168 168 168 181 180 181 203 203 203 169 169 169 174 173 174 178 178 178 191 191 191 176 176 176 168 168 168 169 169 169 181 180 181 178 178 178 187 187 188 186 186 186 189 189 189 194 194 194 190 190 190 192 192 192 186 186 186 184 184 184 191 191 191 190 190 190 183 183 183 185 185 185 199 199 199 200 200 200 185 185 185 177 177 177 182 182 182 156 156 156 121 121 121 171 171 171 171 171 171 184 184 184 196 196 196 193 193 193 190 190 190 189 189 189 201 201 201 204 204 204 206 206 206 206 206 206 191 191 191 200 200 200 199 199 199 200 200 200 191 191 191 197 197 197 200 200 200 186 186 186 203 203 203 201 201 201 207 207 207 189 189 189 191 191 191 177 177 177 183 183 183 184 184 184 198 198 198 178 178 178 185 185 185 181 180 181 164 164 164 176 176 176 169 169 169 151 151 151 181 180 181 200 200 200 193 193 193 172 172 172 189 189 189 177 177 177 178 178 178 206 206 206 192 192 192 154 154 154 164 164 164 147 147 147 197 197 197 165 165 165 172 172 172 196 196 196 192 192 192 176 176 176 155 155 155 162 162 162 186 186 186 176 176 176 
169 169 169 144 144 144 146 146 146 149 149 149 135 135 135 150 150 150 176 176 176 196 196 196 181 180 181 170 170 170 176 176 176 183 183 183 186 186 186 179 179 179 182 182 182 183 183 183 181 180 181 181 180 181 187 187 188 171 171 171 181 180 181 182 182 182 179 179 179 170 170 170 162 162 162 175 175 175 178 178 178 177 177 177 181 180 181 182 182 182 182 182 182 205 205 205 172 172 172 179 179 179 194 194 194 187 187 188 185 185 185 172 172 172 186 186 186 176 176 176 177 177 177 181 180 181 192 192 192 140 140 140 140 140 140 184 184 184 194 194 194 189 189 189 184 184 184 181 180 181 176 176 176 174 173 174 193 193 193 193 193 193 196 196 196 198 198 198 191 191 191 199 199 199 207 207 207 196 196 196 198 198 198 191 191 191 189 189 189 203 203 203 206 206 206 189 189 189 184 184 184 187 187 188 199 199 199 196 196 196 190 190 190 169 169 169 187 187 188 181 180 181 172 172 172 190 190 190 168 168 168 174 173 174 155 155 155 151 151 151 189 189 189 163 163 163 192 192 192 169 169 169 182 182 182 160 160 160 176 176 176 191 191 191 189 189 189 179 179 179 167 167 167 171 171 171 161 161 161 178 178 178 176 176 176 178 178 178 182 182 182 133 133 133 127 127 127 185 185 185 194 194 194 182 182 182 
172 172 172 154 154 154 158 158 158 161 161 161 157 157 157 160 160 160 184 184 184 191 191 191 189 189 189 178 178 178 170 170 170 167 167 167 169 169 169 157 157 157 170 170 170 168 168 168 171 171 171 174 173 174 175 175 175 162 162 162 156 156 156 174 173 174 140 140 140 122 122 122 128 128 128 146 146 146 176 176 176 165 165 165 160 160 160 183 183 183 178 178 178 155 155 155 168 168 168 198 198 198 183 183 183 186 186 186 191 191 191 198 198 198 176 176 176 174 173 174 192 192 192 199 199 199 200 200 200 208 208 208 179 179 179 182 182 182 172 172 172 183 183 183 183 183 183 175 175 175 183 183 183 201 201 201 190 190 190 161 161 161 192 192 192 194 194 194 178 178 178 199 199 199 201 201 201 199 199 199 211 211 211 206 206 206 186 186 186 187 187 188 177 177 177 184 184 184 197 197 197 189 189 189 183 183 183 196 196 196 182 182 182 185 185 185 189 189 189 193 193 193 192 192 192 194 194 194 193 193 193 200 200 200 187 187 188 174 173 174 189 189 189 199 199 199 182 182 182 168 168 168 143 143 143 160 160 160 191 191 191 200 200 200 226 226 226 197 197 197 162 162 162 165 165 165 160 160 160 167 167 167 178 178 178 175 175 175 149 149 149 155 155 155 184 184 184 186 186 186 203 203 203 190 190 190 
183 183 183 181 180 181 193 193 193 191 191 191 182 182 182 167 167 167 176 176 176 170 170 170 162 162 162 155 155 155 150 150 150 150 150 150 155 155 155 146 146 146 146 146 146 156 156 156 161 161 161 156 156 156 167 167 167 174 173 174 168 168 168 179 179 179 168 168 168 144 144 144 139 139 139 121 121 121 157 157 157 168 168 168 168 168 168 140 140 140 175 175 175 178 178 178 186 186 186 196 196 196 182 182 182 192 192 192 187 187 188 177 177 177 183 183 183 169 169 169 168 168 168 174 173 174 198 198 198 172 172 172 179 179 179 191 191 191 161 161 161 176 176 176 175 175 175 165 165 165 191 191 191 182 182 182 168 168 168 169 169 169 184 184 184 178 178 178 183 183 183 201 201 201 203 203 203 205 205 205 200 200 200 211 211 211 207 207 207 194 194 194 176 176 176 175 175 175 150 150 150 154 154 154 162 162 162 156 156 156 137 137 137 192 192 192 190 190 190 187 187 188 197 197 197 203 203 203 182 182 182 161 161 161 182 182 182 196 196 196 184 184 184 186 186 186 183 183 183 192 192 192 198 198 198 168 168 168 157 157 157 204 204 204 214 214 214 200 200 200 190 190 190 157 157 157 178 178 178 154 154 154 174 173 174 176 176 176 178 178 178 172 172 172 170 170 170 192 192 192 182 182 182 198 198 198 
172 172 172 149 149 149 158 158 158 174 173 174 179 179 179 183 183 183 181 180 181 175 175 175 181 180 181 178 178 178 179 179 179 183 183 183 190 190 190 178 178 178 183 183 183 183 183 183 177 177 177 183 183 183 182 182 182 162 162 162 177 177 177 184 184 184 189 189 189 162 162 162 143 143 143 176 176 176 135 135 135 182 182 182 187 187 188 185 185 185 172 172 172 179 179 179 185 185 185 179 179 179 182 182 182 175 175 175 191 191 191 185 185 185 172 172 172 170 170 170 164 164 164 190 190 190 179 179 179 165 165 165 182 182 182 167 167 167 183 183 183 179 179 179 108 108 108 157 157 157 184 184 184 177 177 177 186 186 186 193 193 193 187 187 188 174 173 174 187 187 188 190 190 190 203 203 203 199 199 199 208 208 208 207 207 207 206 206 206 200 200 200 189 189 189 171 171 171 179 179 179 179 179 179 194 194 194 191 191 191 174 173 174 181 180 181 181 180 181 179 179 179 185 185 185 177 177 177 149 149 149 174 173 174 201 201 201 179 179 179 160 160 160 176 176 176 194 194 194 189 189 189 194 194 194 161 161 161 169 169 169 212 212 212 204 204 204 178 178 178 186 186 186 176 176 176 179 179 179 150 150 150 183 183 183 172 172 172 164 164 164 158 158 158 187 187 188 194 194 194 184 184 184 199 199 199 
172 172 172 170 170 170 168 168 168 144 144 144 156 156 156 192 192 192 170 170 170 164 164 164 182 182 182 183 183 183 187 187 188 196 196 196 170 170 170 175 175 175 167 167 167 164 164 164 164 164 164 157 157 157 157 157 157 151 151 151 161 161 161 179 179 179 197 197 197 181 180 181 192 192 192 160 160 160 171 171 171 181 180 181 186 186 186 189 189 189 163 163 163 171 171 171 154 154 154 160 160 160 184 184 184 197 197 197 169 169 169 156 156 156 187 187 188 183 183 183 186 186 186 192 192 192 177 177 177 167 167 167 184 184 184 192 192 192 184 184 184 113 113 113 162 162 162 205 205 205 191 191 191 179 179 179 204 204 204 200 200 200 196 196 196 187 187 188 193 193 193 192 192 192 191 191 191 186 186 186 199 199 199 203 203 203 208 208 208 200 200 200 196 196 196 190 190 190 185 185 185 193 193 193 168 168 168 144 144 144 156 156 156 210 210 210 184 184 184 185 185 185 179 179 179 187 187 188 190 190 190 181 180 181 165 165 165 164 164 164 179 179 179 184 184 184 175 175 175 190 190 190 178 178 178 179 179 179 179 179 179 174 173 174 198 198 198 208 208 208 204 204 204 170 170 170 156 156 156 178 178 178 178 178 178 172 172 172 167 167 167 172 172 172 182 182 182 155 155 155 184 184 184 184 184 184 
157 157 157 174 173 174 175 175 175 161 161 161 147 147 147 174 173 174 193 193 193 178 178 178 186 186 186 182 182 182 187 187 188 199 199 199 181 180 181 181 180 181 172 172 172 172 172 172 175 175 175 171 171 171 156 156 156 151 151 151 153 153 153 160 160 160 171 171 171 187 187 188 168 168 168 122 122 122 189 189 189 200 200 200 183 183 183 183 183 183 189 189 189 181 180 181 181 180 181 177 177 177 184 184 184 181 180 181 171 171 171 167 167 167 176 176 176 177 177 177 175 175 175 177 177 177 158 158 158 177 177 177 182 182 182 158 158 158 119 119 119 125 125 125 210 210 210 200 200 200 199 199 199 198 198 198 168 168 168 182 182 182 199 199 199 191 191 191 193 193 193 190 190 190 172 172 172 201 201 201 191 191 191 200 200 200 207 207 207 210 210 210 212 212 212 196 196 196 182 182 182 194 194 194 191 191 191 190 190 190 187 187 188 204 204 204 186 186 186 174 173 174 190 190 190 198 198 198 191 191 191 187 187 188 208 208 208 185 185 185 164 164 164 190 190 190 162 162 162 163 163 163 167 167 167 163 163 163 176 176 176 176 176 176 182 182 182 185 185 185 175 175 175 149 149 149 172 172 172 156 156 156 162 162 162 181 180 181 170 170 170 170 170 170 161 161 161 137 137 137 163 163 163 158 158 158 
157 157 157 155 155 155 165 165 165 183 183 183 183 183 183 176 176 176 167 167 167 183 183 183 177 177 177 190 190 190 178 178 178 196 196 196 185 185 185 181 180 181 164 164 164 158 158 158 177 177 177 170 170 170 171 171 171 164 164 164 153 153 153 151 151 151 147 147 147 172 172 172 176 176 176 165 165 165 201 201 201 198 198 198 169 169 169 139 139 139 147 147 147 165 165 165 158 158 158 167 167 167 143 143 143 153 153 153 192 192 192 174 173 174 171 171 171 169 169 169 169 169 169 178 178 178 178 178 178 196 196 196 171 171 171 107 107 107 98 98 98 184 184 184 200 200 200 197 197 197 187 187 188 172 172 172 130 130 130 160 160 160 181 180 181 176 176 176 189 189 189 196 196 196 191 191 191 191 191 191 190 190 190 198 198 198 208 208 208 218 218 218 214 214 214 213 213 213 199 199 199 183 183 183 170 170 170 175 175 175 191 191 191 172 172 172 157 157 157 167 167 167 198 198 198 203 203 203 192 192 192 181 180 181 176 176 176 161 161 161 201 201 201 197 197 197 191 191 191 176 176 176 179 179 179 191 191 191 185 185 185 186 186 186 189 189 189 170 170 170 156 156 156 177 177 177 174 173 174 156 156 156 163 163 163 176 176 176 190 190 190 192 192 192 177 177 177 184 184 184 174 173 174 178 178 178 
151 151 151 154 154 154 155 155 155 154 154 154 168 168 168 181 180 181 176 176 176 177 177 177 179 179 179 172 172 172 182 182 182 189 189 189 174 173 174 189 189 189 181 180 181 169 169 169 171 171 171 185 185 185 183 183 183 149 149 149 170 170 170 155 155 155 163 163 163 169 169 169 185 185 185 175 175 175 147 147 147 147 147 147 162 162 162 174 173 174 153 153 153 170 170 170 177 177 177 190 190 190 171 171 171 185 185 185 191 191 191 187 187 188 182 182 182 161 161 161 185 185 185 199 199 199 169 169 169 156 156 156 118 118 118 115 115 115 183 183 183 201 201 201 205 205 205 194 194 194 186 186 186 144 144 144 177 177 177 190 190 190 171 171 171 177 177 177 187 187 188 189 189 189 201 201 201 183 183 183 190 190 190 211 211 211 221 221 221 218 218 218 218 218 218 211 211 211 207 207 207 201 201 201 186 186 186 183 183 183 185 185 185 177 177 177 169 169 169 168 168 168 208 208 208 193 193 193 186 186 186 170 170 170 160 160 160 183 183 183 196 196 196 187 187 188 172 172 172 174 173 174 189 189 189 192 192 192 184 184 184 203 203 203 193 193 193 168 168 168 172 172 172 182 182 182 178 178 178 183 183 183 165 165 165 189 189 189 203 203 203 198 198 198 189 189 189 176 176 176 181 180 181 177 177 177 
157 157 157 160 160 160 162 162 162 164 164 164 174 173 174 160 160 160 162 162 162 179 179 179 183 183 183 158 158 158 175 175 175 191 191 191 176 176 176 174 173 174 169 169 169 177 177 177 165 165 165 181 180 181 174 173 174 156 156 156 164 164 164 162 162 162 170 170 170 175 175 175 187 187 188 185 185 185 116 116 116 114 114 114 157 157 157 193 193 193 176 176 176 165 165 165 140 140 140 146 146 146 165 165 165 171 171 171 169 169 169 165 165 165 168 168 168 158 158 158 153 153 153 157 157 157 102 102 102 109 109 109 153 153 153 182 182 182 176 176 176 155 155 155 182 182 182 187 187 188 190 190 190 187 187 188 196 196 196 193 193 193 196 196 196 194 194 194 197 197 197 205 205 205 196 196 196 200 200 200 192 192 192 205 205 205 212 212 212 211 211 211 214 214 214 199 199 199 199 199 199 196 196 196 191 191 191 199 199 199 157 157 157 176 176 176 168 168 168 174 173 174 185 185 185 189 189 189 192 192 192 167 167 167 198 198 198 192 192 192 178 178 178 163 163 163 157 157 157 167 167 167 177 177 177 178 178 178 193 193 193 200 200 200 185 185 185 168 168 168 158 158 158 170 170 170 164 164 164 175 175 175 181 180 181 201 201 201 206 206 206 200 200 200 176 176 176 176 176 176 189 189 189 182 182 182 
149 149 149 179 179 179 163 163 163 163 163 163 169 169 169 170 170 170 172 172 172 165 165 165 182 182 182 184 184 184 176 176 176 189 189 189 185 185 185 174 173 174 172 172 172 182 182 182 163 163 163 142 142 142 155 155 155 155 155 155 164 164 164 170 170 170 165 165 165 176 176 176 130 130 130 98 98 98 101 101 101 86 86 86 136 136 136 196 196 196 137 137 137 172 172 172 125 125 125 162 162 162 199 199 199 170 170 170 178 178 178 198 198 198 186 186 186 158 158 158 98 98 98 136 136 136 177 177 177 194 194 194 210 210 210 193 193 193 178 178 178 175 175 175 197 197 197 204 204 204 204 204 204 206 206 206 198 198 198 203 203 203 203 203 203 198 198 198 203 203 203 207 207 207 206 206 206 208 208 208 213 213 213 201 201 201 207 207 207 187 187 188 176 176 176 191 191 191 185 185 185 174 173 174 189 189 189 154 154 154 150 150 150 213 213 213 183 183 183 174 173 174 199 199 199 187 187 188 175 175 175 190 190 190 206 206 206 183 183 183 156 156 156 181 180 181 176 176 176 187 187 188 161 161 161 179 179 179 205 205 205 212 212 212 204 204 204 175 175 175 192 192 192 184 184 184 182 182 182 189 189 189 198 198 198 206 206 206 206 206 206 210 210 210 194 194 194 186 186 186 194 194 194 192 192 192 
172 172 172 165 165 165 164 164 164 164 164 164 133 133 133 139 139 139 163 163 163 162 162 162 182 182 182 174 173 174 171 171 171 172 172 172 186 186 186 176 176 176 171 171 171 176 176 176 174 173 174 164 164 164 155 155 155 158 158 158 153 153 153 161 161 161 184 184 184 153 153 153 72 72 72 65 65 65 128 128 128 155 155 155 156 156 156 158 158 158 78 78 78 168 168 168 176 176 176 187 187 188 196 196 196 196 196 196 194 194 194 218 218 218 206 206 206 194 194 194 192 192 192 201 201 201 210 210 210 214 214 214 208 208 208 197 197 197 201 201 201 213 213 213 200 200 200 199 199 199 205 205 205 200 200 200 198 198 198 192 192 192 192 192 192 198 198 198 206 206 206 212 212 212 206 206 206 213 213 213 212 212 212 204 204 204 197 197 197 182 182 182 164 164 164 194 194 194 190 190 190 190 190 190 167 167 167 151 151 151 204 204 204 186 186 186 175 175 175 189 189 189 190 190 190 189 189 189 186 186 186 212 212 212 214 214 214 203 203 203 193 193 193 170 170 170 185 185 185 193 193 193 181 180 181 182 182 182 184 184 184 205 205 205 203 203 203 181 180 181 175 175 175 172 172 172 175 175 175 186 186 186 197 197 197 205 205 205 210 210 210 212 212 212 200 200 200 191 191 191 199 199 199 185 185 185 
171 171 171 171 171 171 186 186 186 181 180 181 164 164 164 153 153 153 153 153 153 154 154 154 165 165 165 172 172 172 162 162 162 179 179 179 161 161 161 162 162 162 167 167 167 172 172 172 191 191 191 185 185 185 163 163 163 163 163 163 151 151 151 170 170 170 178 178 178 92 92 92 102 102 102 136 136 136 183 183 183 183 183 183 172 172 172 144 144 144 79 79 79 158 158 158 198 198 198 183 183 183 196 196 196 199 199 199 204 204 204 204 204 204 212 212 212 191 191 191 200 200 200 200 200 200 203 203 203 206 206 206 194 194 194 183 183 183 197 197 197 204 204 204 184 184 184 167 167 167 196 196 196 199 199 199 198 198 198 177 177 177 177 177 177 198 198 198 208 208 208 207 207 207 214 214 214 205 205 205 194 194 194 204 204 204 182 182 182 185 185 185 190 190 190 189 189 189 182 182 182 151 151 151 133 133 133 183 183 183 190 190 190 147 147 147 167 167 167 186 186 186 171 171 171 187 187 188 199 199 199 211 211 211 208 208 208 183 183 183 163 163 163 199 199 199 190 190 190 176 176 176 189 189 189 181 180 181 189 189 189 198 198 198 201 201 201 196 196 196 179 179 179 168 168 168 163 163 163 186 186 186 207 207 207 215 215 215 208 208 208 213 213 213 200 200 200 194 194 194 198 198 198 193 193 193 
155 155 155 184 184 184 184 184 184 153 153 153 128 128 128 176 176 176 175 175 175 170 170 170 175 175 175 170 170 170 167 167 167 172 172 172 181 180 181 183 183 183 185 185 185 184 184 184 183 183 183 185 185 185 185 185 185 186 186 186 161 161 161 178 178 178 164 164 164 106 106 106 169 169 169 184 184 184 185 185 185 177 177 177 182 182 182 165 165 165 137 137 137 141 141 141 187 187 188 194 194 194 196 196 196 198 198 198 198 198 198 203 203 203 207 207 207 196 196 196 211 211 211 203 203 203 199 199 199 204 204 204 183 183 183 168 168 168 187 187 188 191 191 191 160 160 160 153 153 153 187 187 188 165 165 165 198 198 198 167 167 167 167 167 167 198 198 198 203 203 203 208 208 208 211 211 211 199 199 199 197 197 197 196 196 196 181 180 181 174 173 174 162 162 162 158 158 158 174 173 174 165 165 165 171 171 171 168 168 168 175 175 175 154 154 154 172 172 172 146 146 146 179 179 179 174 173 174 192 192 192 214 214 214 198 198 198 184 184 184 192 192 192 181 180 181 190 190 190 172 172 172 170 170 170 190 190 190 198 198 198 204 204 204 203 203 203 175 175 175 170 170 170 174 173 174 178 178 178 199 199 199 211 211 211 211 211 211 203 203 203 214 214 214 204 204 204 197 197 197 183 183 183 172 172 172 
174 173 174 133 133 133 122 122 122 154 154 154 153 153 153 178 178 178 190 190 190 184 184 184 184 184 184 183 183 183 184 184 184 184 184 184 176 176 176 189 189 189 196 196 196 199 199 199 201 201 201 204 204 204 190 190 190 183 183 183 177 177 177 150 150 150 87 87 87 128 128 128 185 185 185 190 190 190 196 196 196 182 182 182 183 183 183 171 171 171 148 148 148 127 127 127 172 172 172 184 184 184 198 198 198 201 201 201 197 197 197 210 210 210 206 206 206 210 210 210 204 204 204 204 204 204 200 200 200 192 192 192 177 177 177 183 183 183 190 190 190 201 201 201 179 179 179 162 162 162 187 187 188 182 182 182 201 201 201 196 196 196 178 178 178 175 175 175 191 191 191 206 206 206 217 217 217 210 210 210 191 191 191 176 176 176 171 171 171 185 185 185 174 173 174 183 183 183 187 187 188 154 154 154 184 184 184 167 167 167 169 169 169 169 169 169 168 168 168 184 184 184 170 170 170 172 172 172 190 190 190 194 194 194 185 185 185 191 191 191 204 204 204 177 177 177 175 175 175 194 194 194 176 176 176 181 180 181 187 187 188 196 196 196 187 187 188 163 163 163 150 150 150 172 172 172 190 190 190 193 193 193 206 206 206 217 217 217 208 208 208 206 206 206 211 211 211 198 198 198 174 173 174 179 179 179 
70 70 70 75 75 75 119 119 119 157 157 157 177 177 177 183 183 183 190 190 190 187 187 188 189 189 189 174 173 174 163 163 163 171 171 171 174 173 174 187 187 188 185 185 185 194 194 194 197 197 197 201 201 201 204 204 204 185 185 185 165 165 165 135 135 135 116 116 116 176 176 176 174 173 174 192 192 192 191 191 191 187 187 188 186 186 186 184 184 184 174 173 174 162 162 162 179 179 179 187 187 188 207 207 207 199 199 199 191 191 191 197 197 197 205 205 205 197 197 197 186 186 186 177 177 177 187 187 188 182 182 182 154 154 154 158 158 158 197 197 197 189 189 189 200 200 200 201 201 201 194 194 194 191 191 191 183 183 183 196 196 196 184 184 184 170 170 170 200 200 200 211 211 211 215 215 215 215 215 215 196 196 196 168 168 168 194 194 194 170 170 170 181 180 181 191 191 191 170 170 170 155 155 155 153 153 153 167 167 167 183 183 183 190 190 190 183 183 183 181 180 181 172 172 172 176 176 176 177 177 177 178 178 178 189 189 189 174 173 174 170 170 170 186 186 186 192 192 192 181 180 181 178 178 178 190 190 190 170 170 170 191 191 191 178 178 178 175 175 175 171 171 171 185 185 185 192 192 192 198 198 198 208 208 208 191 191 191 185 185 185 203 203 203 205 205 205 181 180 181 164 164 164 168 168 168 
94 94 94 172 172 172 183 183 183 181 180 181 191 191 191 196 196 196 186 186 186 168 168 168 157 157 157 142 142 142 161 161 161 162 162 162 141 141 141 164 164 164 176 176 176 186 186 186 184 184 184 184 184 184 183 183 183 171 171 171 157 157 157 172 172 172 184 184 184 186 186 186 183 183 183 174 173 174 185 185 185 181 180 181 182 182 182 186 186 186 186 186 186 182 182 182 190 190 190 179 179 179 183 183 183 190 190 190 189 189 189 186 186 186 193 193 193 191 191 191 189 189 189 181 180 181 179 179 179 184 184 184 174 173 174 179 179 179 187 187 188 181 180 181 169 169 169 170 170 170 178 178 178 187 187 188 187 187 188 190 190 190 185 185 185 194 194 194 205 205 205 213 213 213 211 211 211 217 217 217 206 206 206 179 179 179 155 155 155 161 161 161 181 180 181 162 162 162 153 153 153 157 157 157 168 168 168 200 200 200 197 197 197 177 177 177 179 179 179 169 169 169 160 160 160 179 179 179 129 129 129 151 151 151 189 189 189 171 171 171 142 142 142 127 127 127 139 139 139 171 171 171 171 171 171 183 183 183 167 167 167 174 173 174 158 158 158 162 162 162 170 170 170 194 194 194 189 189 189 190 190 190 187 187 188 175 175 175 167 167 167 185 185 185 184 184 184 171 171 171 158 158 158 176 176 176 
175 175 175 198 198 198 187 187 188 186 186 186 175 175 175 175 175 175 183 183 183 193 193 193 160 160 160 163 163 163 186 186 186 181 180 181 164 164 164 158 158 158 171 171 171 151 151 151 144 144 144 181 180 181 183 183 183 175 175 175 155 155 155 169 169 169 177 177 177 175 175 175 177 177 177 183 183 183 175 175 175 158 158 158 169 169 169 176 176 176 179 179 179 177 177 177 161 161 161 172 172 172 167 167 167 185 185 185 171 171 171 184 184 184 157 157 157 128 128 128 175 175 175 189 189 189 168 168 168 181 180 181 197 197 197 186 186 186 182 182 182 177 177 177 181 180 181 190 190 190 189 189 189 183 183 183 179 179 179 181 180 181 182 182 182 199 199 199 199 199 199 192 192 192 189 189 189 196 196 196 187 187 188 157 157 157 172 172 172 184 184 184 169 169 169 182 182 182 177 177 177 164 164 164 170 170 170 182 182 182 183 183 183 186 186 186 169 169 169 167 167 167 198 198 198 172 172 172 185 185 185 178 178 178 175 175 175 165 165 165 168 168 168 161 161 161 160 160 160 165 165 165 170 170 170 142 142 142 157 157 157 167 167 167 164 164 164 175 175 175 171 171 171 172 172 172 160 160 160 164 164 164 164 164 164 199 199 199 185 185 185 186 186 186 182 182 182 196 196 196 175 175 175 182 182 182 
201 201 201 196 196 196 177 177 177 182 182 182 182 182 182 194 194 194 187 187 188 186 186 186 165 165 165 168 168 168 181 180 181 193 193 193 184 184 184 189 189 189 154 154 154 154 154 154 147 147 147 161 161 161 168 168 168 172 172 172 150 150 150 168 168 168 191 191 191 171 171 171 184 184 184 182 182 182 178 178 178 190 190 190 183 183 183 189 189 189 181 180 181 177 177 177 171 171 171 181 180 181 181 180 181 184 184 184 183 183 183 183 183 183 179 179 179 158 158 158 178 178 178 175 175 175 181 180 181 176 176 176 172 172 172 185 185 185 181 180 181 182 182 182 187 187 188 191 191 191 181 180 181 186 186 186 190 190 190 190 190 190 181 180 181 184 184 184 189 189 189 190 190 190 197 197 197 182 182 182 163 163 163 182 182 182 184 184 184 174 173 174 171 171 171 186 186 186 158 158 158 184 184 184 179 179 179 164 164 164 169 169 169 178 178 178 158 158 158 175 175 175 178 178 178 140 140 140 181 180 181 171 171 171 179 179 179 168 168 168 183 183 183 182 182 182 170 170 170 184 184 184 197 197 197 192 192 192 171 171 171 174 173 174 128 128 128 210 210 210 189 189 189 172 172 172 160 160 160 167 167 167 163 163 163 184 184 184 191 191 191 182 182 182 176 176 176 176 176 176 155 155 155 161 161 161 
178 178 178 179 179 179 172 172 172 184 184 184 184 184 184 170 170 170 168 168 168 157 157 157 142 142 142 158 158 158 168 168 168 175 175 175 172 172 172 185 185 185 172 172 172 164 164 164 143 143 143 144 144 144 151 151 151 160 160 160 160 160 160 176 176 176 177 177 177 167 167 167 179 179 179 170 170 170 169 169 169 192 192 192 189 189 189 197 197 197 179 179 179 178 178 178 191 191 191 165 165 165 179 179 179 181 180 181 177 177 177 178 178 178 181 180 181 168 168 168 177 177 177 172 172 172 167 167 167 179 179 179 170 170 170 177 177 177 177 177 177 178 178 178 186 186 186 158 158 158 158 158 158 163 163 163 186 186 186 203 203 203 192 192 192 179 179 179 186 186 186 185 185 185 187 187 188 181 180 181 191 191 191 164 164 164 168 168 168 161 161 161 171 171 171 179 179 179 169 169 169 171 171 171 160 160 160 176 176 176 182 182 182 168 168 168 153 153 153 171 171 171 177 177 177 142 142 142 172 172 172 171 171 171 183 183 183 182 182 182 179 179 179 177 177 177 167 167 167 191 191 191 179 179 179 162 162 162 179 179 179 185 185 185 122 122 122 149 149 149 163 163 163 155 155 155 164 164 164 178 178 178 175 175 175 172 172 172 175 175 175 177 177 177 167 167 167 149 149 149 176 176 176 184 184 184 
199 199 199 192 192 192 171 171 171 172 172 172 186 186 186 177 177 177 176 176 176 163 163 163 146 146 146 162 162 162 160 160 160 167 167 167 148 148 148 140 140 140 170 170 170 163 163 163 155 155 155 137 137 137 150 150 150 182 182 182 192 192 192 191 191 191 198 198 198 184 184 184 178 178 178 183 183 183 185 185 185 197 197 197 193 193 193 187 187 188 196 196 196 181 180 181 191 191 191 162 162 162 172 172 172 192 192 192 184 184 184 177 177 177 176 176 176 165 165 165 174 173 174 169 169 169 163 163 163 176 176 176 181 180 181 177 177 177 183 183 183 185 185 185 178 178 178 160 160 160 176 176 176 175 175 175 194 194 194 194 194 194 178 178 178 171 171 171 169 169 169 189 189 189 191 191 191 182 182 182 191 191 191 168 168 168 181 180 181 187 187 188 174 173 174 181 180 181 182 182 182 170 170 170 178 178 178 192 192 192 185 185 185 169 169 169 175 175 175 183 183 183 185 185 185 169 169 169 165 165 165 163 163 163 143 143 143 167 167 167 181 180 181 184 184 184 162 162 162 163 163 163 156 156 156 175 175 175 185 185 185 185 185 185 171 171 171 167 167 167 178 178 178 150 150 150 165 165 165 185 185 185 189 189 189 171 171 171 169 169 169 178 178 178 178 178 178 171 171 171 162 162 162 174 173 174 
224 224 224 217 217 217 190 190 190 176 176 176 196 196 196 157 157 157 129 129 129 151 151 151 172 172 172 176 176 176 161 161 161 175 175 175 175 175 175 177 177 177 185 185 185 174 173 174 185 185 185 172 172 172 163 163 163 161 161 161 167 167 167 178 178 178 162 162 162 177 177 177 185 185 185 172 172 172 158 158 158 167 167 167 169 169 169 172 172 172 181 180 181 175 175 175 191 191 191 181 180 181 156 156 156 189 189 189 178 178 178 172 172 172 178 178 178 175 175 175 187 187 188 183 183 183 189 189 189 185 185 185 179 179 179 169 169 169 179 179 179 182 182 182 154 154 154 179 179 179 207 207 207 199 199 199 187 187 188 193 193 193 186 186 186 187 187 188 192 192 192 204 204 204 199 199 199 194 194 194 176 176 176 142 142 142 186 186 186 204 204 204 199 199 199 200 200 200 196 196 196 197 197 197 199 199 199 184 184 184 172 172 172 189 189 189 171 171 171 184 184 184 175 175 175 155 155 155 167 167 167 168 168 168 168 168 168 160 160 160 172 172 172 164 164 164 151 151 151 176 176 176 156 156 156 162 162 162 160 160 160 158 158 158 174 173 174 196 196 196 179 179 179 128 128 128 179 179 179 194 194 194 190 190 190 163 163 163 185 185 185 185 185 185 151 151 151 104 104 104 161 161 161 163 163 163 
215 215 215 210 210 210 200 200 200 191 191 191 200 200 200 185 185 185 130 130 130 119 119 119 119 119 119 187 187 188 127 127 127 156 156 156 206 206 206 213 213 213 214 214 214 212 212 212 206 206 206 184 184 184 187 187 188 186 186 186 191 191 191 178 178 178 156 156 156 178 178 178 189 189 189 164 164 164 123 123 123 122 122 122 118 118 118 139 139 139 186 186 186 178 178 178 187 187 188 194 194 194 170 170 170 179 179 179 183 183 183 171 171 171 175 175 175 191 191 191 189 189 189 191 191 191 186 186 186 174 173 174 185 185 185 184 184 184 181 180 181 179 179 179 176 176 176 192 192 192 196 196 196 182 182 182 190 190 190 194 194 194 179 179 179 179 179 179 191 191 191 190 190 190 184 184 184 193 193 193 184 184 184 162 162 162 193 193 193 201 201 201 207 207 207 199 199 199 187 187 188 197 197 197 190 190 190 175 175 175 182 182 182 190 190 190 172 172 172 181 180 181 148 148 148 162 162 162 190 190 190 177 177 177 183 183 183 181 180 181 178 178 178 168 168 168 182 182 182 176 176 176 182 182 182 181 180 181 175 175 175 170 170 170 167 167 167 156 156 156 184 184 184 153 153 153 153 153 153 199 199 199 178 178 178 174 173 174 183 183 183 179 179 179 183 183 183 126 126 126 184 184 184 171 171 171 
213 213 213 206 206 206 197 197 197 197 197 197 181 180 181 186 186 186 184 184 184 168 168 168 97 97 97 127 127 127 147 147 147 104 104 104 186 186 186 201 201 201 210 210 210 217 217 217 220 220 220 207 207 207 211 211 211 203 203 203 208 208 208 212 212 212 218 218 218 214 214 214 212 212 212 215 215 215 206 206 206 189 189 189 178 178 178 192 192 192 205 205 205 203 203 203 200 200 200 198 198 198 169 169 169 181 180 181 185 185 185 181 180 181 183 183 183 189 189 189 185 185 185 183 183 183 175 175 175 171 171 171 174 173 174 178 178 178 184 184 184 187 187 188 191 191 191 186 186 186 193 193 193 182 182 182 187 187 188 183 183 183 178 178 178 190 190 190 183 183 183 184 184 184 178 178 178 189 189 189 190 190 190 177 177 177 199 199 199 210 210 210 219 219 219 194 194 194 194 194 194 182 182 182 177 177 177 189 189 189 196 196 196 163 163 163 147 147 147 191 191 191 143 143 143 160 160 160 179 179 179 165 165 165 134 134 134 186 186 186 169 169 169 168 168 168 181 180 181 168 168 168 171 171 171 148 148 148 170 170 170 191 191 191 185 185 185 177 177 177 167 167 167 177 177 177 151 151 151 181 180 181 183 183 183 170 170 170 161 161 161 177 177 177 158 158 158 164 164 164 185 185 185 151 151 151 
212 212 212 197 197 197 178 178 178 186 186 186 182 182 182 191 191 191 192 192 192 196 196 196 185 185 185 157 157 157 123 123 123 148 148 148 92 92 92 127 127 127 206 206 206 215 215 215 205 205 205 210 210 210 200 200 200 194 194 194 204 204 204 196 196 196 207 207 207 206 206 206 208 208 208 218 218 218 211 211 211 190 190 190 193 193 193 205 205 205 201 201 201 193 193 193 193 193 193 194 194 194 163 163 163 169 169 169 182 182 182 176 176 176 175 175 175 178 178 178 196 196 196 171 171 171 170 170 170 191 191 191 167 167 167 174 173 174 183 183 183 190 190 190 196 196 196 189 189 189 190 190 190 189 189 189 193 193 193 194 194 194 199 199 199 191 191 191 184 184 184 191 191 191 178 178 178 181 180 181 167 167 167 181 180 181 203 203 203 214 214 214 218 218 218 208 208 208 192 192 192 186 186 186 186 186 186 184 184 184 176 176 176 147 147 147 177 177 177 187 187 188 132 132 132 162 162 162 185 185 185 183 183 183 157 157 157 169 169 169 167 167 167 158 158 158 178 178 178 182 182 182 178 178 178 171 171 171 193 193 193 197 197 197 181 180 181 172 172 172 177 177 177 175 175 175 175 175 175 177 177 177 168 168 168 142 142 142 171 171 171 160 160 160 154 154 154 151 151 151 175 175 175 186 186 186 
208 208 208 194 194 194 175 175 175 193 193 193 197 197 197 198 198 198 197 197 197 196 196 196 189 189 189 181 180 181 113 113 113 176 176 176 125 125 125 77 77 77 151 151 151 147 147 147 160 160 160 160 160 160 196 196 196 196 196 196 208 208 208 201 201 201 196 196 196 190 190 190 207 207 207 211 211 211 191 191 191 194 194 194 187 187 188 171 171 171 178 178 178 191 191 191 191 191 191 193 193 193 147 147 147 128 128 128 193 193 193 177 177 177 174 173 174 185 185 185 175 175 175 170 170 170 176 176 176 186 186 186 191 191 191 183 183 183 170 170 170 162 162 162 185 185 185 200 200 200 189 189 189 197 197 197 205 205 205 194 194 194 193 193 193 178 178 178 170 170 170 121 121 121 164 164 164 198 198 198 171 171 171 184 184 184 204 204 204 206 206 206 212 212 212 205 205 205 186 186 186 176 176 176 194 194 194 182 182 182 164 164 164 168 168 168 161 161 161 155 155 155 143 143 143 175 175 175 189 189 189 183 183 183 176 176 176 192 192 192 179 179 179 171 171 171 183 183 183 171 171 171 181 180 181 184 184 184 179 179 179 168 168 168 143 143 143 174 173 174 182 182 182 161 161 161 153 153 153 167 167 167 164 164 164 160 160 160 164 164 164 141 141 141 168 168 168 151 151 151 142 142 142 130 130 130 
204 204 204 211 211 211 203 203 203 200 200 200 200 200 200 197 197 197 198 198 198 192 192 192 186 186 186 187 187 188 170 170 170 158 158 158 167 167 167 149 149 149 106 106 106 115 115 115 115 115 115 136 136 136 204 204 204 175 175 175 187 187 188 190 190 190 191 191 191 192 192 192 197 197 197 196 196 196 191 191 191 186 186 186 200 200 200 199 199 199 190 190 190 189 189 189 192 192 192 181 180 181 189 189 189 161 161 161 137 137 137 179 179 179 189 189 189 181 180 181 167 167 167 185 185 185 194 194 194 185 185 185 168 168 168 163 163 163 189 189 189 174 173 174 178 178 178 183 183 183 176 176 176 167 167 167 196 196 196 185 185 185 167 167 167 158 158 158 184 184 184 148 148 148 174 173 174 211 211 211 199 199 199 199 199 199 196 196 196 187 187 188 208 208 208 217 217 217 205 205 205 182 182 182 162 162 162 167 167 167 171 171 171 167 167 167 185 185 185 157 157 157 186 186 186 186 186 186 191 191 191 178 178 178 178 178 178 193 193 193 179 179 179 181 180 181 184 184 184 172 172 172 181 180 181 171 171 171 179 179 179 149 149 149 150 150 150 175 175 175 167 167 167 151 151 151 187 187 188 175 175 175 115 115 115 118 118 118 122 122 122 147 147 147 147 147 147 162 162 162 109 109 109 93 93 93 
206 206 206 194 194 194 170 170 170 178 178 178 185 185 185 196 196 196 191 191 191 185 185 185 186 186 186 178 178 178 165 165 165 115 115 115 104 104 104 162 162 162 169 169 169 149 149 149 157 157 157 183 183 183 189 189 189 185 185 185 179 179 179 189 189 189 199 199 199 201 201 201 204 204 204 205 205 205 206 206 206 203 203 203 185 185 185 184 184 184 203 203 203 200 200 200 199 199 199 185 185 185 189 189 189 184 184 184 171 171 171 186 186 186 191 191 191 183 183 183 190 190 190 194 194 194 182 182 182 183 183 183 169 169 169 174 173 174 179 179 179 175 175 175 181 180 181 175 175 175 179 179 179 179 179 179 194 194 194 185 185 185 189 189 189 208 208 208 208 208 208 172 172 172 183 183 183 207 207 207 204 204 204 204 204 204 200 200 200 192 192 192 210 210 210 208 208 208 201 201 201 193 193 193 177 177 177 176 176 176 174 173 174 179 179 179 160 160 160 141 141 141 178 178 178 181 180 181 171 171 171 184 184 184 187 187 188 181 180 181 181 180 181 179 179 179 176 176 176 191 191 191 168 168 168 177 177 177 167 167 167 161 161 161 168 168 168 164 164 164 168 168 168 154 154 154 155 155 155 156 156 156 41 41 41 26 26 26 64 64 64 160 160 160 175 175 175 171 171 171 172 172 172 150 150 150 
207 207 207 190 190 190 179 179 179 181 180 181 170 170 170 186 186 186 190 190 190 190 190 190 198 198 198 197 197 197 182 182 182 149 149 149 31 31 31 71 71 71 177 177 177 201 201 201 210 210 210 212 212 212 205 205 205 205 205 205 213 213 213 213 213 213 215 215 215 215 215 215 214 214 214 213 213 213 212 212 212 211 211 211 194 194 194 168 168 168 181 180 181 153 153 153 191 191 191 189 189 189 163 163 163 187 187 188 186 186 186 160 160 160 165 165 165 179 179 179 162 162 162 164 164 164 171 171 171 158 158 158 171 171 171 186 186 186 196 196 196 201 201 201 191 191 191 187 187 188 170 170 170 198 198 198 201 201 201 203 203 203 211 211 211 183 183 183 182 182 182 168 168 168 199 199 199 208 208 208 214 214 214 214 214 214 210 210 210 204 204 204 211 211 211 206 206 206 205 205 205 208 208 208 201 201 201 183 183 183 178 178 178 182 182 182 143 143 143 165 165 165 190 190 190 176 176 176 175 175 175 184 184 184 185 185 185 178 178 178 184 184 184 191 191 191 176 176 176 167 167 167 158 158 158 168 168 168 165 165 165 171 171 171 140 140 140 163 163 163 169 169 169 133 133 133 136 136 136 150 150 150 116 116 116 78 78 78 115 115 115 158 158 158 187 187 188 175 175 175 157 157 157 155 155 155 
206 206 206 208 208 208 191 191 191 190 190 190 187 187 188 196 196 196 200 200 200 198 198 198 198 198 198 203 203 203 200 200 200 175 175 175 83 83 83 56 56 56 157 157 157 196 196 196 204 204 204 213 213 213 214 214 214 208 208 208 212 212 212 213 213 213 215 215 215 217 217 217 221 221 221 219 219 219 214 214 214 211 211 211 204 204 204 196 196 196 167 167 167 160 160 160 197 197 197 148 148 148 132 132 132 175 175 175 174 173 174 162 162 162 134 134 134 111 111 111 143 143 143 162 162 162 179 179 179 189 189 189 185 185 185 193 193 193 207 207 207 206 206 206 178 178 178 193 193 193 178 178 178 170 170 170 192 192 192 196 196 196 183 183 183 185 185 185 198 198 198 211 211 211 210 210 210 205 205 205 211 211 211 212 212 212 208 208 208 203 203 203 198 198 198 198 198 198 201 201 201 207 207 207 210 210 210 194 194 194 192 192 192 161 161 161 153 153 153 190 190 190 176 176 176 178 178 178 185 185 185 196 196 196 190 190 190 171 171 171 184 184 184 183 183 183 176 176 176 150 150 150 156 156 156 149 149 149 177 177 177 174 173 174 123 123 123 126 126 126 126 126 126 144 144 144 168 168 168 105 105 105 140 140 140 178 178 178 178 178 178 163 163 163 139 139 139 179 179 179 168 168 168 140 140 140 
206 206 206 204 204 204 190 190 190 187 187 188 187 187 188 198 198 198 199 199 199 200 200 200 206 206 206 204 204 204 200 200 200 184 184 184 156 156 156 111 111 111 156 156 156 201 201 201 210 210 210 214 214 214 217 217 217 218 218 218 217 217 217 211 211 211 214 214 214 213 213 213 217 217 217 210 210 210 205 205 205 187 187 188 190 190 190 193 193 193 190 190 190 192 192 192 172 172 172 190 190 190 177 177 177 175 175 175 181 180 181 189 189 189 175 175 175 158 158 158 163 163 163 170 170 170 191 191 191 199 199 199 194 194 194 189 189 189 193 193 193 191 191 191 179 179 179 189 189 189 178 178 178 176 176 176 189 189 189 181 180 181 184 184 184 197 197 197 206 206 206 215 215 215 211 211 211 207 207 207 204 204 204 210 210 210 210 210 210 204 204 204 189 189 189 194 194 194 208 208 208 206 206 206 213 213 213 210 210 210 193 193 193 184 184 184 184 184 184 171 171 171 191 191 191 186 186 186 182 182 182 186 186 186 187 187 188 184 184 184 183 183 183 187 187 188 163 163 163 128 128 128 160 160 160 174 173 174 176 176 176 164 164 164 149 149 149 181 180 181 181 180 181 156 156 156 143 143 143 51 51 51 130 130 130 193 193 193 193 193 193 165 165 165 174 173 174 179 179 179 171 171 171 156 156 156 
211 211 211 206 206 206 194 194 194 185 185 185 184 184 184 196 196 196 201 201 201 210 210 210 213 213 213 208 208 208 200 200 200 184 184 184 155 155 155 75 75 75 94 94 94 201 201 201 207 207 207 215 215 215 219 219 219 217 217 217 219 219 219 217 217 217 218 218 218 218 218 218 211 211 211 205 205 205 200 200 200 184 184 184 171 171 171 168 168 168 158 158 158 167 167 167 156 156 156 178 178 178 169 169 169 169 169 169 163 163 163 190 190 190 185 185 185 168 168 168 146 146 146 170 170 170 183 183 183 192 192 192 196 196 196 193 193 193 184 184 184 189 189 189 183 183 183 178 178 178 174 173 174 182 182 182 171 171 171 163 163 163 185 185 185 191 191 191 200 200 200 215 215 215 207 207 207 196 196 196 196 196 196 189 189 189 201 201 201 201 201 201 190 190 190 178 178 178 197 197 197 201 201 201 210 210 210 213 213 213 203 203 203 187 187 188 176 176 176 177 177 177 170 170 170 177 177 177 160 160 160 171 171 171 175 175 175 169 169 169 162 162 162 151 151 151 111 111 111 153 153 153 177 177 177 183 183 183 181 180 181 172 172 172 158 158 158 199 199 199 170 170 170 106 106 106 143 143 143 111 111 111 165 165 165 194 194 194 181 180 181 174 173 174 185 185 185 156 156 156 155 155 155 156 156 156 
213 213 213 205 205 205 201 201 201 187 187 188 190 190 190 200 200 200 201 201 201 208 208 208 217 217 217 212 212 212 205 205 205 192 192 192 151 151 151 71 71 71 106 106 106 193 193 193 193 193 193 207 207 207 212 212 212 206 206 206 211 211 211 213 213 213 224 224 224 205 205 205 207 207 207 199 199 199 191 191 191 171 171 171 168 168 168 163 163 163 154 154 154 162 162 162 167 167 167 162 162 162 147 147 147 164 164 164 156 156 156 183 183 183 185 185 185 179 179 179 174 173 174 167 167 167 168 168 168 193 193 193 196 196 196 184 184 184 177 177 177 196 196 196 190 190 190 176 176 176 181 180 181 191 191 191 198 198 198 184 184 184 191 191 191 181 180 181 190 190 190 207 207 207 201 201 201 190 190 190 198 198 198 170 170 170 183 183 183 204 204 204 192 192 192 184 184 184 196 196 196 200 200 200 200 200 200 211 211 211 214 214 214 169 169 169 129 129 129 160 160 160 147 147 147 151 151 151 163 163 163 151 151 151 148 148 148 154 154 154 156 156 156 160 160 160 181 180 181 189 189 189 190 190 190 196 196 196 187 187 188 170 170 170 168 168 168 194 194 194 167 167 167 160 160 160 183 183 183 142 142 142 149 149 149 179 179 179 158 158 158 154 154 154 158 158 158 137 137 137 168 168 168 160 160 160 
211 211 211 204 204 204 207 207 207 193 193 193 186 186 186 200 200 200 204 204 204 213 213 213 215 215 215 214 214 214 210 210 210 198 198 198 177 177 177 149 149 149 172 172 172 185 185 185 141 141 141 172 172 172 197 197 197 203 203 203 197 197 197 201 201 201 184 184 184 203 203 203 172 172 172 172 172 172 176 176 176 164 164 164 129 129 129 171 171 171 181 180 181 167 167 167 167 167 167 167 167 167 155 155 155 175 175 175 172 172 172 175 175 175 177 177 177 196 196 196 196 196 196 193 193 193 189 189 189 168 168 168 179 179 179 182 182 182 193 193 193 191 191 191 193 193 193 184 184 184 196 196 196 198 198 198 194 194 194 197 197 197 199 199 199 199 199 199 182 182 182 196 196 196 196 196 196 194 194 194 197 197 197 178 178 178 178 178 178 197 197 197 193 193 193 182 182 182 179 179 179 204 204 204 207 207 207 211 211 211 214 214 214 121 121 121 146 146 146 190 190 190 176 176 176 155 155 155 163 163 163 172 172 172 192 192 192 210 210 210 196 196 196 201 201 201 200 200 200 190 190 190 189 189 189 205 205 205 193 193 193 161 161 161 170 170 170 186 186 186 184 184 184 182 182 182 169 169 169 142 142 142 143 143 143 171 171 171 164 164 164 184 184 184 168 168 168 151 151 151 181 180 181 186 186 186 
214 214 214 206 206 206 211 211 211 186 186 186 179 179 179 183 183 183 197 197 197 197 197 197 210 210 210 211 211 211 201 201 201 200 200 200 203 203 203 200 200 200 193 193 193 178 178 178 162 162 162 167 167 167 169 169 169 178 178 178 190 190 190 172 172 172 128 128 128 185 185 185 178 178 178 176 176 176 189 189 189 169 169 169 156 156 156 174 173 174 178 178 178 155 155 155 151 151 151 143 143 143 161 161 161 184 184 184 175 175 175 175 175 175 184 184 184 179 179 179 167 167 167 174 173 174 183 183 183 167 167 167 168 168 168 192 192 192 194 194 194 206 206 206 191 191 191 189 189 189 200 200 200 191 191 191 187 187 188 189 189 189 174 173 174 203 203 203 186 186 186 183 183 183 186 186 186 199 199 199 184 184 184 168 168 168 189 189 189 197 197 197 187 187 188 192 192 192 192 192 192 204 204 204 207 207 207 198 198 198 191 191 191 164 164 164 168 168 168 183 183 183 177 177 177 154 154 154 142 142 142 191 191 191 197 197 197 192 192 192 199 199 199 200 200 200 199 199 199 191 191 191 194 194 194 192 192 192 193 193 193 128 128 128 162 162 162 190 190 190 183 183 183 174 173 174 170 170 170 174 173 174 156 156 156 154 154 154 177 177 177 174 173 174 171 171 171 189 189 189 177 177 177 174 173 174 
217 217 217 211 211 211 210 210 210 194 194 194 171 171 171 191 191 191 201 201 201 186 186 186 199 199 199 199 199 199 198 198 198 203 203 203 198 198 198 196 196 196 198 198 198 164 164 164 156 156 156 140 140 140 170 170 170 184 184 184 187 187 188 170 170 170 168 168 168 176 176 176 186 186 186 174 173 174 179 179 179 182 182 182 200 200 200 175 175 175 134 134 134 147 147 147 172 172 172 160 160 160 151 151 151 178 178 178 167 167 167 171 171 171 183 183 183 167 167 167 168 168 168 170 170 170 164 164 164 200 200 200 178 178 178 184 184 184 192 192 192 192 192 192 196 196 196 178 178 178 190 190 190 174 173 174 186 186 186 203 203 203 204 204 204 196 196 196 184 184 184 186 186 186 197 197 197 196 196 196 190 190 190 190 190 190 198 198 198 197 197 197 181 180 181 179 179 179 177 177 177 183 183 183 176 176 176 168 168 168 172 172 172 171 171 171 163 163 163 179 179 179 186 186 186 181 180 181 119 119 119 169 169 169 192 192 192 197 197 197 201 201 201 213 213 213 204 204 204 187 187 188 185 185 185 186 186 186 203 203 203 153 153 153 163 163 163 193 193 193 196 196 196 187 187 188 175 175 175 174 173 174 119 119 119 143 143 143 160 160 160 153 153 153 184 184 184 205 205 205 175 175 175 165 165 165 
222 222 222 214 214 214 210 210 210 205 205 205 197 197 197 196 196 196 196 196 196 189 189 189 176 176 176 182 182 182 181 180 181 201 201 201 204 204 204 200 200 200 193 193 193 154 154 154 161 161 161 172 172 172 171 171 171 170 170 170 156 156 156 153 153 153 189 189 189 181 180 181 172 172 172 153 153 153 183 183 183 199 199 199 168 168 168 175 175 175 165 165 165 171 171 171 151 151 151 182 182 182 161 161 161 172 172 172 175 175 175 163 163 163 175 175 175 165 165 165 183 183 183 147 147 147 179 179 179 183 183 183 183 183 183 168 168 168 193 193 193 183 183 183 185 185 185 169 169 169 161 161 161 179 179 179 181 180 181 174 173 174 160 160 160 176 176 176 185 185 185 191 191 191 187 187 188 185 185 185 174 173 174 165 165 165 174 173 174 182 182 182 158 158 158 155 155 155 161 161 161 165 165 165 167 167 167 176 176 176 181 180 181 170 170 170 153 153 153 155 155 155 172 172 172 197 197 197 174 173 174 149 149 149 172 172 172 185 185 185 184 184 184 201 201 201 189 189 189 178 178 178 183 183 183 186 186 186 170 170 170 158 158 158 155 155 155 179 179 179 187 187 188 172 172 172 169 169 169 127 127 127 118 118 118 179 179 179 178 178 178 172 172 172 153 153 153 186 186 186 185 185 185 161 161 161 
225 225 225 218 218 218 212 212 212 210 210 210 194 194 194 177 177 177 176 176 176 176 176 176 154 154 154 141 141 141 174 173 174 183 183 183 201 201 201 208 208 208 196 196 196 172 172 172 171 171 171 186 186 186 176 176 176 175 175 175 147 147 147 163 163 163 170 170 170 132 132 132 150 150 150 127 127 127 154 154 154 190 190 190 177 177 177 164 164 164 189 189 189 181 180 181 175 175 175 150 150 150 160 160 160 176 176 176 167 167 167 193 193 193 158 158 158 171 171 171 183 183 183 135 135 135 167 167 167 181 180 181 181 180 181 154 154 154 197 197 197 182 182 182 176 176 176 177 177 177 186 186 186 194 194 194 206 206 206 175 175 175 147 147 147 125 125 125 146 146 146 149 149 149 176 176 176 158 158 158 160 160 160 147 147 147 168 168 168 172 172 172 181 180 181 172 172 172 176 176 176 175 175 175 177 177 177 182 182 182 172 172 172 160 160 160 142 142 142 156 156 156 177 177 177 192 192 192 198 198 198 179 179 179 177 177 177 179 179 179 174 173 174 190 190 190 179 179 179 186 186 186 192 192 192 181 180 181 162 162 162 167 167 167 153 153 153 150 150 150 157 157 157 133 133 133 149 149 149 149 149 149 158 158 158 174 173 174 167 167 167 177 177 177 161 161 161 172 172 172 176 176 176 168 168 168 
228 228 228 226 226 226 220 220 220 215 215 215 196 196 196 190 190 190 185 185 185 171 171 171 160 160 160 172 172 172 172 172 172 164 164 164 201 201 201 192 192 192 194 194 194 168 168 168 141 141 141 181 180 181 185 185 185 163 163 163 172 172 172 164 164 164 169 169 169 150 150 150 149 149 149 163 163 163 127 127 127 185 185 185 183 183 183 160 160 160 162 162 162 194 194 194 184 184 184 181 180 181 184 184 184 176 176 176 186 186 186 165 165 165 165 165 165 186 186 186 168 168 168 114 114 114 169 169 169 183 183 183 169 169 169 164 164 164 172 172 172 186 186 186 182 182 182 186 186 186 196 196 196 181 180 181 206 206 206 197 197 197 181 180 181 171 171 171 167 167 167 168 168 168 182 182 182 168 168 168 175 175 175 197 197 197 192 192 192 172 172 172 182 182 182 184 184 184 192 192 192 177 177 177 179 179 179 176 176 176 162 162 162 115 115 115 111 111 111 132 132 132 127 127 127 142 142 142 156 156 156 165 165 165 172 172 172 157 157 157 161 161 161 162 162 162 162 162 162 160 160 160 178 178 178 182 182 182 156 156 156 174 173 174 167 167 167 164 164 164 134 134 134 153 153 153 182 182 182 169 169 169 175 175 175 161 161 161 153 153 153 139 139 139 130 130 130 150 150 150 146 146 146 128 128 128 
228 228 228 227 227 227 225 225 225 219 219 219 207 207 207 197 197 197 193 193 193 168 168 168 167 167 167 178 178 178 187 187 188 169 169 169 158 158 158 177 177 177 201 201 201 190 190 190 157 157 157 175 175 175 178 178 178 162 162 162 171 171 171 153 153 153 162 162 162 127 127 127 183 183 183 154 154 154 167 167 167 175 175 175 146 146 146 158 158 158 155 155 155 170 170 170 178 178 178 163 163 163 164 164 164 168 168 168 168 168 168 151 151 151 144 144 144 153 153 153 146 146 146 133 133 133 160 160 160 167 167 167 163 163 163 160 160 160 181 180 181 196 196 196 172 172 172 201 201 201 199 199 199 192 192 192 167 167 167 175 175 175 191 191 191 199 199 199 199 199 199 210 210 210 199 199 199 208 208 208 192 192 192 196 196 196 178 178 178 189 189 189 189 189 189 184 184 184 175 175 175 164 164 164 154 154 154 146 146 146 156 156 156 143 143 143 150 150 150 143 143 143 134 134 134 140 140 140 136 136 136 140 140 140 153 153 153 119 119 119 156 156 156 190 190 190 142 142 142 154 154 154 190 190 190 190 190 190 139 139 139 127 127 127 167 167 167 158 158 158 162 162 162 169 169 169 165 165 165 172 172 172 156 156 156 184 184 184 161 161 161 149 149 149 142 142 142 168 168 168 156 156 156 160 160 160 
228 228 228 226 226 226 225 225 225 222 222 222 208 208 208 189 189 189 183 183 183 178 178 178 151 151 151 93 93 93 119 119 119 164 164 164 167 167 167 194 194 194 208 208 208 191 191 191 174 173 174 160 160 160 181 180 181 162 162 162 151 151 151 172 172 172 116 116 116 129 129 129 184 184 184 130 130 130 156 156 156 160 160 160 154 154 154 149 149 149 150 150 150 167 167 167 177 177 177 162 162 162 169 169 169 177 177 177 176 176 176 172 172 172 167 167 167 161 161 161 143 143 143 162 162 162 168 168 168 167 167 167 179 179 179 154 154 154 189 189 189 181 180 181 158 158 158 190 190 190 177 177 177 172 172 172 162 162 162 171 171 171 201 201 201 210 210 210 204 204 204 198 198 198 179 179 179 193 193 193 193 193 193 174 173 174 168 168 168 177 177 177 187 187 188 177 177 177 165 165 165 165 165 165 176 176 176 168 168 168 164 164 164 174 173 174 155 155 155 147 147 147 149 149 149 142 142 142 133 133 133 116 116 116 127 127 127 107 107 107 132 132 132 186 186 186 189 189 189 185 185 185 192 192 192 182 182 182 168 168 168 136 136 136 175 175 175 178 178 178 185 185 185 160 160 160 129 129 129 156 156 156 154 154 154 181 180 181 192 192 192 177 177 177 168 168 168 191 191 191 196 196 196 170 170 170 
225 225 225 227 227 227 225 225 225 224 224 224 217 217 217 177 177 177 154 154 154 178 178 178 170 170 170 137 137 137 113 113 113 177 177 177 200 200 200 191 191 191 186 186 186 193 193 193 183 183 183 169 169 169 170 170 170 174 173 174 176 176 176 174 173 174 161 161 161 176 176 176 172 172 172 172 172 172 168 168 168 170 170 170 162 162 162 139 139 139 153 153 153 144 144 144 168 168 168 156 156 156 181 180 181 171 171 171 165 165 165 175 175 175 175 175 175 165 165 165 146 146 146 169 169 169 170 170 170 164 164 164 162 162 162 147 147 147 161 161 161 164 164 164 162 162 162 183 183 183 185 185 185 187 187 188 158 158 158 163 163 163 198 198 198 201 201 201 193 193 193 156 156 156 150 150 150 147 147 147 156 156 156 154 154 154 136 136 136 140 140 140 160 160 160 187 187 188 189 189 189 179 179 179 164 164 164 165 165 165 142 142 142 163 163 163 169 169 169 146 146 146 155 155 155 147 147 147 146 146 146 143 143 143 143 143 143 129 129 129 120 120 120 134 134 134 155 155 155 140 140 140 158 158 158 169 169 169 189 189 189 190 190 190 171 171 171 184 184 184 185 185 185 174 173 174 167 167 167 147 147 147 153 153 153 167 167 167 168 168 168 157 157 157 151 151 151 167 167 167 141 141 141 135 135 135 
208 208 208 220 220 220 222 222 222 221 221 221 210 210 210 184 184 184 163 163 163 160 160 160 164 164 164 168 168 168 157 157 157 182 182 182 150 150 150 177 177 177 198 198 198 203 203 203 189 189 189 163 163 163 171 171 171 171 171 171 158 158 158 177 177 177 181 180 181 170 170 170 182 182 182 194 194 194 177 177 177 170 170 170 185 185 185 163 163 163 161 161 161 150 150 150 164 164 164 171 171 171 175 175 175 168 168 168 148 148 148 160 160 160 169 169 169 164 164 164 139 139 139 168 168 168 147 147 147 105 105 105 142 142 142 158 158 158 161 161 161 129 129 129 151 151 151 157 157 157 154 154 154 149 149 149 181 180 181 172 172 172 172 172 172 181 180 181 160 160 160 146 146 146 134 134 134 133 133 133 137 137 137 142 142 142 134 134 134 154 154 154 162 162 162 158 158 158 143 143 143 161 161 161 175 175 175 183 183 183 160 160 160 146 146 146 181 180 181 160 160 160 132 132 132 135 135 135 143 143 143 144 144 144 127 127 127 113 113 113 130 130 130 121 121 121 112 112 112 109 109 109 134 134 134 177 177 177 175 175 175 169 169 169 167 167 167 203 203 203 196 196 196 175 175 175 177 177 177 158 158 158 143 143 143 170 170 170 151 151 151 133 133 133 135 135 135 153 153 153 149 149 149 154 154 154 
199 199 199 214 214 214 200 200 200 194 194 194 183 183 183 176 176 176 174 173 174 182 182 182 178 178 178 141 141 141 150 150 150 179 179 179 170 170 170 183 183 183 192 192 192 194 194 194 192 192 192 190 190 190 185 185 185 185 185 185 192 192 192 203 203 203 182 182 182 170 170 170 171 171 171 177 177 177 176 176 176 182 182 182 190 190 190 177 177 177 147 147 147 149 149 149 161 161 161 174 173 174 179 179 179 170 170 170 174 173 174 179 179 179 181 180 181 147 147 147 115 115 115 167 167 167 163 163 163 182 182 182 171 171 171 176 176 176 182 182 182 135 135 135 142 142 142 177 177 177 175 175 175 164 164 164 172 172 172 157 157 157 168 168 168 197 197 197 187 187 188 168 168 168 154 154 154 127 127 127 158 158 158 148 148 148 146 146 146 155 155 155 151 151 151 149 149 149 155 155 155 167 167 167 168 168 168 165 165 165 179 179 179 162 162 162 163 163 163 171 171 171 171 171 171 171 171 171 177 177 177 157 157 157 148 148 148 129 129 129 125 125 125 133 133 133 133 133 133 125 125 125 137 137 137 122 122 122 153 153 153 168 168 168 157 157 157 192 192 192 164 164 164 155 155 155 151 151 151 160 160 160 142 142 142 177 177 177 171 171 171 168 168 168 182 182 182 204 204 204 175 175 175 168 168 168 
182 182 182 179 179 179 178 178 178 162 162 162 175 175 175 187 187 188 187 187 188 200 200 200 197 197 197 193 193 193 178 178 178 184 184 184 185 185 185 205 205 205 200 200 200 174 173 174 182 182 182 194 194 194 190 190 190 190 190 190 193 193 193 190 190 190 170 170 170 177 177 177 176 176 176 175 175 175 164 164 164 136 136 136 161 161 161 181 180 181 143 143 143 123 123 123 148 148 148 169 169 169 178 178 178 164 164 164 174 173 174 181 180 181 176 176 176 108 108 108 176 176 176 196 196 196 167 167 167 161 161 161 161 161 161 149 149 149 164 164 164 147 147 147 141 141 141 175 175 175 185 185 185 172 172 172 167 167 167 168 168 168 178 178 178 191 191 191 178 178 178 177 177 177 182 182 182 174 173 174 151 151 151 153 153 153 155 155 155 156 156 156 162 162 162 155 155 155 149 149 149 147 147 147 154 154 154 161 161 161 164 164 164 168 168 168 160 160 160 172 172 172 178 178 178 163 163 163 187 187 188 135 135 135 115 115 115 156 156 156 137 137 137 142 142 142 147 147 147 150 150 150 142 142 142 121 121 121 136 136 136 146 146 146 168 168 168 170 170 170 155 155 155 162 162 162 141 141 141 126 126 126 134 134 134 175 175 175 181 180 181 178 178 178 174 173 174 169 169 169 163 163 163 136 136 136 
184 184 184 187 187 188 194 194 194 191 191 191 169 169 169 165 165 165 181 180 181 184 184 184 190 190 190 187 187 188 179 179 179 194 194 194 186 186 186 206 206 206 211 211 211 196 196 196 187 187 188 183 183 183 181 180 181 192 192 192 167 167 167 174 173 174 164 164 164 144 144 144 175 175 175 169 169 169 171 171 171 158 158 158 157 157 157 172 172 172 150 150 150 130 130 130 132 132 132 160 160 160 171 171 171 155 155 155 168 168 168 187 187 188 171 171 171 109 109 109 190 190 190 176 176 176 183 183 183 182 182 182 174 173 174 174 173 174 178 178 178 170 170 170 167 167 167 169 169 169 194 194 194 189 189 189 183 183 183 182 182 182 182 182 182 183 183 183 177 177 177 187 187 188 181 180 181 153 153 153 174 173 174 196 196 196 178 178 178 168 168 168 167 167 167 179 179 179 170 170 170 179 179 179 184 184 184 184 184 184 181 180 181 183 183 183 168 168 168 171 171 171 175 175 175 154 154 154 160 160 160 150 150 150 158 158 158 146 146 146 143 143 143 160 160 160 163 163 163 153 153 153 144 144 144 136 136 136 143 143 143 137 137 137 143 143 143 150 150 150 163 163 163 154 154 154 141 141 141 146 146 146 139 139 139 177 177 177 191 191 191 189 189 189 171 171 171 149 149 149 161 161 161 167 167 167 
204 204 204 192 192 192 186 186 186 187 187 188 185 185 185 176 176 176 179 179 179 184 184 184 187 187 188 190 190 190 172 172 172 193 193 193 193 193 193 200 200 200 208 208 208 197 197 197 196 196 196 193 193 193 196 196 196 191 191 191 184 184 184 175 175 175 162 162 162 146 146 146 184 184 184 168 168 168 183 183 183 196 196 196 190 190 190 170 170 170 171 171 171 155 155 155 142 142 142 157 157 157 150 150 150 164 164 164 170 170 170 163 163 163 148 148 148 134 134 134 175 175 175 153 153 153 151 151 151 164 164 164 178 178 178 170 170 170 153 153 153 158 158 158 187 187 188 174 173 174 175 175 175 174 173 174 163 163 163 175 175 175 164 164 164 160 160 160 169 169 169 196 196 196 167 167 167 160 160 160 170 170 170 174 173 174 177 177 177 177 177 177 175 175 175 185 185 185 190 190 190 179 179 179 165 165 165 171 171 171 170 170 170 182 182 182 175 175 175 181 180 181 164 164 164 170 170 170 158 158 158 153 153 153 153 153 153 140 140 140 161 161 161 154 154 154 149 149 149 142 142 142 134 134 134 147 147 147 153 153 153 144 144 144 164 164 164 139 139 139 136 136 136 136 136 136 158 158 158 123 123 123 158 158 158 183 183 183 185 185 185 186 186 186 193 193 193 179 179 179 178 178 178 170 170 170 
201 201 201 185 185 185 192 192 192 192 192 192 193 193 193 187 187 188 174 173 174 183 183 183 191 191 191 192 192 192 181 180 181 194 194 194 207 207 207 207 207 207 211 211 211 199 199 199 193 193 193 189 189 189 174 173 174 192 192 192 157 157 157 157 157 157 186 186 186 187 187 188 197 197 197 165 165 165 201 201 201 179 179 179 150 150 150 158 158 158 154 154 154 156 156 156 155 155 155 165 165 165 167 167 167 164 164 164 167 167 167 164 164 164 91 91 91 128 128 128 183 183 183 156 156 156 153 153 153 170 170 170 157 157 157 158 158 158 151 151 151 150 150 150 169 169 169 157 157 157 158 158 158 155 155 155 178 178 178 193 193 193 185 185 185 169 169 169 168 168 168 196 196 196 164 164 164 154 154 154 177 177 177 172 172 172 171 171 171 174 173 174 179 179 179 182 182 182 167 167 167 158 158 158 146 146 146 155 155 155 160 160 160 176 176 176 169 169 169 171 171 171 163 163 163 165 165 165 175 175 175 165 165 165 167 167 167 167 167 167 157 157 157 151 151 151 160 160 160 172 172 172 153 153 153 127 127 127 136 136 136 151 151 151 156 156 156 130 130 130 151 151 151 164 164 164 175 175 175 146 146 146 171 171 171 208 208 208 192 192 192 191 191 191 200 200 200 193 193 193 196 196 196 186 186 186 
177 177 177 189 189 189 189 189 189 184 184 184 186 186 186 172 172 172 177 177 177 201 201 201 177 177 177 183 183 183 184 184 184 194 194 194 194 194 194 201 201 201 205 205 205 186 186 186 191 191 191 189 189 189 155 155 155 162 162 162 158 158 158 192 192 192 196 196 196 171 171 171 184 184 184 156 156 156 189 189 189 154 154 154 127 127 127 144 144 144 168 168 168 168 168 168 172 172 172 197 197 197 187 187 188 175 175 175 190 190 190 169 169 169 143 143 143 179 179 179 163 163 163 169 169 169 155 155 155 170 170 170 176 176 176 167 167 167 174 173 174 184 184 184 174 173 174 189 189 189 190 190 190 160 160 160 178 178 178 194 194 194 186 186 186 194 194 194 186 186 186 175 175 175 192 192 192 163 163 163 140 140 140 161 161 161 172 172 172 168 168 168 167 167 167 198 198 198 174 173 174 161 161 161 174 173 174 179 179 179 175 175 175 182 182 182 174 173 174 164 164 164 183 183 183 168 168 168 171 171 171 165 165 165 157 157 157 157 157 157 163 163 163 160 160 160 140 140 140 154 154 154 136 136 136 123 123 123 128 128 128 142 142 142 149 149 149 147 147 147 134 134 134 156 156 156 170 170 170 132 132 132 157 157 157 191 191 191 194 194 194 190 190 190 203 203 203 204 204 204 199 199 199 204 204 204 
193 193 193 190 190 190 187 187 188 170 170 170 196 196 196 170 170 170 157 157 157 201 201 201 201 201 201 201 201 201 198 198 198 194 194 194 178 178 178 167 167 167 176 176 176 182 182 182 179 179 179 174 173 174 167 167 167 194 194 194 190 190 190 185 185 185 190 190 190 176 176 176 170 170 170 164 164 164 177 177 177 179 179 179 172 172 172 183 183 183 149 149 149 133 133 133 201 201 201 210 210 210 185 185 185 189 189 189 186 186 186 170 170 170 160 160 160 157 157 157 137 137 137 126 126 126 144 144 144 155 155 155 155 155 155 154 154 154 171 171 171 176 176 176 165 165 165 182 182 182 183 183 183 150 150 150 148 148 148 155 155 155 170 170 170 175 175 175 200 200 200 183 183 183 163 163 163 161 161 161 158 158 158 164 164 164 162 162 162 151 151 151 168 168 168 200 200 200 165 165 165 162 162 162 175 175 175 186 186 186 177 177 177 183 183 183 176 176 176 186 186 186 192 192 192 179 179 179 161 161 161 167 167 167 154 154 154 155 155 155 158 158 158 150 150 150 157 157 157 149 149 149 129 129 129 140 140 140 134 134 134 150 150 150 156 156 156 150 150 150 120 120 120 99 99 99 130 130 130 174 173 174 172 172 172 203 203 203 191 191 191 183 183 183 198 198 198 205 205 205 205 205 205 212 212 212 
192 192 192 199 199 199 198 198 198 182 182 182 189 189 189 187 187 188 189 189 189 198 198 198 211 211 211 215 215 215 214 214 214 206 206 206 187 187 188 183 183 183 176 176 176 184 184 184 171 171 171 156 156 156 165 165 165 191 191 191 193 193 193 201 201 201 194 194 194 189 189 189 185 185 185 147 147 147 170 170 170 143 143 143 157 157 157 171 171 171 139 139 139 174 173 174 207 207 207 167 167 167 140 140 140 184 184 184 194 194 194 154 154 154 194 194 194 193 193 193 154 154 154 130 130 130 146 146 146 135 135 135 136 136 136 149 149 149 167 167 167 171 171 171 174 173 174 187 187 188 177 177 177 174 173 174 182 182 182 183 183 183 172 172 172 156 156 156 174 173 174 176 176 176 187 187 188 190 190 190 187 187 188 161 161 161 160 160 160 146 146 146 185 185 185 183 183 183 134 134 134 135 135 135 154 154 154 170 170 170 201 201 201 187 187 188 191 191 191 186 186 186 179 179 179 182 182 182 171 171 171 154 154 154 167 167 167 162 162 162 155 155 155 153 153 153 165 165 165 149 149 149 151 151 151 142 142 142 151 151 151 157 157 157 161 161 161 151 151 151 143 143 143 129 129 129 141 141 141 182 182 182 182 182 182 163 163 163 132 132 132 169 169 169 193 193 193 213 213 213 207 207 207 206 206 206 
193 193 193 204 204 204 194 194 194 186 186 186 181 180 181 170 170 170 182 182 182 191 191 191 197 197 197 210 210 210 218 218 218 217 217 217 212 212 212 211 211 211 190 190 190 181 180 181 178 178 178 149 149 149 155 155 155 184 184 184 144 144 144 137 137 137 149 149 149 170 170 170 167 167 167 147 147 147 174 173 174 167 167 167 170 170 170 183 183 183 164 164 164 156 156 156 172 172 172 163 163 163 150 150 150 182 182 182 182 182 182 165 165 165 196 196 196 171 171 171 153 153 153 151 151 151 149 149 149 165 165 165 170 170 170 172 172 172 178 178 178 181 180 181 185 185 185 170 170 170 172 172 172 201 201 201 196 196 196 193 193 193 190 190 190 186 186 186 179 179 179 155 155 155 164 164 164 197 197 197 158 158 158 139 139 139 146 146 146 150 150 150 163 163 163 146 146 146 146 146 146 149 149 149 153 153 153 134 134 134 161 161 161 192 192 192 163 163 163 141 141 141 151 151 151 164 164 164 165 165 165 132 132 132 151 151 151 153 153 153 141 141 141 140 140 140 149 149 149 135 135 135 139 139 139 146 146 146 150 150 150 158 158 158 164 164 164 150 150 150 129 129 129 129 129 129 144 144 144 174 173 174 176 176 176 149 149 149 143 143 143 169 169 169 178 178 178 189 189 189 198 198 198 200 200 200 
199 199 199 198 198 198 199 199 199 187 187 188 189 189 189 196 196 196 187 187 188 187 187 188 194 194 194 211 211 211 222 222 222 226 226 226 222 222 222 218 218 218 199 199 199 187 187 188 132 132 132 161 161 161 156 156 156 193 193 193 177 177 177 112 112 112 125 125 125 142 142 142 144 144 144 144 144 144 167 167 167 178 178 178 182 182 182 215 215 215 201 201 201 157 157 157 165 165 165 190 190 190 182 182 182 191 191 191 154 154 154 171 171 171 176 176 176 156 156 156 169 169 169 168 168 168 175 175 175 177 177 177 179 179 179 177 177 177 161 161 161 142 142 142 182 182 182 130 130 130 164 164 164 208 208 208 186 186 186 185 185 185 184 184 184 184 184 184 183 183 183 189 189 189 170 170 170 178 178 178 183 183 183 171 171 171 171 171 171 175 175 175 174 173 174 171 171 171 156 156 156 151 151 151 150 150 150 141 141 141 147 147 147 137 137 137 150 150 150 154 154 154 143 143 143 149 149 149 177 177 177 178 178 178 185 185 185 151 151 151 154 154 154 146 146 146 141 141 141 140 140 140 125 125 125 132 132 132 130 130 130 116 116 116 132 132 132 132 132 132 118 118 118 150 150 150 132 132 132 172 172 172 158 158 158 174 173 174 176 176 176 167 167 167 147 147 147 153 153 153 182 182 182 193 193 193 
200 200 200 201 201 201 196 196 196 192 192 192 187 187 188 185 185 185 189 189 189 187 187 188 203 203 203 215 215 215 226 226 226 228 228 228 220 220 220 208 208 208 197 197 197 203 203 203 167 167 167 163 163 163 155 155 155 214 214 214 184 184 184 143 143 143 130 130 130 141 141 141 183 183 183 176 176 176 164 164 164 168 168 168 163 163 163 179 179 179 161 161 161 150 150 150 162 162 162 162 162 162 155 155 155 189 189 189 160 160 160 171 171 171 187 187 188 179 179 179 174 173 174 172 172 172 169 169 169 160 160 160 181 180 181 172 172 172 171 171 171 178 178 178 189 189 189 176 176 176 179 179 179 186 186 186 182 182 182 187 187 188 184 184 184 171 171 171 163 163 163 158 158 158 176 176 176 178 178 178 156 156 156 163 163 163 162 162 162 157 157 157 157 157 157 151 151 151 150 150 150 158 158 158 142 142 142 141 141 141 158 158 158 148 148 148 143 143 143 148 148 148 155 155 155 153 153 153 183 183 183 191 191 191 191 191 191 186 186 186 142 142 142 151 151 151 157 157 157 148 148 148 128 128 128 139 139 139 150 150 150 112 112 112 150 150 150 142 142 142 164 164 164 111 111 111 80 80 80 153 153 153 165 165 165 167 167 167 162 162 162 172 172 172 150 150 150 132 132 132 174 173 174 183 183 183 
194 194 194 208 208 208 194 194 194 191 191 191 190 190 190 185 185 185 189 189 189 192 192 192 207 207 207 220 220 220 221 221 221 224 224 224 212 212 212 205 205 205 190 190 190 187 187 188 203 203 203 186 186 186 178 178 178 191 191 191 197 197 197 130 130 130 107 107 107 165 165 165 190 190 190 168 168 168 163 163 163 172 172 172 194 194 194 181 180 181 177 177 177 178 178 178 168 168 168 157 157 157 167 167 167 197 197 197 136 136 136 149 149 149 193 193 193 167 167 167 167 167 167 174 173 174 164 164 164 175 175 175 181 180 181 164 164 164 168 168 168 178 178 178 174 173 174 182 182 182 189 189 189 187 187 188 184 184 184 187 187 188 178 178 178 175 175 175 174 173 174 163 163 163 183 183 183 175 175 175 163 163 163 142 142 142 144 144 144 161 161 161 167 167 167 156 156 156 155 155 155 144 144 144 154 154 154 163 163 163 146 146 146 144 144 144 150 150 150 143 143 143 141 141 141 158 158 158 157 157 157 153 153 153 168 168 168 171 171 171 157 157 157 144 144 144 134 134 134 149 149 149 156 156 156 172 172 172 172 172 172 155 155 155 162 162 162 157 157 157 121 121 121 135 135 135 146 146 146 129 129 129 149 149 149 168 168 168 162 162 162 149 149 149 154 154 154 121 121 121 135 135 135 170 170 170 
201 201 201 211 211 211 199 199 199 191 191 191 178 178 178 194 194 194 189 189 189 193 193 193 214 214 214 225 225 225 222 222 222 222 222 222 218 218 218 205 205 205 189 189 189 190 190 190 176 176 176 187 187 188 181 180 181 182 182 182 168 168 168 144 144 144 154 154 154 141 141 141 175 175 175 183 183 183 165 165 165 168 168 168 183 183 183 150 150 150 136 136 136 177 177 177 175 175 175 189 189 189 189 189 189 187 187 188 121 121 121 147 147 147 184 184 184 137 137 137 143 143 143 181 180 181 169 169 169 181 180 181 178 178 178 178 178 178 182 182 182 177 177 177 160 160 160 167 167 167 191 191 191 182 182 182 187 187 188 174 173 174 172 172 172 172 172 172 165 165 165 165 165 165 167 167 167 177 177 177 185 185 185 169 169 169 169 169 169 168 168 168 146 146 146 181 180 181 169 169 169 165 165 165 156 156 156 160 160 160 160 160 160 147 147 147 148 148 148 162 162 162 153 153 153 155 155 155 161 161 161 148 148 148 155 155 155 170 170 170 171 171 171 146 146 146 144 144 144 151 151 151 147 147 147 170 170 170 164 164 164 168 168 168 157 157 157 120 120 120 118 118 118 154 154 154 155 155 155 144 144 144 158 158 158 168 168 168 164 164 164 164 164 164 178 178 178 162 162 162 148 148 148 161 161 161 
197 197 197 210 210 210 200 200 200 186 186 186 196 196 196 172 172 172 193 193 193 190 190 190 205 205 205 219 219 219 222 222 222 226 226 226 221 221 221 210 210 210 192 192 192 187 187 188 185 185 185 190 190 190 198 198 198 207 207 207 183 183 183 193 193 193 184 184 184 146 146 146 164 164 164 191 191 191 181 180 181 177 177 177 181 180 181 183 183 183 137 137 137 143 143 143 154 154 154 158 158 158 169 169 169 164 164 164 126 126 126 181 180 181 171 171 171 161 161 161 158 158 158 182 182 182 165 165 165 181 180 181 181 180 181 175 175 175 178 178 178 178 178 178 165 165 165 187 187 188 187 187 188 185 185 185 178 178 178 174 173 174 176 176 176 172 172 172 164 164 164 160 160 160 163 163 163 162 162 162 164 164 164 162 162 162 178 178 178 177 177 177 155 155 155 161 161 161 177 177 177 169 169 169 164 164 164 167 167 167 157 157 157 150 150 150 150 150 150 140 140 140 156 156 156 157 157 157 164 164 164 149 149 149 142 142 142 155 155 155 158 158 158 163 163 163 171 171 171 162 162 162 147 147 147 161 161 161 158 158 158 174 173 174 149 149 149 89 89 89 154 154 154 156 156 156 153 153 153 163 163 163 164 164 164 174 173 174 167 167 167 150 150 150 153 153 153 155 155 155 168 168 168 184 184 184 
203 203 203 207 207 207 193 193 193 164 164 164 183 183 183 171 171 171 184 184 184 201 201 201 208 208 208 220 220 220 219 219 219 220 220 220 221 221 221 219 219 219 199 199 199 185 185 185 192 192 192 201 201 201 194 194 194 196 196 196 207 207 207 197 197 197 189 189 189 171 171 171 163 163 163 153 153 153 168 168 168 186 186 186 181 180 181 175 175 175 177 177 177 158 158 158 151 151 151 172 172 172 160 160 160 186 186 186 170 170 170 174 173 174 181 180 181 160 160 160 176 176 176 175 175 175 178 178 178 186 186 186 185 185 185 182 182 182 185 185 185 184 184 184 169 169 169 185 185 185 171 171 171 169 169 169 175 175 175 171 171 171 172 172 172 189 189 189 176 176 176 178 178 178 172 172 172 158 158 158 174 173 174 167 167 167 170 170 170 181 180 181 178 178 178 168 168 168 168 168 168 170 170 170 162 162 162 165 165 165 157 157 157 162 162 162 170 170 170 155 155 155 153 153 153 150 150 150 143 143 143 147 147 147 142 142 142 154 154 154 168 168 168 176 176 176 170 170 170 169 169 169 155 155 155 151 151 151 157 157 157 169 169 169 136 136 136 84 84 84 148 148 148 190 190 190 176 176 176 175 175 175 182 182 182 176 176 176 182 182 182 182 182 182 177 177 177 157 157 157 155 155 155 171 171 171 
203 203 203 201 201 201 170 170 170 183 183 183 187 187 188 189 189 189 189 189 189 214 214 214 217 217 217 218 218 218 220 220 220 221 221 221 229 229 229 225 225 225 198 198 198 186 186 186 200 200 200 185 185 185 185 185 185 198 198 198 199 199 199 189 189 189 204 204 204 187 187 188 143 143 143 125 125 125 156 156 156 162 162 162 160 160 160 185 185 185 141 141 141 129 129 129 172 172 172 186 186 186 189 189 189 199 199 199 142 142 142 155 155 155 178 178 178 143 143 143 183 183 183 187 187 188 185 185 185 196 196 196 179 179 179 165 165 165 178 178 178 179 179 179 177 177 177 185 185 185 164 164 164 177 177 177 175 175 175 160 160 160 167 167 167 179 179 179 181 180 181 171 171 171 179 179 179 189 189 189 174 173 174 164 164 164 162 162 162 169 169 169 171 171 171 183 183 183 167 167 167 149 149 149 157 157 157 174 173 174 157 157 157 164 164 164 151 151 151 158 158 158 148 148 148 130 130 130 143 143 143 148 148 148 158 158 158 137 137 137 146 146 146 162 162 162 175 175 175 165 165 165 148 148 148 150 150 150 137 137 137 172 172 172 179 179 179 128 128 128 163 163 163 203 203 203 197 197 197 196 196 196 200 200 200 178 178 178 178 178 178 197 197 197 199 199 199 198 198 198 169 169 169 150 150 150 
191 191 191 193 193 193 191 191 191 194 194 194 200 200 200 191 191 191 182 182 182 206 206 206 221 221 221 222 222 222 225 225 225 226 226 226 231 231 231 228 228 228 206 206 206 196 196 196 185 185 185 184 184 184 184 184 184 186 186 186 189 189 189 193 193 193 192 192 192 184 184 184 178 178 178 183 183 183 177 177 177 140 140 140 156 156 156 196 196 196 161 161 161 136 136 136 192 192 192 185 185 185 193 193 193 171 171 171 153 153 153 176 176 176 191 191 191 169 169 169 181 180 181 184 184 184 178 178 178 171 171 171 160 160 160 181 180 181 178 178 178 165 165 165 179 179 179 169 169 169 164 164 164 174 173 174 171 171 171 181 180 181 168 168 168 154 154 154 147 147 147 161 161 161 174 173 174 164 164 164 164 164 164 169 169 169 170 170 170 168 168 168 168 168 168 167 167 167 157 157 157 161 161 161 163 163 163 155 155 155 151 151 151 150 150 150 158 158 158 158 158 158 144 144 144 153 153 153 174 173 174 150 150 150 161 161 161 158 158 158 157 157 157 144 144 144 147 147 147 155 155 155 151 151 151 160 160 160 142 142 142 161 161 161 151 151 151 123 123 123 170 170 170 194 194 194 194 194 194 203 203 203 208 208 208 190 190 190 181 180 181 200 200 200 200 200 200 192 192 192 185 185 185 167 167 167 
181 180 181 201 201 201 199 199 199 190 190 190 191 191 191 196 196 196 190 190 190 203 203 203 224 224 224 225 225 225 227 227 227 228 228 228 228 228 228 229 229 229 212 212 212 201 201 201 200 200 200 204 204 204 203 203 203 194 194 194 199 199 199 198 198 198 187 187 188 199 199 199 194 194 194 172 172 172 116 116 116 156 156 156 163 163 163 184 184 184 199 199 199 122 122 122 114 114 114 137 137 137 146 146 146 184 184 184 151 151 151 175 175 175 196 196 196 181 180 181 175 175 175 178 178 178 172 172 172 177 177 177 189 189 189 156 156 156 147 147 147 171 171 171 176 176 176 175 175 175 169 169 169 174 173 174 185 185 185 196 196 196 189 189 189 179 179 179 164 164 164 163 163 163 168 168 168 161 161 161 153 153 153 164 164 164 168 168 168 169 169 169 171 171 171 160 160 160 153 153 153 162 162 162 162 162 162 137 137 137 136 136 136 156 156 156 192 192 192 172 172 172 158 158 158 168 168 168 176 176 176 141 141 141 162 162 162 164 164 164 163 163 163 164 164 164 149 149 149 144 144 144 150 150 150 155 155 155 158 158 158 151 151 151 142 142 142 120 120 120 175 175 175 191 191 191 201 201 201 201 201 201 205 205 205 204 204 204 205 205 205 208 208 208 204 204 204 206 206 206 203 203 203 193 193 193 
196 196 196 191 191 191 194 194 194 175 175 175 194 194 194 194 194 194 187 187 188 204 204 204 221 221 221 222 222 222 225 225 225 226 226 226 226 226 226 226 226 226 208 208 208 199 199 199 206 206 206 207 207 207 201 201 201 187 187 188 194 194 194 196 196 196 187 187 188 193 193 193 182 182 182 178 178 178 179 179 179 170 170 170 176 176 176 183 183 183 174 173 174 130 130 130 48 48 48 115 115 115 171 171 171 167 167 167 139 139 139 119 119 119 155 155 155 172 172 172 161 161 161 179 179 179 158 158 158 167 167 167 190 190 190 174 173 174 158 158 158 175 175 175 174 173 174 162 162 162 167 167 167 174 173 174 175 175 175 179 179 179 185 185 185 175 175 175 182 182 182 171 171 171 171 171 171 170 170 170 163 163 163 158 158 158 170 170 170 185 185 185 164 164 164 167 167 167 160 160 160 160 160 160 160 160 160 178 178 178 155 155 155 149 149 149 177 177 177 150 150 150 158 158 158 156 156 156 165 165 165 109 109 109 142 142 142 169 169 169 163 163 163 185 185 185 153 153 153 157 157 157 154 154 154 136 136 136 171 171 171 147 147 147 127 127 127 100 100 100 169 169 169 197 197 197 201 201 201 205 205 205 203 203 203 199 199 199 212 212 212 217 217 217 210 210 210 206 206 206 207 207 207 206 206 206 
199 199 199 210 210 210 189 189 189 172 172 172 179 179 179 187 187 188 189 189 189 191 191 191 207 207 207 214 214 214 220 220 220 218 218 218 218 218 218 212 212 212 201 201 201 176 176 176 182 182 182 199 199 199 193 193 193 191 191 191 196 196 196 192 192 192 192 192 192 185 185 185 190 190 190 186 186 186 192 192 192 164 164 164 190 190 190 170 170 170 181 180 181 164 164 164 111 111 111 163 163 163 178 178 178 148 148 148 121 121 121 123 123 123 175 175 175 177 177 177 167 167 167 146 146 146 181 180 181 169 169 169 165 165 165 201 201 201 184 184 184 170 170 170 177 177 177 141 141 141 167 167 167 198 198 198 190 190 190 151 151 151 154 154 154 174 173 174 160 160 160 161 161 161 183 183 183 163 163 163 143 143 143 163 163 163 158 158 158 169 169 169 143 143 143 163 163 163 182 182 182 176 176 176 158 158 158 177 177 177 186 186 186 142 142 142 160 160 160 174 173 174 168 168 168 174 173 174 165 165 165 163 163 163 161 161 161 158 158 158 169 169 169 164 164 164 144 144 144 155 155 155 167 167 167 158 158 158 148 148 148 128 128 128 92 92 92 83 83 83 164 164 164 194 194 194 203 203 203 199 199 199 197 197 197 200 200 200 212 212 212 211 211 211 208 208 208 207 207 207 207 207 207 204 204 204 
194 194 194 194 194 194 183 183 183 183 183 183 183 183 183 177 177 177 184 184 184 172 172 172 181 180 181 189 189 189 198 198 198 192 192 192 196 196 196 203 203 203 198 198 198 177 177 177 178 178 178 192 192 192 184 184 184 196 196 196 201 201 201 200 200 200 197 197 197 193 193 193 189 189 189 199 199 199 186 186 186 164 164 164 170 170 170 171 171 171 189 189 189 160 160 160 133 133 133 148 148 148 175 175 175 162 162 162 130 130 130 158 158 158 147 147 147 163 163 163 169 169 169 157 157 157 178 178 178 170 170 170 161 161 161 184 184 184 172 172 172 177 177 177 178 178 178 167 167 167 210 210 210 178 178 178 164 164 164 176 176 176 160 160 160 160 160 160 161 161 161 140 140 140 175 175 175 168 168 168 167 167 167 167 167 167 157 157 157 182 182 182 144 144 144 176 176 176 178 178 178 149 149 149 172 172 172 164 164 164 189 189 189 150 150 150 134 134 134 164 164 164 148 148 148 164 164 164 137 137 137 165 165 165 158 158 158 168 168 168 170 170 170 158 158 158 155 155 155 153 153 153 158 158 158 136 136 136 122 122 122 104 104 104 73 73 73 50 50 50 120 120 120 210 210 210 205 205 205 201 201 201 199 199 199 203 203 203 205 205 205 200 200 200 203 203 203 212 212 212 207 207 207 204 204 204 
177 177 177 177 177 177 165 165 165 162 162 162 169 169 169 178 178 178 169 169 169 176 176 176 165 165 165 158 158 158 183 183 183 194 194 194 191 191 191 191 191 191 184 184 184 183 183 183 190 190 190 196 196 196 203 203 203 196 196 196 203 203 203 205 205 205 184 184 184 201 201 201 191 191 191 205 205 205 176 176 176 147 147 147 165 165 165 197 197 197 189 189 189 184 184 184 187 187 188 190 190 190 168 168 168 183 183 183 137 137 137 168 168 168 156 156 156 160 160 160 174 173 174 182 182 182 174 173 174 178 178 178 147 147 147 165 165 165 142 142 142 164 164 164 174 173 174 187 187 188 197 197 197 148 148 148 178 178 178 185 185 185 172 172 172 164 164 164 183 183 183 184 184 184 155 155 155 164 164 164 179 179 179 169 169 169 141 141 141 148 148 148 174 173 174 194 194 194 149 149 149 154 154 154 169 169 169 158 158 158 146 146 146 165 165 165 135 135 135 165 165 165 156 156 156 144 144 144 160 160 160 165 165 165 171 171 171 158 158 158 184 184 184 164 164 164 163 163 163 156 156 156 162 162 162 156 156 156 125 125 125 98 98 98 47 47 47 44 44 44 135 135 135 212 212 212 206 206 206 203 203 203 200 200 200 204 204 204 200 200 200 197 197 197 203 203 203 212 212 212 206 206 206 205 205 205 
175 175 175 174 173 174 171 171 171 176 176 176 171 171 171 176 176 176 182 182 182 176 176 176 179 179 179 184 184 184 162 162 162 177 177 177 190 190 190 201 201 201 201 201 201 205 205 205 203 203 203 199 199 199 196 196 196 198 198 198 192 192 192 197 197 197 190 190 190 185 185 185 174 173 174 191 191 191 177 177 177 146 146 146 134 134 134 189 189 189 182 182 182 158 158 158 149 149 149 151 151 151 183 183 183 175 175 175 139 139 139 165 165 165 174 173 174 176 176 176 155 155 155 170 170 170 181 180 181 186 186 186 161 161 161 168 168 168 167 167 167 149 149 149 160 160 160 174 173 174 179 179 179 163 163 163 175 175 175 184 184 184 177 177 177 182 182 182 153 153 153 158 158 158 134 134 134 171 171 171 172 172 172 162 162 162 182 182 182 140 140 140 150 150 150 183 183 183 176 176 176 158 158 158 147 147 147 176 176 176 175 175 175 182 182 182 175 175 175 133 133 133 161 161 161 182 182 182 170 170 170 157 157 157 161 161 161 149 149 149 157 157 157 171 171 171 170 170 170 147 147 147 151 151 151 156 156 156 128 128 128 127 127 127 126 126 126 134 134 134 187 187 188 208 208 208 212 212 212 208 208 208 206 206 206 210 210 210 203 203 203 204 204 204 206 206 206 208 208 208 206 206 206 206 206 206 
187 187 188 184 184 184 187 187 188 169 169 169 172 172 172 164 164 164 174 173 174 183 183 183 183 183 183 183 183 183 183 183 183 177 177 177 183 183 183 207 207 207 214 214 214 198 198 198 199 199 199 200 200 200 192 192 192 189 189 189 177 177 177 179 179 179 163 163 163 189 189 189 179 179 179 198 198 198 174 173 174 154 154 154 144 144 144 170 170 170 161 161 161 122 122 122 157 157 157 177 177 177 171 171 171 189 189 189 139 139 139 153 153 153 150 150 150 172 172 172 157 157 157 182 182 182 175 175 175 165 165 165 146 146 146 123 123 123 142 142 142 167 167 167 190 190 190 187 187 188 183 183 183 156 156 156 144 144 144 181 180 181 177 177 177 174 173 174 169 169 169 164 164 164 183 183 183 155 155 155 125 125 125 126 126 126 126 126 126 149 149 149 167 167 167 141 141 141 168 168 168 155 155 155 169 169 169 161 161 161 178 178 178 179 179 179 182 182 182 149 149 149 128 128 128 185 185 185 182 182 182 172 172 172 174 173 174 165 165 165 155 155 155 163 163 163 175 175 175 167 167 167 167 167 167 170 170 170 161 161 161 164 164 164 189 189 189 183 183 183 208 208 208 212 212 212 217 217 217 215 215 215 218 218 218 218 218 218 208 208 208 212 212 212 220 220 220 212 212 212 210 210 210 199 199 199 
174 173 174 178 178 178 158 158 158 163 163 163 178 178 178 176 176 176 176 176 176 171 171 171 189 189 189 183 183 183 181 180 181 182 182 182 192 192 192 211 211 211 207 207 207 197 197 197 191 191 191 170 170 170 185 185 185 190 190 190 185 185 185 175 175 175 172 172 172 199 199 199 190 190 190 200 200 200 176 176 176 160 160 160 164 164 164 189 189 189 171 171 171 157 157 157 171 171 171 179 179 179 182 182 182 156 156 156 111 111 111 168 168 168 172 172 172 146 146 146 128 128 128 156 156 156 142 142 142 134 134 134 142 142 142 155 155 155 169 169 169 178 178 178 196 196 196 179 179 179 171 171 171 185 185 185 186 186 186 185 185 185 181 180 181 179 179 179 184 184 184 178 178 178 165 165 165 98 98 98 72 72 72 112 112 112 141 141 141 162 162 162 163 163 163 153 153 153 142 142 142 170 170 170 168 168 168 154 154 154 165 165 165 155 155 155 162 162 162 185 185 185 151 151 151 137 137 137 171 171 171 175 175 175 193 193 193 182 182 182 169 169 169 155 155 155 158 158 158 174 173 174 161 161 161 150 150 150 177 177 177 148 148 148 170 170 170 169 169 169 198 198 198 215 215 215 218 218 218 217 217 217 218 218 218 215 215 215 211 211 211 214 214 214 215 215 215 210 210 210 205 205 205 174 173 174 
164 164 164 150 150 150 147 147 147 176 176 176 175 175 175 165 165 165 160 160 160 169 169 169 181 180 181 191 191 191 198 198 198 197 197 197 200 200 200 207 207 207 206 206 206 198 198 198 182 182 182 141 141 141 164 164 164 172 172 172 179 179 179 181 180 181 171 171 171 192 192 192 199 199 199 196 196 196 190 190 190 157 157 157 135 135 135 170 170 170 158 158 158 141 141 141 182 182 182 177 177 177 140 140 140 113 113 113 89 89 89 175 175 175 178 178 178 179 179 179 184 184 184 190 190 190 190 190 190 175 175 175 191 191 191 177 177 177 170 170 170 174 173 174 185 185 185 177 177 177 182 182 182 186 186 186 181 180 181 178 178 178 170 170 170 183 183 183 178 178 178 178 178 178 187 187 188 181 180 181 182 182 182 187 187 188 174 173 174 174 173 174 157 157 157 165 165 165 128 128 128 139 139 139 169 169 169 164 164 164 164 164 164 155 155 155 177 177 177 179 179 179 184 184 184 129 129 129 141 141 141 194 194 194 178 178 178 174 173 174 174 173 174 155 155 155 139 139 139 143 143 143 156 156 156 165 165 165 157 157 157 148 148 148 144 144 144 167 167 167 203 203 203 218 218 218 218 218 218 224 224 224 210 210 210 215 215 215 213 213 213 207 207 207 203 203 203 206 206 206 199 199 199 183 183 183 
163 163 163 155 155 155 148 148 148 177 177 177 191 191 191 162 162 162 149 149 149 175 175 175 191 191 191 189 189 189 190 190 190 196 196 196 191 191 191 184 184 184 198 198 198 187 187 188 170 170 170 134 134 134 162 162 162 177 177 177 164 164 164 158 158 158 171 171 171 197 197 197 163 163 163 129 129 129 168 168 168 155 155 155 160 160 160 177 177 177 182 182 182 170 170 170 158 158 158 157 157 157 154 154 154 174 173 174 144 144 144 158 158 158 139 139 139 162 162 162 187 187 188 171 171 171 150 150 150 139 139 139 144 144 144 149 149 149 171 171 171 172 172 172 171 171 171 186 186 186 181 180 181 179 179 179 169 169 169 168 168 168 175 175 175 172 172 172 163 163 163 164 164 164 185 185 185 140 140 140 164 164 164 151 151 151 162 162 162 174 173 174 189 189 189 168 168 168 141 141 141 148 148 148 160 160 160 174 173 174 163 163 163 168 168 168 175 175 175 185 185 185 123 123 123 177 177 177 161 161 161 176 176 176 182 182 182 161 161 161 154 154 154 164 164 164 157 157 157 146 146 146 153 153 153 153 153 153 167 167 167 167 167 167 157 157 157 174 173 174 199 199 199 217 217 217 224 224 224 215 215 215 218 218 218 210 210 210 183 183 183 203 203 203 205 205 205 207 207 207 194 194 194 199 199 199 
160 160 160 165 165 165 172 172 172 142 142 142 179 179 179 185 185 185 183 183 183 176 176 176 184 184 184 178 178 178 183 183 183 200 200 200 182 182 182 175 175 175 186 186 186 172 172 172 155 155 155 177 177 177 171 171 171 189 189 189 171 171 171 147 147 147 169 169 169 178 178 178 107 107 107 122 122 122 189 189 189 203 203 203 197 197 197 194 194 194 183 183 183 151 151 151 164 164 164 125 125 125 164 164 164 187 187 188 129 129 129 158 158 158 160 160 160 146 146 146 181 180 181 171 171 171 148 148 148 137 137 137 147 147 147 168 168 168 187 187 188 169 169 169 199 199 199 199 199 199 179 179 179 185 185 185 178 178 178 177 177 177 182 182 182 165 165 165 171 171 171 170 170 170 170 170 170 156 156 156 160 160 160 174 173 174 181 180 181 176 176 176 176 176 176 151 151 151 156 156 156 148 148 148 142 142 142 171 171 171 168 168 168 161 161 161 168 168 168 187 187 188 149 149 149 162 162 162 178 178 178 157 157 157 126 126 126 170 170 170 151 151 151 168 168 168 167 167 167 184 184 184 158 158 158 153 153 153 172 172 172 155 155 155 168 168 168 169 169 169 193 193 193 215 215 215 218 218 218 221 221 221 219 219 219 199 199 199 192 192 192 204 204 204 204 204 204 205 205 205 208 208 208 214 214 214 
167 167 167 167 167 167 147 147 147 119 119 119 125 125 125 149 149 149 178 178 178 179 179 179 182 182 182 186 186 186 191 191 191 197 197 197 194 194 194 190 190 190 177 177 177 157 157 157 162 162 162 156 156 156 162 162 162 163 163 163 207 207 207 168 168 168 148 148 148 178 178 178 178 178 178 197 197 197 179 179 179 164 164 164 157 157 157 165 165 165 156 156 156 151 151 151 187 187 188 126 126 126 161 161 161 187 187 188 93 93 93 141 141 141 185 185 185 171 171 171 172 172 172 175 175 175 170 170 170 175 175 175 177 177 177 174 173 174 165 165 165 162 162 162 157 157 157 171 171 171 161 161 161 168 168 168 185 185 185 162 162 162 174 173 174 177 177 177 171 171 171 178 178 178 172 172 172 172 172 172 172 172 172 178 178 178 182 182 182 169 169 169 183 183 183 157 157 157 158 158 158 147 147 147 167 167 167 167 167 167 155 155 155 163 163 163 154 154 154 153 153 153 170 170 170 162 162 162 154 154 154 178 178 178 137 137 137 156 156 156 167 167 167 165 165 165 185 185 185 182 182 182 165 165 165 170 170 170 172 172 172 151 151 151 148 148 148 172 172 172 220 220 220 213 213 213 212 212 212 217 217 217 218 218 218 205 205 205 206 206 206 211 211 211 206 206 206 206 206 206 211 211 211 215 215 215 
161 161 161 123 123 123 135 135 135 157 157 157 151 151 151 133 133 133 156 156 156 171 171 171 191 191 191 184 184 184 183 183 183 191 191 191 193 193 193 197 197 197 201 201 201 156 156 156 179 179 179 172 172 172 181 180 181 146 146 146 111 111 111 175 175 175 155 155 155 164 164 164 168 168 168 167 167 167 154 154 154 149 149 149 147 147 147 142 142 142 144 144 144 170 170 170 186 186 186 187 187 188 170 170 170 189 189 189 176 176 176 172 172 172 176 176 176 178 178 178 178 178 178 167 167 167 158 158 158 171 171 171 171 171 171 182 182 182 193 193 193 171 171 171 137 137 137 174 173 174 155 155 155 163 163 163 172 172 172 172 172 172 176 176 176 164 164 164 182 182 182 172 172 172 165 165 165 176 176 176 162 162 162 181 180 181 164 164 164 161 161 161 211 211 211 150 150 150 139 139 139 144 144 144 168 168 168 169 169 169 172 172 172 167 167 167 158 158 158 162 162 162 158 158 158 155 155 155 151 151 151 160 160 160 181 180 181 179 179 179 129 129 129 171 171 171 168 168 168 129 129 129 157 157 157 150 150 150 144 144 144 163 163 163 160 160 160 190 190 190 213 213 213 215 215 215 224 224 224 222 222 222 221 221 221 210 210 210 210 210 210 210 210 210 201 201 201 205 205 205 213 213 213 217 217 217 
125 125 125 137 137 137 141 141 141 125 125 125 157 157 157 121 121 121 139 139 139 187 187 188 168 168 168 179 179 179 186 186 186 190 190 190 187 187 188 197 197 197 207 207 207 196 196 196 175 175 175 174 173 174 189 189 189 169 169 169 129 129 129 182 182 182 175 175 175 151 151 151 176 176 176 171 171 171 177 177 177 178 178 178 190 190 190 175 175 175 174 173 174 169 169 169 175 175 175 163 163 163 175 175 175 175 175 175 142 142 142 150 150 150 187 187 188 182 182 182 175 175 175 149 149 149 144 144 144 176 176 176 182 182 182 187 187 188 182 182 182 182 182 182 172 172 172 171 171 171 167 167 167 179 179 179 153 153 153 139 139 139 174 173 174 160 160 160 165 165 165 164 164 164 170 170 170 168 168 168 167 167 167 185 185 185 175 175 175 163 163 163 168 168 168 141 141 141 156 156 156 167 167 167 149 149 149 127 127 127 155 155 155 168 168 168 163 163 163 157 157 157 149 149 149 136 136 136 154 154 154 147 147 147 169 169 169 167 167 167 149 149 149 151 151 151 177 177 177 149 149 149 174 173 174 171 171 171 141 141 141 150 150 150 162 162 162 187 187 188 203 203 203 205 205 205 218 218 218 217 217 217 220 220 220 215 215 215 214 214 214 213 213 213 207 207 207 215 215 215 214 214 214 218 218 218 
135 135 135 146 146 146 157 157 157 136 136 136 151 151 151 109 109 109 170 170 170 185 185 185 186 186 186 190 190 190 196 196 196 200 200 200 184 184 184 191 191 191 193 193 193 178 178 178 189 189 189 179 179 179 187 187 188 151 151 151 200 200 200 192 192 192 192 192 192 199 199 199 187 187 188 189 189 189 189 189 189 193 193 193 172 172 172 186 186 186 186 186 186 165 165 165 141 141 141 114 114 114 135 135 135 172 172 172 101 101 101 129 129 129 198 198 198 184 184 184 162 162 162 154 154 154 156 156 156 194 194 194 181 180 181 177 177 177 186 186 186 183 183 183 168 168 168 130 130 130 165 165 165 128 128 128 139 139 139 155 155 155 161 161 161 171 171 171 161 161 161 181 180 181 153 153 153 157 157 157 162 162 162 160 160 160 174 173 174 132 132 132 119 119 119 160 160 160 175 175 175 160 160 160 155 155 155 157 157 157 175 175 175 167 167 167 156 156 156 143 143 143 162 162 162 162 162 162 163 163 163 162 162 162 175 175 175 171 171 171 158 158 158 158 158 158 153 153 153 161 161 161 161 161 161 169 169 169 175 175 175 144 144 144 153 153 153 198 198 198 200 200 200 203 203 203 207 207 207 215 215 215 220 220 220 218 218 218 213 213 213 214 214 214 218 218 218 219 219 219 219 219 219 218 218 218 
137 137 137 143 143 143 148 148 148 149 149 149 139 139 139 136 136 136 190 190 190 182 182 182 170 170 170 181 180 181 190 190 190 192 192 192 191 191 191 189 189 189 200 200 200 186 186 186 184 184 184 186 186 186 189 189 189 190 190 190 184 184 184 167 167 167 182 182 182 172 172 172 167 167 167 182 182 182 187 187 188 161 161 161 175 175 175 168 168 168 162 162 162 184 184 184 193 193 193 143 143 143 143 143 143 194 194 194 123 123 123 140 140 140 197 197 197 178 178 178 155 155 155 151 151 151 174 173 174 183 183 183 186 186 186 185 185 185 192 192 192 191 191 191 164 164 164 149 149 149 181 180 181 167 167 167 172 172 172 177 177 177 175 175 175 174 173 174 167 167 167 193 193 193 135 135 135 164 164 164 182 182 182 179 179 179 194 194 194 161 161 161 181 180 181 187 187 188 158 158 158 154 154 154 144 144 144 142 142 142 151 151 151 165 165 165 155 155 155 171 171 171 171 171 171 168 168 168 168 168 168 177 177 177 171 171 171 163 163 163 163 163 163 171 171 171 118 118 118 155 155 155 164 164 164 167 167 167 168 168 168 164 164 164 167 167 167 200 200 200 207 207 207 205 205 205 211 211 211 214 214 214 218 218 218 218 218 218 217 217 217 218 218 218 219 219 219 220 220 220 221 221 221 217 217 217 
143 143 143 147 147 147 129 129 129 139 139 139 148 148 148 148 148 148 193 193 193 187 187 188 175 175 175 167 167 167 172 172 172 190 190 190 194 194 194 182 182 182 191 191 191 199 199 199 182 182 182 178 178 178 183 183 183 187 187 188 190 190 190 154 154 154 174 173 174 178 178 178 175 175 175 144 144 144 157 157 157 164 164 164 175 175 175 148 148 148 158 158 158 177 177 177 185 185 185 136 136 136 143 143 143 186 186 186 129 129 129 141 141 141 182 182 182 144 144 144 169 169 169 165 165 165 169 169 169 153 153 153 192 192 192 197 197 197 178 178 178 183 183 183 181 180 181 181 180 181 174 173 174 183 183 183 164 164 164 172 172 172 183 183 183 183 183 183 185 185 185 174 173 174 147 147 147 106 106 106 169 169 169 167 167 167 150 150 150 191 191 191 172 172 172 150 150 150 156 156 156 146 146 146 155 155 155 168 168 168 164 164 164 175 175 175 163 163 163 171 171 171 165 165 165 164 164 164 158 158 158 165 165 165 175 175 175 174 173 174 169 169 169 154 154 154 127 127 127 167 167 167 165 165 165 151 151 151 154 154 154 175 175 175 163 163 163 190 190 190 212 212 212 210 210 210 215 215 215 214 214 214 214 214 214 218 218 218 218 218 218 217 217 217 215 215 215 215 215 215 218 218 218 212 212 212 
